; G-Code generated by Simplify3D(R) Version 3.1.1
; Apr 29, 2017 at 2:34:43 PM
; Settings Summary
;   processName,normal (clear)
;   applyToModels,Drive spool
;   profileName,Default (modified)
;   profileVersion,2015-07-02 16:19:25
;   baseProfile,normal (modified)
;   printMaterial,PLA
;   printQuality,Fast
;   printExtruders,
;   extruderName,Extruder 1
;   extruderToolheadNumber,0
;   extruderDiameter,0.4
;   extruderAutoWidth,1
;   extruderWidth,0.48
;   extrusionMultiplier,1
;   extruderUseRetract,1
;   extruderRetractionDistance,3.1
;   extruderExtraRestartDistance,0
;   extruderRetractionZLift,0
;   extruderRetractionSpeed,1800
;   extruderUseCoasting,0
;   extruderCoastingDistance,0.2
;   extruderUseWipe,0
;   extruderWipeDistance,5
;   primaryExtruder,0
;   layerHeight,0.3
;   topSolidLayers,2
;   bottomSolidLayers,2
;   perimeterOutlines,3
;   printPerimetersInsideOut,0
;   startPointOption,2
;   startPointOriginX,0
;   startPointOriginY,0
;   startPointOriginZ,300
;   sequentialIslands,0
;   spiralVaseMode,0
;   firstLayerHeightPercentage,100
;   firstLayerWidthPercentage,105
;   firstLayerUnderspeed,0.4
;   useRaft,1
;   raftExtruder,0
;   raftLayers,1
;   raftOffset,0.6
;   raftSeparationDistance,0.24
;   raftInfill,75
;   disableRaftBaseLayers,0
;   useSkirt,1
;   skirtExtruder,0
;   skirtLayers,1
;   skirtOutlines,1
;   skirtOffset,5
;   usePrimePillar,0
;   primePillarExtruder,999
;   primePillarWidth,12
;   primePillarLocation,7
;   primePillarSpeedMultiplier,1
;   useOozeShield,0
;   oozeShieldExtruder,999
;   oozeShieldOffset,2
;   oozeShieldOutlines,1
;   oozeShieldSidewallShape,1
;   oozeShieldSidewallAngle,30
;   oozeShieldSpeedMultiplier,1
;   infillExtruder,0
;   internalInfillPattern,Rectilinear
;   externalInfillPattern,Concentric
;   infillPercentage,50
;   outlineOverlapPercentage,15
;   infillExtrusionWidthPercentage,100
;   minInfillLength,5
;   infillLayerInterval,1
;   infillAngles,45,-45
;   overlapInfillAngles,0
;   generateSupport,0
;   supportExtruder,0
;   supportInfillPercentage,30
;   supportExtraInflation,0.2
;   denseSupportLayers,2
;   denseSupportInfillPercentage,80
;   supportLayerInterval,1
;   supportHorizontalPartOffset,0.3
;   supportUpperSeparationLayers,1
;   supportLowerSeparationLayers,1
;   supportType,0
;   supportGridSpacing,1.5
;   maxOverhangAngle,40
;   supportAngles,0
;   temperatureName,Extruder 1 Temperature
;   temperatureNumber,0
;   temperatureSetpointCount,1
;   temperatureSetpointLayers,1
;   temperatureSetpointTemperatures,205
;   temperatureStabilizeAtStartup,1
;   temperatureHeatedBed,0
;   temperatureRelayBetweenLayers,1
;   temperatureRelayBetweenLoops,0
;   fanLayers,1
;   fanSpeeds,0
;   blipFanToFullPower,0
;   adjustSpeedForCooling,1
;   minSpeedLayerTime,20
;   minCoolingSpeedSlowdown,20
;   increaseFanForCooling,0
;   minFanLayerTime,45
;   maxCoolingFanSpeed,100
;   increaseFanForBridging,0
;   bridgingFanSpeed,100
;   use5D,1
;   relativeEdistances,0
;   allowEaxisZeroing,1
;   independentExtruderAxes,0
;   includeM10123,0
;   stickySupport,1
;   applyToolheadOffsets,0
;   gcodeXoffset,0
;   gcodeYoffset,0
;   gcodeZoffset,0
;   overrideMachineDefinition,0
;   machineTypeOverride,0
;   strokeXoverride,113
;   strokeYoverride,187
;   strokeZoverride,100
;   originOffsetXoverride,0
;   originOffsetYoverride,0
;   originOffsetZoverride,0
;   homeXdirOverride,-1
;   homeYdirOverride,-1
;   homeZdirOverride,-1
;   flipXoverride,1
;   flipYoverride,-1
;   flipZoverride,1
;   toolheadOffsets,0,0|0,0|0,0|0,0|0,0|0,0
;   overrideFirmwareConfiguration,1
;   firmwareTypeOverride,RepRap (Marlin/Repetier/Sprinter)
;   GPXconfigOverride,r2
;   baudRateOverride,115200
;   overridePrinterModels,0
;   printerModelsOverride
;   startingGcode,G92 X0 Y0 ; zero X and Y axes,G28 Z; GO TO HOME ON Z
;   layerChangeGcode,
;   retractionGcode,
;   toolChangeGcode,
;   endingGcode,M104 S0 ; turn off extruder,M140 S0 ; turn off bed,G91 ; set to incrimental,G1 Z10 F5000 ; lift nozzle,G90 ; Absolute Positioning,G1 X0 ; move X to left,M84 ; disable motors
;   exportFileFormat,gcode
;   celebration,0
;   celebrationSong,Random Song
;   postProcessing,
;   defaultSpeed,4200
;   outlineUnderspeed,1
;   solidInfillUnderspeed,0.9
;   supportUnderspeed,0.75
;   rapidXYspeed,4800
;   rapidZspeed,1002
;   minBridgingArea,50
;   bridgingExtraInflation,0
;   bridgingExtrusionMultiplier,1
;   bridgingSpeedMultiplier,1
;   filamentDiameter,1.7
;   filamentPricePerKg,27
;   filamentDensity,1.25
;   useMinPrintHeight,0
;   minPrintHeight,0
;   useMaxPrintHeight,0
;   maxPrintHeight,10
;   useDiaphragm,0
;   diaphragmLayerInterval,20
;   robustSlicing,1
;   mergeAllIntoSolid,0
;   onlyRetractWhenCrossingOutline,1
;   retractBetweenLayers,0
;   useRetractionMinTravel,0
;   retractionMinTravel,3
;   retractWhileWiping,0
;   onlyWipeOutlines,1
;   avoidCrossingOutline,0
;   maxMovementDetourFactor,3
;   toolChangeRetractionDistance,12
;   toolChangeExtraRestartDistance,-0.5
;   toolChangeRetractionSpeed,600
;   allowThinWallGapFill,1
;   thinWallAllowedOverlapPercentage,15
;   horizontalSizeCompensation,0
G90
M82
M106 S0
M104 S205 T0
M109 S205 T0
G92 X0 Y0 ; zero X and Y axes
G28 Z; GO TO HOME ON Z
G92 E0
G1 E-3.1000 F1800
G1 Z0.500 F1002
; layer 1, Z = 0.5
M105
T0
; tool H0.500 W0.504
; skirt
G1 X47.122 Y65.358 F4800
G1 E0.0000 F540
G92 E0
G1 X47.350 Y65.189 E0.0315 F1680
G1 X47.353 Y65.187 E0.0319
G1 X47.468 Y65.106 E0.0475
G1 X47.471 Y65.104 E0.0479
G1 X48.616 Y64.346 E0.2004
G1 X48.619 Y64.344 E0.2007
G1 X48.738 Y64.271 E0.2163
G1 X48.740 Y64.269 E0.2166
G1 X48.984 Y64.126 E0.2479
G1 X48.986 Y64.125 E0.2483
G1 X49.109 Y64.058 E0.2638
G1 X49.112 Y64.056 E0.2641
G1 X49.808 Y63.698 E0.3511
G1 X49.810 Y63.697 E0.3513
G1 X49.894 Y63.655 E0.3617
G1 X49.896 Y63.654 E0.3620
G1 X50.067 Y63.574 E0.3829
G1 X50.069 Y63.573 E0.3831
G1 X50.154 Y63.535 E0.3935
G1 X50.156 Y63.534 E0.3937
G1 X50.833 Y63.246 E0.4754
G1 X50.835 Y63.245 E0.4757
G1 X50.921 Y63.210 E0.4860
G1 X50.923 Y63.209 E0.4863
G1 X51.099 Y63.142 E0.5072
G1 X51.101 Y63.141 E0.5074
G1 X51.189 Y63.109 E0.5179
G1 X51.192 Y63.109 E0.5181
G1 X51.889 Y62.870 E0.5999
G1 X51.891 Y62.870 E0.6001
G1 X51.980 Y62.841 E0.6105
G1 X51.982 Y62.840 E0.6108
G1 X52.162 Y62.786 E0.6317
G1 X52.165 Y62.785 E0.6319
G1 X52.255 Y62.760 E0.6423
G1 X52.257 Y62.759 E0.6426
G1 X52.969 Y62.573 E0.7243
G1 X52.971 Y62.572 E0.7246
G1 X53.062 Y62.550 E0.7350
G1 X53.064 Y62.550 E0.7352
G1 X53.248 Y62.508 E0.7561
G1 X53.250 Y62.508 E0.7564
G1 X53.342 Y62.489 E0.7667
G1 X53.344 Y62.489 E0.7670
G1 X54.068 Y62.355 E0.8487
G1 X54.070 Y62.354 E0.8490
G1 X54.162 Y62.339 E0.8594
G1 X54.165 Y62.339 E0.8596
G1 X54.351 Y62.311 E0.8805
G1 X54.353 Y62.311 E0.8808
G1 X54.446 Y62.299 E0.8911
G1 X54.448 Y62.299 E0.8914
G1 X55.180 Y62.218 E0.9731
G1 X55.182 Y62.217 E0.9734
G1 X55.275 Y62.209 E0.9838
G1 X55.277 Y62.209 E0.9840
G1 X55.465 Y62.195 E1.0049
G1 X55.468 Y62.195 E1.0052
G1 X55.561 Y62.189 E1.0156
G1 X55.563 Y62.189 E1.0158
G1 X56.299 Y62.162 E1.0976
G1 X56.301 Y62.162 E1.0978
G1 X56.395 Y62.160 E1.1082
G1 X56.397 Y62.160 E1.1084
G1 X56.585 Y62.160 E1.1293
G1 X56.587 Y62.160 E1.1296
G1 X56.681 Y62.162 E1.1400
G1 X56.683 Y62.162 E1.1402
G1 X57.419 Y62.188 E1.2220
G1 X57.421 Y62.188 E1.2222
G1 X57.515 Y62.193 E1.2326
G1 X57.517 Y62.194 E1.2328
G1 X57.705 Y62.207 E1.2538
G1 X57.707 Y62.207 E1.2540
G1 X57.800 Y62.216 E1.2644
G1 X57.802 Y62.216 E1.2646
G1 X58.534 Y62.296 E1.3464
G1 X58.537 Y62.296 E1.3466
G1 X58.629 Y62.308 E1.3570
G1 X58.632 Y62.309 E1.3573
G1 X58.818 Y62.336 E1.3782
G1 X58.820 Y62.336 E1.3784
G1 X58.912 Y62.352 E1.3888
G1 X58.915 Y62.352 E1.3891
G1 X59.639 Y62.485 E1.4708
G1 X59.641 Y62.486 E1.4711
G1 X59.733 Y62.504 E1.4815
G1 X59.735 Y62.505 E1.4818
G1 X59.919 Y62.546 E1.5027
G1 X59.921 Y62.546 E1.5029
G1 X60.012 Y62.568 E1.5133
G1 X60.014 Y62.569 E1.5135
G1 X60.726 Y62.754 E1.5952
G1 X60.728 Y62.755 E1.5955
G1 X60.819 Y62.780 E1.6058
G1 X60.821 Y62.781 E1.6061
G1 X61.001 Y62.835 E1.6270
G1 X61.003 Y62.836 E1.6273
G1 X61.092 Y62.864 E1.6377
G1 X61.094 Y62.865 E1.6379
G1 X61.792 Y63.102 E1.7197
G1 X61.794 Y63.103 E1.7199
G1 X61.882 Y63.135 E1.7303
G1 X61.884 Y63.136 E1.7306
G1 X62.060 Y63.203 E1.7515
G1 X62.062 Y63.204 E1.7517
G1 X62.149 Y63.239 E1.7621
G1 X62.151 Y63.239 E1.7623
G1 X62.828 Y63.527 E1.8441
G1 X62.830 Y63.528 E1.8443
G1 X62.916 Y63.566 E1.8547
G1 X62.918 Y63.567 E1.8549
G1 X63.088 Y63.647 E1.8759
G1 X63.090 Y63.648 E1.8761
G1 X63.174 Y63.689 E1.8865
G1 X63.176 Y63.690 E1.8867
G1 X63.831 Y64.026 E1.9685
G1 X63.833 Y64.027 E1.9687
G1 X63.916 Y64.071 E1.9791
G1 X63.918 Y64.072 E1.9793
G1 X64.082 Y64.165 E2.0003
G1 X64.084 Y64.166 E2.0005
G1 X64.165 Y64.213 E2.0109
G1 X64.167 Y64.214 E2.0111
G1 X64.795 Y64.597 E2.0929
G1 X64.797 Y64.598 E2.0931
G1 X64.876 Y64.649 E2.1036
G1 X64.878 Y64.650 E2.1038
G1 X65.036 Y64.754 E2.1247
G1 X65.037 Y64.755 E2.1250
G1 X65.114 Y64.808 E2.1353
G1 X65.116 Y64.809 E2.1356
G1 X65.753 Y65.265 E2.2225
G1 X65.756 Y65.267 E2.2229
G1 X65.868 Y65.351 E2.2385
G1 X65.870 Y65.353 E2.2388
G1 X66.091 Y65.530 E2.2702
G1 X66.094 Y65.532 E2.2706
G1 X66.201 Y65.623 E2.2862
G1 X66.203 Y65.625 E2.2865
G1 X67.230 Y66.544 E2.4395
G1 X67.232 Y66.546 E2.4399
G1 X67.334 Y66.642 E2.4555
G1 X67.337 Y66.645 E2.4558
G1 X67.537 Y66.845 E2.4872
G1 X67.539 Y66.847 E2.4876
G1 X67.636 Y66.949 E2.5032
G1 X67.638 Y66.951 E2.5035
G1 X68.161 Y67.534 E2.5905
G1 X68.163 Y67.536 E2.5908
G1 X68.224 Y67.607 E2.6012
G1 X68.225 Y67.609 E2.6014
G1 X68.346 Y67.754 E2.6224
G1 X68.347 Y67.755 E2.6226
G1 X68.406 Y67.828 E2.6329
G1 X68.407 Y67.830 E2.6332
G1 X68.857 Y68.412 E2.7149
G1 X68.858 Y68.414 E2.7151
G1 X68.914 Y68.489 E2.7255
G1 X68.916 Y68.490 E2.7258
G1 X69.025 Y68.644 E2.7467
G1 X69.027 Y68.646 E2.7469
G1 X69.080 Y68.723 E2.7573
G1 X69.081 Y68.724 E2.7576
G1 X69.488 Y69.338 E2.8393
G1 X69.489 Y69.340 E2.8396
G1 X69.539 Y69.419 E2.8499
G1 X69.540 Y69.421 E2.8502
G1 X69.638 Y69.582 E2.8711
G1 X69.640 Y69.583 E2.8714
G1 X69.687 Y69.664 E2.8817
G1 X69.688 Y69.666 E2.8820
G1 X70.049 Y70.308 E2.9637
G1 X70.050 Y70.310 E2.9640
G1 X70.094 Y70.392 E2.9743
G1 X70.095 Y70.394 E2.9746
G1 X70.181 Y70.561 E2.9955
G1 X70.182 Y70.563 E2.9957
G1 X70.224 Y70.648 E3.0062
G1 X70.225 Y70.650 E3.0064
G1 X70.538 Y71.316 E3.0882
G1 X70.539 Y71.318 E3.0884
G1 X70.577 Y71.404 E3.0988
G1 X70.578 Y71.406 E3.0990
G1 X70.651 Y71.579 E3.1200
G1 X70.652 Y71.581 E3.1202
G1 X70.687 Y71.668 E3.1306
G1 X70.688 Y71.670 E3.1308
G1 X70.952 Y72.358 E3.2126
G1 X70.952 Y72.360 E3.2128
G1 X70.984 Y72.447 E3.2232
G1 X70.985 Y72.450 E3.2235
G1 X71.046 Y72.628 E3.2444
G1 X71.047 Y72.630 E3.2446
G1 X71.075 Y72.719 E3.2550
G1 X71.076 Y72.721 E3.2552
G1 X71.288 Y73.426 E3.3370
G1 X71.289 Y73.428 E3.3372
G1 X71.314 Y73.518 E3.3476
G1 X71.315 Y73.520 E3.3479
G1 X71.363 Y73.703 E3.3688
G1 X71.363 Y73.705 E3.3691
G1 X71.385 Y73.796 E3.3794
G1 X71.386 Y73.798 E3.3797
G1 X71.546 Y74.517 E3.4614
G1 X71.547 Y74.519 E3.4617
G1 X71.566 Y74.611 E3.4721
G1 X71.566 Y74.613 E3.4723
G1 X71.600 Y74.798 E3.4933
G1 X71.601 Y74.800 E3.4935
G1 X71.616 Y74.892 E3.5039
G1 X71.616 Y74.894 E3.5041
G1 X71.724 Y75.623 E3.5858
G1 X71.724 Y75.625 E3.5861
G1 X71.736 Y75.718 E3.5965
G1 X71.737 Y75.720 E3.5967
G1 X71.757 Y75.907 E3.6177
G1 X71.757 Y75.910 E3.6179
G1 X71.766 Y76.003 E3.6283
G1 X71.766 Y76.005 E3.6285
G1 X71.820 Y76.739 E3.7103
G1 X71.820 Y76.741 E3.7105
G1 X71.826 Y76.835 E3.7209
G1 X71.826 Y76.837 E3.7211
G1 X71.833 Y77.025 E3.7421
G1 X71.833 Y77.027 E3.7423
G1 X71.835 Y77.121 E3.7527
G1 X71.835 Y77.123 E3.7529
G1 X71.835 Y77.859 E3.8347
G1 X71.835 Y77.862 E3.8349
G1 X71.833 Y77.955 E3.8453
G1 X71.833 Y77.957 E3.8456
G1 X71.827 Y78.146 E3.8665
G1 X71.826 Y78.148 E3.8667
G1 X71.821 Y78.241 E3.8771
G1 X71.821 Y78.243 E3.8773
G1 X71.768 Y78.978 E3.9591
G1 X71.768 Y78.980 E3.9593
G1 X71.759 Y79.073 E3.9697
G1 X71.759 Y79.075 E3.9700
G1 X71.739 Y79.263 E3.9909
G1 X71.738 Y79.265 E3.9911
G1 X71.726 Y79.358 E4.0015
G1 X71.726 Y79.360 E4.0018
G1 X71.619 Y80.088 E4.0835
G1 X71.619 Y80.090 E4.0837
G1 X71.604 Y80.183 E4.0941
G1 X71.603 Y80.185 E4.0944
G1 X71.569 Y80.370 E4.1153
G1 X71.569 Y80.372 E4.1155
G1 X71.550 Y80.464 E4.1259
G1 X71.550 Y80.466 E4.1262
G1 X71.390 Y81.185 E4.2079
G1 X71.390 Y81.187 E4.2082
G1 X71.368 Y81.278 E4.2185
G1 X71.367 Y81.280 E4.2188
G1 X71.319 Y81.463 E4.2397
G1 X71.319 Y81.465 E4.2399
G1 X71.294 Y81.555 E4.2503
G1 X71.293 Y81.557 E4.2506
G1 X71.081 Y82.262 E4.3323
G1 X71.081 Y82.264 E4.3326
G1 X71.052 Y82.353 E4.3430
G1 X71.051 Y82.356 E4.3432
G1 X70.991 Y82.534 E4.3642
G1 X70.990 Y82.536 E4.3644
G1 X70.958 Y82.624 E4.3748
G1 X70.957 Y82.626 E4.3750
G1 X70.695 Y83.314 E4.4568
G1 X70.694 Y83.316 E4.4570
G1 X70.659 Y83.403 E4.4674
G1 X70.658 Y83.405 E4.4677
G1 X70.584 Y83.578 E4.4886
G1 X70.584 Y83.580 E4.4888
G1 X70.546 Y83.666 E4.4992
G1 X70.545 Y83.668 E4.4994
G1 X70.211 Y84.381 E4.5869
G1 X70.209 Y84.384 E4.5873
G1 X70.146 Y84.510 E4.6029
G1 X70.144 Y84.513 E4.6033
G1 X70.010 Y84.763 E4.6348
G1 X70.009 Y84.766 E4.6351
G1 X69.939 Y84.888 E4.6507
G1 X69.937 Y84.891 E4.6511
G1 X69.225 Y86.059 E4.8031
G1 X69.223 Y86.062 E4.8034
G1 X69.147 Y86.179 E4.8189
G1 X69.145 Y86.182 E4.8193
G1 X68.986 Y86.413 E4.8504
G1 X68.984 Y86.416 E4.8508
G1 X68.902 Y86.528 E4.8663
G1 X68.900 Y86.531 E4.8666
G1 X68.420 Y87.154 E4.9540
G1 X68.419 Y87.156 E4.9542
G1 X68.360 Y87.230 E4.9647
G1 X68.358 Y87.231 E4.9649
G1 X68.237 Y87.377 E4.9860
G1 X68.236 Y87.379 E4.9863
G1 X68.174 Y87.450 E4.9967
G1 X68.173 Y87.452 E4.9970
G1 X67.681 Y88.001 E5.0788
G1 X67.680 Y88.002 E5.0790
G1 X67.616 Y88.071 E5.0894
G1 X67.615 Y88.073 E5.0896
G1 X67.484 Y88.208 E5.1105
G1 X67.483 Y88.210 E5.1108
G1 X67.416 Y88.276 E5.1212
G1 X67.415 Y88.278 E5.1214
G1 X66.851 Y88.822 E5.2084
G1 X66.849 Y88.824 E5.2088
G1 X66.745 Y88.919 E5.2244
G1 X66.743 Y88.921 E5.2247
G1 X66.529 Y89.106 E5.2561
G1 X66.526 Y89.108 E5.2565
G1 X66.418 Y89.197 E5.2721
G1 X66.415 Y89.199 E5.2724
G1 X65.325 Y90.042 E5.4254
G1 X65.322 Y90.044 E5.4258
G1 X65.209 Y90.126 E5.4414
G1 X65.206 Y90.128 E5.4417
G1 X64.973 Y90.289 E5.4731
G1 X64.971 Y90.291 E5.4735
G1 X64.853 Y90.367 E5.4890
G1 X64.850 Y90.369 E5.4894
G1 X64.182 Y90.777 E5.5764
G1 X64.180 Y90.778 E5.5766
G1 X64.100 Y90.825 E5.5870
G1 X64.098 Y90.826 E5.5872
G1 X63.933 Y90.919 E5.6082
G1 X63.931 Y90.920 E5.6084
G1 X63.849 Y90.964 E5.6188
G1 X63.847 Y90.965 E5.6190
G1 X63.192 Y91.302 E5.7008
G1 X63.190 Y91.303 E5.7010
G1 X63.106 Y91.345 E5.7114
G1 X63.104 Y91.346 E5.7117
G1 X62.934 Y91.426 E5.7326
G1 X62.932 Y91.427 E5.7328
G1 X62.846 Y91.465 E5.7432
G1 X62.844 Y91.466 E5.7435
G1 X62.167 Y91.754 E5.8252
G1 X62.165 Y91.755 E5.8255
G1 X62.078 Y91.790 E5.8358
G1 X62.076 Y91.791 E5.8361
G1 X61.900 Y91.858 E5.8570
G1 X61.898 Y91.859 E5.8573
G1 X61.810 Y91.891 E5.8676
G1 X61.808 Y91.892 E5.8679
G1 X61.111 Y92.130 E5.9496
G1 X61.109 Y92.130 E5.9499
G1 X61.020 Y92.159 E5.9602
G1 X61.018 Y92.160 E5.9605
G1 X60.838 Y92.214 E5.9814
G1 X60.836 Y92.215 E5.9817
G1 X60.745 Y92.240 E5.9921
G1 X60.743 Y92.241 E5.9923
G1 X60.031 Y92.427 E6.0740
G1 X60.029 Y92.428 E6.0743
G1 X59.938 Y92.450 E6.0847
G1 X59.936 Y92.450 E6.0849
G1 X59.752 Y92.491 E6.1058
G1 X59.750 Y92.492 E6.1061
G1 X59.658 Y92.511 E6.1165
G1 X59.656 Y92.511 E6.1167
G1 X58.932 Y92.645 E6.1985
G1 X58.930 Y92.646 E6.1987
G1 X58.838 Y92.661 E6.2091
G1 X58.835 Y92.661 E6.2093
G1 X58.649 Y92.689 E6.2302
G1 X58.647 Y92.689 E6.2305
G1 X58.554 Y92.701 E6.2409
G1 X58.552 Y92.701 E6.2411
G1 X57.820 Y92.782 E6.3229
G1 X57.818 Y92.783 E6.3231
G1 X57.725 Y92.791 E6.3335
G1 X57.723 Y92.791 E6.3337
G1 X57.535 Y92.805 E6.3547
G1 X57.532 Y92.805 E6.3549
G1 X57.439 Y92.811 E6.3653
G1 X57.437 Y92.811 E6.3655
G1 X56.701 Y92.838 E6.4473
G1 X56.699 Y92.838 E6.4475
G1 X56.605 Y92.840 E6.4579
G1 X56.603 Y92.840 E6.4581
G1 X56.415 Y92.840 E6.4791
G1 X56.413 Y92.840 E6.4793
G1 X56.319 Y92.838 E6.4897
G1 X56.317 Y92.838 E6.4900
G1 X55.581 Y92.812 E6.5717
G1 X55.579 Y92.812 E6.5720
G1 X55.485 Y92.807 E6.5823
G1 X55.483 Y92.806 E6.5826
G1 X55.295 Y92.793 E6.6035
