; G-Code generated by Simplify3D(R) Version 3.1.0
; Nov 24, 2016 at 11:35:48 AM
; Settings Summary
;   processName,Process2
;   applyToModels,gantry holder,gantry holder(2)
;   profileName,normal black (modified)
;   profileVersion,2015-07-02 16:19:25
;   baseProfile,normal (modified)
;   printMaterial,PLA
;   printQuality,Fast
;   printExtruders,
;   extruderName,Extruder 1
;   extruderToolheadNumber,0
;   extruderDiameter,0.4
;   extruderAutoWidth,1
;   extruderWidth,0.48
;   extrusionMultiplier,1
;   extruderUseRetract,1
;   extruderRetractionDistance,3.1
;   extruderExtraRestartDistance,0
;   extruderRetractionZLift,0
;   extruderRetractionSpeed,1800
;   extruderUseCoasting,0
;   extruderCoastingDistance,0.2
;   extruderUseWipe,0
;   extruderWipeDistance,5
;   primaryExtruder,0
;   layerHeight,0.3
;   topSolidLayers,2
;   bottomSolidLayers,2
;   perimeterOutlines,2
;   printPerimetersInsideOut,1
;   startPointOption,2
;   startPointOriginX,0
;   startPointOriginY,0
;   startPointOriginZ,300
;   sequentialIslands,0
;   spiralVaseMode,0
;   firstLayerHeightPercentage,100
;   firstLayerWidthPercentage,105
;   firstLayerUnderspeed,0.4
;   useRaft,1
;   raftExtruder,0
;   raftLayers,1
;   raftOffset,5
;   raftSeparationDistance,0.24
;   raftInfill,80
;   disableRaftBaseLayers,0
;   useSkirt,1
;   skirtExtruder,0
;   skirtLayers,1
;   skirtOutlines,1
;   skirtOffset,3
;   usePrimePillar,0
;   primePillarExtruder,999
;   primePillarWidth,12
;   primePillarLocation,7
;   primePillarSpeedMultiplier,1
;   useOozeShield,0
;   oozeShieldExtruder,999
;   oozeShieldOffset,2
;   oozeShieldOutlines,1
;   oozeShieldSidewallShape,1
;   oozeShieldSidewallAngle,30
;   oozeShieldSpeedMultiplier,1
;   infillExtruder,0
;   internalInfillPattern,Rectilinear
;   externalInfillPattern,Rectilinear
;   infillPercentage,40
;   outlineOverlapPercentage,15
;   infillExtrusionWidthPercentage,100
;   minInfillLength,5
;   infillLayerInterval,1
;   infillAngles,45,-45
;   overlapInfillAngles,0
;   generateSupport,1
;   supportExtruder,0
;   supportInfillPercentage,30
;   supportExtraInflation,0.2
;   denseSupportLayers,0
;   denseSupportInfillPercentage,70
;   supportLayerInterval,1
;   supportHorizontalPartOffset,0.3
;   supportUpperSeparationLayers,1
;   supportLowerSeparationLayers,1
;   supportType,0
;   supportGridSpacing,1.5
;   maxOverhangAngle,35
;   supportAngles,45
;   temperatureName,Extruder 1 Temperature
;   temperatureNumber,0
;   temperatureSetpointCount,1
;   temperatureSetpointLayers,1
;   temperatureSetpointTemperatures,200
;   temperatureStabilizeAtStartup,1
;   temperatureHeatedBed,0
;   temperatureRelayBetweenLayers,1
;   temperatureRelayBetweenLoops,0
;   fanLayers,1
;   fanSpeeds,0
;   blipFanToFullPower,0
;   adjustSpeedForCooling,1
;   minSpeedLayerTime,20
;   minCoolingSpeedSlowdown,20
;   increaseFanForCooling,0
;   minFanLayerTime,45
;   maxCoolingFanSpeed,100
;   increaseFanForBridging,0
;   bridgingFanSpeed,100
;   use5D,1
;   relativeEdistances,0
;   allowEaxisZeroing,1
;   independentExtruderAxes,0
;   includeM10123,0
;   stickySupport,1
;   applyToolheadOffsets,0
;   gcodeXoffset,0
;   gcodeYoffset,0
;   gcodeZoffset,0
;   overrideMachineDefinition,0
;   machineTypeOverride,0
;   strokeXoverride,113
;   strokeYoverride,187
;   strokeZoverride,100
;   originOffsetXoverride,0
;   originOffsetYoverride,0
;   originOffsetZoverride,0
;   homeXdirOverride,-1
;   homeYdirOverride,-1
;   homeZdirOverride,-1
;   flipXoverride,1
;   flipYoverride,-1
;   flipZoverride,1
;   toolheadOffsets,0,0|0,0|0,0|0,0|0,0|0,0
;   overrideFirmwareConfiguration,1
;   firmwareTypeOverride,RepRap (Marlin/Repetier/Sprinter)
;   GPXconfigOverride,r2
;   baudRateOverride,115200
;   overridePrinterModels,0
;   printerModelsOverride
;   startingGcode,G92 X0 Y0 ; zero X and Y axes,G28 Z; GO TO HOME ON Z
;   layerChangeGcode,
;   retractionGcode,
;   toolChangeGcode,
;   endingGcode,M104 S0 ; turn off extruder,M140 S0 ; turn off bed,G91 ; set to incrimental,G1 Z10 F5000 ; lift nozzle,G90 ; Absolute Positioning,G1 X0 ; move X to left,M84 ; disable motors
;   exportFileFormat,gcode
;   celebration,0
;   celebrationSong,Random Song
;   postProcessing,
;   defaultSpeed,3600
;   outlineUnderspeed,1
;   solidInfillUnderspeed,0.9
;   supportUnderspeed,0.75
;   rapidXYspeed,3600
;   rapidZspeed,1002
;   minBridgingArea,50
;   bridgingExtraInflation,0
;   bridgingExtrusionMultiplier,1
;   bridgingSpeedMultiplier,1
;   filamentDiameter,1.72
;   filamentPricePerKg,27
;   filamentDensity,1.25
;   useMinPrintHeight,0
;   minPrintHeight,0
;   useMaxPrintHeight,0
;   maxPrintHeight,10
;   useDiaphragm,0
;   diaphragmLayerInterval,20
;   robustSlicing,1
;   mergeAllIntoSolid,0
;   onlyRetractWhenCrossingOutline,1
;   retractBetweenLayers,0
;   useRetractionMinTravel,0
;   retractionMinTravel,3
;   retractWhileWiping,0
;   onlyWipeOutlines,1
;   avoidCrossingOutline,0
;   maxMovementDetourFactor,3
;   toolChangeRetractionDistance,12
;   toolChangeExtraRestartDistance,-0.5
;   toolChangeRetractionSpeed,600
;   allowThinWallGapFill,1
;   thinWallAllowedOverlapPercentage,15
;   horizontalSizeCompensation,0
G90
M82
M106 S0
M104 S200 T0
M109 S200 T0
G92 X0 Y0 ; zero X and Y axes
G28 Z; GO TO HOME ON Z
G92 E0
G1 E-3.1000 F1800
G1 Z0.500 F1002
; layer 1, Z = 0.5
M105
T0
; tool H0.500 W0.504
; skirt
G1 X35.248 Y38.270 F3600
G1 E0.0000 F540
G92 E0
G1 X35.287 Y38.244 E0.0051 F1440
G1 X36.434 Y37.769 E0.1397
G1 X36.480 Y37.760 E0.1448
G1 X76.520 Y37.760 E4.4874
G1 X76.566 Y37.769 E4.4925
G1 X77.713 Y38.244 E4.6271
G1 X77.752 Y38.270 E4.6322
G1 X82.730 Y43.248 E5.3957
G1 X82.756 Y43.287 E5.4008
G1 X83.231 Y44.434 E5.5354
G1 X83.240 Y44.480 E5.5405
G1 X83.240 Y71.520 E8.4731
G1 X83.231 Y71.566 E8.4783
G1 X82.756 Y72.713 E8.6128
G1 X82.730 Y72.752 E8.6180
G1 X81.482 Y74.000 E8.8094
G1 X82.730 Y75.248 E9.0008
G1 X82.756 Y75.287 E9.0060
G1 X83.231 Y76.434 E9.1405
G1 X83.240 Y76.480 E9.1457
G1 X83.240 Y103.520 E12.0783
G1 X83.231 Y103.566 E12.0834
G1 X82.756 Y104.713 E12.2180
G1 X82.730 Y104.752 E12.2231
G1 X77.752 Y109.730 E12.9866
G1 X77.713 Y109.756 E12.9917
G1 X76.566 Y110.231 E13.1263
G1 X76.520 Y110.240 E13.1314
G1 X60.240 Y110.240 E14.8971
G1 X60.240 Y110.520 E14.9274
G1 X60.231 Y110.566 E14.9326
G1 X59.756 Y111.713 E15.0671
G1 X59.730 Y111.752 E15.0723
G1 X54.752 Y116.730 E15.8358
G1 X54.713 Y116.756 E15.8409
G1 X53.566 Y117.231 E15.9755
G1 X53.520 Y117.240 E15.9806
G1 X36.480 Y117.240 E17.8286
G1 X36.434 Y117.231 E17.8338
G1 X35.287 Y116.756 E17.9683
G1 X35.248 Y116.730 E17.9735
G1 X30.270 Y111.752 E18.7370
G1 X30.244 Y111.713 E18.7421
G1 X29.769 Y110.566 E18.8767
G1 X29.760 Y110.520 E18.8818
G1 X29.760 Y92.529 E20.8330
G1 X29.773 Y92.474 E20.8392
G1 X30.461 Y91.133 E21.0026
G1 X30.498 Y91.090 E21.0088
G1 X32.017 Y90.000 E21.2115
G1 X30.498 Y88.908 E21.4144
G1 X30.461 Y88.865 E21.4206
G1 X29.773 Y87.525 E21.5839
G1 X29.760 Y87.469 E21.5901
G1 X29.760 Y60.529 E24.5119
G1 X29.773 Y60.474 E24.5181
G1 X30.461 Y59.133 E24.6815
G1 X30.498 Y59.090 E24.6877
G1 X32.017 Y58.000 E24.8905
G1 X30.498 Y56.908 E25.0934
G1 X30.461 Y56.865 E25.0996
G1 X29.773 Y55.525 E25.2629
G1 X29.760 Y55.469 E25.2691
G1 X29.760 Y44.480 E26.4609
G1 X29.769 Y44.434 E26.4661
G1 X30.244 Y43.287 E26.6006
G1 X30.270 Y43.248 E26.6058
G1 X35.248 Y38.270 E27.3693
; tool H0.500 W0.840
; raft
G1 X37.266 Y41.400 F3600
G92 E0
G1 X75.734 Y41.400 E6.9534 F360
G1 X79.600 Y45.266 E7.9417
G1 X79.600 Y70.734 E12.5453
G1 X76.334 Y74.000 E13.3802
G1 X79.600 Y77.266 E14.2152
G1 X79.600 Y102.734 E18.8187
G1 X75.734 Y106.600 E19.8070
G1 X56.600 Y106.600 E23.2656
G1 X56.600 Y109.734 E23.8321
G1 X52.734 Y113.600 E24.8204
G1 X37.266 Y113.600 E27.6164
G1 X33.400 Y109.734 E28.6047
G1 X33.400 Y93.488 E31.5413
G1 X38.257 Y90.000 E32.6221
G1 X33.400 Y86.511 E33.7031
G1 X33.400 Y61.488 E38.2263
G1 X38.257 Y58.000 E39.3071
G1 X33.400 Y54.511 E40.3881
G1 X33.400 Y45.266 E42.0592
G1 X37.266 Y41.400 E43.0475
G1 X36.583 Y43.214 F3600
G92 E0
G1 X76.417 Y43.214 E7.2003 F360
G1 X78.702 Y45.500 E7.7846
G1 X34.298 Y45.500 E15.8112
G1 X34.200 Y45.598 E15.8362
G1 X34.200 Y47.786 E16.2317
G1 X78.800 Y47.786 E24.2936
G1 X78.800 Y50.071 E24.7068
G1 X34.200 Y50.071 E32.7687
G1 X34.200 Y52.357 E33.1818
G1 X78.800 Y52.357 E41.2437
G1 X78.800 Y54.643 E41.6569
G1 X34.955 Y54.643 E49.5824
G1 X38.136 Y56.929 E50.2905
G1 X78.800 Y56.929 E57.6410
G1 X78.800 Y59.214 E58.0541
G1 X37.938 Y59.214 E65.4404
G1 X34.755 Y61.500 E66.1488
G1 X78.800 Y61.500 E74.1104
G1 X78.800 Y63.786 E74.5236
G1 X34.200 Y63.786 E82.5855
G1 X34.200 Y66.071 E82.9986
G1 X78.800 Y66.071 E91.0605
G1 X78.800 Y68.357 E91.4737
G1 X34.200 Y68.357 E99.5356
G1 X34.200 Y70.643 E99.9488
G1 X78.560 Y70.643 E107.9672
G1 X76.274 Y72.929 E108.5515
G1 X34.200 Y72.929 E116.1568
G1 X34.200 Y75.214 E116.5700
G1 X76.417 Y75.214 E124.2011
G1 X78.702 Y77.500 E124.7854
G1 X34.200 Y77.500 E132.8296
G1 X34.200 Y79.786 E133.2428
G1 X78.800 Y79.786 E141.3047
G1 X78.800 Y82.071 E141.7179
G1 X34.200 Y82.071 E149.7798
G1 X34.200 Y84.357 E150.1929
G1 X78.800 Y84.357 E158.2548
G1 X78.800 Y86.643 E158.6680
G1 X34.954 Y86.643 E166.5935
G1 X38.136 Y88.929 E167.3016
G1 X78.800 Y88.929 E174.6521
G1 X78.800 Y91.214 E175.0652
G1 X37.938 Y91.214 E182.4515
G1 X34.755 Y93.500 E183.1599
G1 X78.800 Y93.500 E191.1215
G1 X78.800 Y95.786 E191.5347
G1 X34.200 Y95.786 E199.5966
G1 X34.200 Y98.071 E200.0097
G1 X78.800 Y98.071 E208.0716
G1 X78.800 Y100.357 E208.4848
G1 X34.200 Y100.357 E216.5467
G1 X34.200 Y102.643 E216.9599
G1 X78.560 Y102.643 E224.9783
G1 X76.274 Y104.929 E225.5626
G1 X34.200 Y104.929 E233.1679
G1 X34.200 Y107.214 E233.5811
G1 X55.800 Y107.214 E237.4855
G1 X55.800 Y109.402 E237.8810
G1 X55.702 Y109.500 E237.9059
G1 X34.298 Y109.500 E241.7751
G1 X36.583 Y111.786 E242.3594
G1 X53.417 Y111.786 E245.4022
; layer 2, Z = 1
M105
; tool H0.500 W0.800
; raft
G1 X52.734 Y113.600 F3600
G1 Z1.000 F1002
G92 E0
G1 X37.266 Y113.600 E2.6628 F900
G1 X33.400 Y109.734 E3.6041
G1 X33.400 Y93.488 E6.4008
G1 X38.257 Y90.000 E7.4302
G1 X33.400 Y86.511 E8.4597
G1 X33.400 Y61.488 E12.7675
G1 X38.257 Y58.000 E13.7968
G1 X33.400 Y54.511 E14.8263
G1 X33.400 Y45.266 E16.4178
G1 X37.266 Y41.400 E17.3591
G1 X75.734 Y41.400 E23.9814
G1 X79.600 Y45.266 E24.9226
G1 X79.600 Y70.734 E29.3070
G1 X76.334 Y74.000 E30.1021
G1 X79.600 Y77.266 E30.8973
G1 X79.600 Y102.734 E35.2816
G1 X75.734 Y106.600 E36.2229
G1 X56.600 Y106.600 E39.5168
G1 X56.600 Y109.734 E40.0563
G1 X52.734 Y113.600 E40.9976
G1 X53.417 Y111.786 F3600
G92 E0
G1 X36.583 Y111.786 E2.8979 F900
G1 X34.298 Y109.500 E3.4544
G1 X55.702 Y109.500 E7.1393
G1 X55.800 Y109.402 E7.1630
G1 X55.800 Y107.214 E7.5397
G1 X34.200 Y107.214 E11.2582
G1 X34.200 Y104.929 E11.6517
G1 X76.274 Y104.929 E18.8948
G1 X78.560 Y102.643 E19.4513
G1 X34.200 Y102.643 E27.0879
G1 X34.200 Y100.357 E27.4814
G1 X78.800 Y100.357 E35.1594
G1 X78.800 Y98.071 E35.5529
G1 X34.200 Y98.071 E43.2309
G1 X34.200 Y95.786 E43.6244
G1 X78.800 Y95.786 E51.3024
G1 X78.800 Y93.500 E51.6959
G1 X34.755 Y93.500 E59.2784
G1 X37.938 Y91.214 E59.9531
G1 X78.800 Y91.214 E66.9876
G1 X78.800 Y88.929 E67.3811
G1 X38.136 Y88.929 E74.3815
G1 X34.954 Y86.643 E75.0559
G1 X78.800 Y86.643 E82.6040
G1 X78.800 Y84.357 E82.9975
G1 X34.200 Y84.357 E90.6755
G1 X34.200 Y82.071 E91.0690
G1 X78.800 Y82.071 E98.7470
G1 X78.800 Y79.786 E99.1405
G1 X34.200 Y79.786 E106.8185
G1 X34.200 Y77.500 E107.2120
G1 X78.702 Y77.500 E114.8732
G1 X76.417 Y75.214 E115.4297
G1 X34.200 Y75.214 E122.6974
G1 X34.200 Y72.929 E123.0909
G1 X76.274 Y72.929 E130.3340
G1 X78.560 Y70.643 E130.8905
G1 X34.200 Y70.643 E138.5271
G1 X34.200 Y68.357 E138.9206
G1 X78.800 Y68.357 E146.5986
G1 X78.800 Y66.071 E146.9921
G1 X34.200 Y66.071 E154.6700
G1 X34.200 Y63.786 E155.0635
G1 X78.800 Y63.786 E162.7415
G1 X78.800 Y61.500 E163.1350
G1 X34.755 Y61.500 E170.7176
G1 X37.938 Y59.214 E171.3922
G1 X78.800 Y59.214 E178.4267
G1 X78.800 Y56.929 E178.8202
G1 X38.136 Y56.929 E185.8207
G1 X34.955 Y54.643 E186.4950
G1 X78.800 Y54.643 E194.0431
G1 X78.800 Y52.357 E194.4366
G1 X34.200 Y52.357 E202.1146
G1 X34.200 Y50.071 E202.5081
G1 X78.800 Y50.071 E210.1861
G1 X78.800 Y47.786 E210.5796
G1 X34.200 Y47.786 E218.2576
G1 X34.200 Y45.598 E218.6343
G1 X34.298 Y45.500 E218.6581
G1 X78.702 Y45.500 E226.3025
G1 X76.417 Y43.214 E226.8590
G1 X36.583 Y43.214 E233.7164
; layer 3, Z = 1.37647
M105
; tool H0.376 W0.640
; raft
G1 X33.460 Y54.653 F3600
G1 Z1.376 F1002
G92 E0
G1 X33.460 Y45.093 E0.9913 F1800
G1 X34.740 Y43.813 E1.1790
G1 X34.740 Y55.572 E2.3984
G1 X36.020 Y56.492 E2.5619
G1 X36.020 Y42.533 E4.0093
G1 X37.233 Y41.320 E4.1872
G1 X37.300 Y41.320 E4.1942
G1 X37.300 Y57.412 E5.8628
G1 X38.120 Y58.000 E5.9675
G1 X37.300 Y58.589 E6.0721
G1 X37.300 Y89.412 E9.2683
G1 X38.120 Y90.000 E9.3729
G1 X37.300 Y90.589 E9.4776
G1 X37.300 Y113.680 E11.8720
G1 X38.580 Y113.680 E12.0048
G1 X38.580 Y41.320 E19.5082
G1 X39.860 Y41.320 E19.6410
G1 X39.860 Y113.680 E27.1445
G1 X41.140 Y113.680 E27.2772
G1 X41.140 Y41.320 E34.7807
G1 X42.420 Y41.320 E34.9134
G1 X42.420 Y113.680 E42.4169
G1 X43.700 Y113.680 E42.5496
G1 X43.700 Y41.320 E50.0531
G1 X44.980 Y41.320 E50.1858
G1 X44.980 Y113.680 E57.6893
G1 X46.260 Y113.680 E57.8220
G1 X46.260 Y41.320 E65.3255
G1 X47.540 Y41.320 E65.4582
G1 X47.540 Y113.680 E72.9617
G1 X48.820 Y113.680 E73.0945
G1 X48.820 Y41.320 E80.5979
G1 X50.100 Y41.320 E80.7307
G1 X50.100 Y113.680 E88.2342
G1 X51.380 Y113.680 E88.3669
G1 X51.380 Y41.320 E95.8704
G1 X52.660 Y41.320 E96.0031
G1 X52.660 Y113.680 E103.5066
G1 X52.767 Y113.680 E103.5177
G1 X53.940 Y112.507 E103.6897
G1 X53.940 Y41.320 E111.0715
G1 X55.220 Y41.320 E111.2043
G1 X55.220 Y111.227 E118.4534
G1 X56.500 Y109.947 E118.6411
G1 X56.500 Y41.320 E125.7575
G1 X57.780 Y41.320 E125.8902
G1 X57.780 Y106.680 E132.6678
G1 X59.060 Y106.680 E132.8005
G1 X59.060 Y41.320 E139.5781
G1 X60.340 Y41.320 E139.7109
G1 X60.340 Y106.680 E146.4885
G1 X61.620 Y106.680 E146.6212
G1 X61.620 Y41.320 E153.3988
G1 X62.900 Y41.320 E153.5315
G1 X62.900 Y106.680 E160.3091
G1 X64.180 Y106.680 E160.4419
G1 X64.180 Y41.320 E167.2195
G1 X65.460 Y41.320 E167.3522
G1 X65.460 Y106.680 E174.1298
G1 X66.740 Y106.680 E174.2626
G1 X66.740 Y41.320 E181.0402
G1 X68.020 Y41.320 E181.1729
G1 X68.020 Y106.680 E187.9505
G1 X69.300 Y106.680 E188.0832
G1 X69.300 Y41.320 E194.8608
G1 X70.580 Y41.320 E194.9936
G1 X70.580 Y106.680 E201.7712
G1 X71.860 Y106.680 E201.9039
G1 X71.860 Y41.320 E208.6815
G1 X73.140 Y41.320 E208.8142
G1 X73.140 Y106.680 E215.5918
G1 X74.420 Y106.680 E215.7246
G1 X74.420 Y41.320 E222.5022
G1 X75.700 Y41.320 E222.6349
G1 X75.700 Y106.680 E229.4125
G1 X75.767 Y106.680 E229.4195
G1 X76.980 Y105.467 E229.5974
G1 X76.980 Y74.533 E232.8051
G1 X76.447 Y74.000 E232.8833
G1 X76.980 Y73.467 E232.9614
G1 X76.980 Y42.533 E236.1692
G1 X78.260 Y43.813 E236.3569
G1 X78.260 Y72.187 E239.2992
G1 X79.540 Y70.907 E239.4869
G1 X79.540 Y45.093 E242.1637
G1 X78.260 Y75.813 F3600
G92 E0
G1 X78.260 Y104.187 E2.9423 F1800
G1 X79.540 Y102.907 E3.1300
G1 X79.540 Y77.093 E5.8068
G1 X36.020 Y91.508 F3600
G92 E0
G1 X36.020 Y112.467 E2.1734 F1800
G1 X34.740 Y111.187 E2.3611
G1 X34.740 Y92.427 E4.3064
G1 X33.460 Y93.346 E4.4698
G1 X33.460 Y109.907 E6.1871
G1 X33.460 Y86.653 F3600
G92 E0
G1 X33.460 Y61.346 E2.6242 F1800
G1 X34.740 Y60.427 E2.7876
G1 X34.740 Y87.572 E5.6025
G1 X36.020 Y88.492 E5.7659
G1 X36.020 Y59.508 E8.7715
; layer 4, Z = 1.59869
M105
; tool H0.222 W0.400
; raft
G1 X37.423 Y43.789 F3600
G1 Z1.599 F1002
G92 E0
G1 X39.621 Y43.200 E0.0870 F1800
G1 X41.552 Y43.200 E0.1609
G1 X36.716 Y44.496 E0.3525
G1 X36.009 Y45.203 E0.3908
G1 X43.484 Y43.200 E0.6868
G1 X45.416 Y43.200 E0.7607
G1 X35.302 Y45.910 E1.1613
G1 X35.200 Y46.012 E1.1668
G1 X35.200 Y46.455 E1.1838
G1 X47.348 Y43.200 E1.6649
G1 X49.280 Y43.200 E1.7388
G1 X35.200 Y46.973 E2.2964
G1 X35.200 Y47.490 E2.3163
G1 X51.212 Y43.200 E2.9504
G1 X53.143 Y43.200 E3.0243
G1 X35.200 Y48.008 E3.7350
G1 X35.200 Y48.526 E3.7548
G1 X55.075 Y43.200 E4.5419
G1 X57.007 Y43.200 E4.6159
G1 X35.200 Y49.043 E5.4795
