; G-Code generated by Simplify3D(R) Version 3.1.0
; Feb 11, 2017 at 3:01:59 PM
; Settings Summary
;   processName,Process2
;   applyToModels,hotend mount,gantry holder-bushing,z-coupler,gantry holder-bushing(2)
;   profileName,normal black (modified)
;   profileVersion,2015-07-02 16:19:25
;   baseProfile,normal (modified)
;   printMaterial,PLA
;   printQuality,Fast
;   printExtruders,
;   extruderName,Extruder 1
;   extruderToolheadNumber,0
;   extruderDiameter,0.4
;   extruderAutoWidth,1
;   extruderWidth,0.48
;   extrusionMultiplier,1
;   extruderUseRetract,1
;   extruderRetractionDistance,3.1
;   extruderExtraRestartDistance,0
;   extruderRetractionZLift,0
;   extruderRetractionSpeed,1800
;   extruderUseCoasting,0
;   extruderCoastingDistance,0.2
;   extruderUseWipe,0
;   extruderWipeDistance,5
;   primaryExtruder,0
;   layerHeight,0.3
;   topSolidLayers,2
;   bottomSolidLayers,2
;   perimeterOutlines,2
;   printPerimetersInsideOut,1
;   startPointOption,2
;   startPointOriginX,0
;   startPointOriginY,0
;   startPointOriginZ,300
;   sequentialIslands,0
;   spiralVaseMode,0
;   firstLayerHeightPercentage,100
;   firstLayerWidthPercentage,105
;   firstLayerUnderspeed,0.4
;   useRaft,1
;   raftExtruder,0
;   raftLayers,1
;   raftOffset,5
;   raftSeparationDistance,0.24
;   raftInfill,80
;   disableRaftBaseLayers,0
;   useSkirt,1
;   skirtExtruder,0
;   skirtLayers,1
;   skirtOutlines,1
;   skirtOffset,3
;   usePrimePillar,0
;   primePillarExtruder,999
;   primePillarWidth,12
;   primePillarLocation,7
;   primePillarSpeedMultiplier,1
;   useOozeShield,0
;   oozeShieldExtruder,999
;   oozeShieldOffset,2
;   oozeShieldOutlines,1
;   oozeShieldSidewallShape,1
;   oozeShieldSidewallAngle,30
;   oozeShieldSpeedMultiplier,1
;   infillExtruder,0
;   internalInfillPattern,Rectilinear
;   externalInfillPattern,Rectilinear
;   infillPercentage,40
;   outlineOverlapPercentage,15
;   infillExtrusionWidthPercentage,100
;   minInfillLength,5
;   infillLayerInterval,1
;   infillAngles,45,-45
;   overlapInfillAngles,0
;   generateSupport,1
;   supportExtruder,0
;   supportInfillPercentage,20
;   supportExtraInflation,0.2
;   denseSupportLayers,3
;   denseSupportInfillPercentage,70
;   supportLayerInterval,1
;   supportHorizontalPartOffset,0.3
;   supportUpperSeparationLayers,1
;   supportLowerSeparationLayers,1
;   supportType,0
;   supportGridSpacing,1.5
;   maxOverhangAngle,35
;   supportAngles,45
;   temperatureName,Extruder 1 Temperature
;   temperatureNumber,0
;   temperatureSetpointCount,1
;   temperatureSetpointLayers,1
;   temperatureSetpointTemperatures,200
;   temperatureStabilizeAtStartup,1
;   temperatureHeatedBed,0
;   temperatureRelayBetweenLayers,1
;   temperatureRelayBetweenLoops,0
;   fanLayers,1
;   fanSpeeds,0
;   blipFanToFullPower,0
;   adjustSpeedForCooling,1
;   minSpeedLayerTime,20
;   minCoolingSpeedSlowdown,20
;   increaseFanForCooling,0
;   minFanLayerTime,45
;   maxCoolingFanSpeed,100
;   increaseFanForBridging,0
;   bridgingFanSpeed,100
;   use5D,1
;   relativeEdistances,0
;   allowEaxisZeroing,1
;   independentExtruderAxes,0
;   includeM10123,0
;   stickySupport,1
;   applyToolheadOffsets,0
;   gcodeXoffset,0
;   gcodeYoffset,0
;   gcodeZoffset,0
;   overrideMachineDefinition,0
;   machineTypeOverride,0
;   strokeXoverride,113
;   strokeYoverride,187
;   strokeZoverride,100
;   originOffsetXoverride,0
;   originOffsetYoverride,0
;   originOffsetZoverride,0
;   homeXdirOverride,-1
;   homeYdirOverride,-1
;   homeZdirOverride,-1
;   flipXoverride,1
;   flipYoverride,-1
;   flipZoverride,1
;   toolheadOffsets,0,0|0,0|0,0|0,0|0,0|0,0
;   overrideFirmwareConfiguration,1
;   firmwareTypeOverride,RepRap (Marlin/Repetier/Sprinter)
;   GPXconfigOverride,r2
;   baudRateOverride,115200
;   overridePrinterModels,0
;   printerModelsOverride
;   startingGcode,G92 X0 Y0 ; zero X and Y axes,G28 Z; GO TO HOME ON Z
;   layerChangeGcode,
;   retractionGcode,
;   toolChangeGcode,
;   endingGcode,M104 S0 ; turn off extruder,M140 S0 ; turn off bed,G91 ; set to incrimental,G1 Z10 F5000 ; lift nozzle,G90 ; Absolute Positioning,G1 X0 ; move X to left,M84 ; disable motors
;   exportFileFormat,gcode
;   celebration,0
;   celebrationSong,Random Song
;   postProcessing,
;   defaultSpeed,3600
;   outlineUnderspeed,1
;   solidInfillUnderspeed,0.9
;   supportUnderspeed,0.75
;   rapidXYspeed,3600
;   rapidZspeed,1002
;   minBridgingArea,50
;   bridgingExtraInflation,0
;   bridgingExtrusionMultiplier,1
;   bridgingSpeedMultiplier,1
;   filamentDiameter,1.72
;   filamentPricePerKg,27
;   filamentDensity,1.25
;   useMinPrintHeight,0
;   minPrintHeight,0
;   useMaxPrintHeight,0
;   maxPrintHeight,10
;   useDiaphragm,0
;   diaphragmLayerInterval,20
;   robustSlicing,1
;   mergeAllIntoSolid,0
;   onlyRetractWhenCrossingOutline,1
;   retractBetweenLayers,0
;   useRetractionMinTravel,0
;   retractionMinTravel,3
;   retractWhileWiping,0
;   onlyWipeOutlines,1
;   avoidCrossingOutline,0
;   maxMovementDetourFactor,3
;   toolChangeRetractionDistance,12
;   toolChangeExtraRestartDistance,-0.5
;   toolChangeRetractionSpeed,600
;   allowThinWallGapFill,1
;   thinWallAllowedOverlapPercentage,15
;   horizontalSizeCompensation,0
G90
M82
M106 S0
M104 S200 T0
M109 S200 T0
G92 X0 Y0 ; zero X and Y axes
G28 Z; GO TO HOME ON Z
G92 E0
G1 E-3.1000 F1800
G1 Z0.500 F1002
; layer 1, Z = 0.5
M105
T0
; tool H0.500 W0.504
; skirt
G1 X30.328 Y41.808 F3600
G1 E0.0000 F540
G92 E0
G1 X31.216 Y41.196 E0.1170 F1440
G1 X31.222 Y41.192 E0.1178
G1 X31.390 Y41.091 E0.1391
G1 X31.397 Y41.087 E0.1399
G1 X32.506 Y40.513 E0.2754
G1 X32.513 Y40.509 E0.2762
G1 X32.694 Y40.430 E0.2977
G1 X32.701 Y40.427 E0.2985
G1 X33.721 Y40.054 E0.4163
G1 X33.728 Y40.051 E0.4171
G1 X33.918 Y39.995 E0.4385
G1 X33.925 Y39.993 E0.4393
G1 X35.304 Y39.678 E0.5928
G1 X35.312 Y39.677 E0.5936
G1 X35.506 Y39.645 E0.6150
G1 X35.514 Y39.644 E0.6158
G1 X36.590 Y39.538 E0.7331
G1 X36.598 Y39.538 E0.7339
G1 X36.794 Y39.531 E0.7553
G1 X36.802 Y39.531 E0.7561
G1 X38.039 Y39.566 E0.8903
G1 X38.046 Y39.566 E0.8911
G1 X38.240 Y39.584 E0.9122
G1 X38.247 Y39.584 E0.9130
G1 X39.304 Y39.747 E1.0289
G1 X39.311 Y39.748 E1.0297
G1 X39.501 Y39.790 E1.0508
G1 X39.508 Y39.792 E1.0516
G1 X41.045 Y40.229 E1.2249
G1 X41.055 Y40.233 E1.2260
G1 X41.303 Y40.327 E1.2548
G1 X41.312 Y40.331 E1.2559
G1 X42.625 Y40.960 E1.4139
G1 X42.634 Y40.965 E1.4150
G1 X42.863 Y41.100 E1.4437
G1 X42.871 Y41.105 E1.4448
G1 X44.029 Y41.927 E1.5988
G1 X44.033 Y41.930 E1.5994
G1 X44.137 Y42.010 E1.6136
G1 X44.141 Y42.014 E1.6142
G1 X44.692 Y42.479 E1.6923
G1 X44.696 Y42.482 E1.6929
G1 X44.792 Y42.571 E1.7071
G1 X44.796 Y42.574 E1.7077
G1 X48.356 Y46.134 E2.2537
G1 X49.122 Y44.748 E2.4254
G1 X49.127 Y44.740 E2.4265
G1 X49.272 Y44.522 E2.4549
G1 X49.278 Y44.514 E2.4560
G1 X50.176 Y43.387 E2.6122
G1 X50.183 Y43.379 E2.6133
G1 X50.363 Y43.189 E2.6418
G1 X50.370 Y43.182 E2.6429
G1 X51.552 Y42.124 E2.8148
G1 X51.557 Y42.120 E2.8156
G1 X51.711 Y41.999 E2.8368
G1 X51.717 Y41.994 E2.8377
G1 X52.600 Y41.384 E2.9541
G1 X52.606 Y41.380 E2.9549
G1 X52.774 Y41.279 E2.9761
G1 X52.780 Y41.275 E2.9769
G1 X53.891 Y40.698 E3.1127
G1 X53.898 Y40.694 E3.1135
G1 X54.080 Y40.614 E3.1351
G1 X54.087 Y40.611 E3.1360
G1 X55.113 Y40.234 E3.2545
G1 X55.121 Y40.232 E3.2553
G1 X55.311 Y40.175 E3.2769
G1 X55.319 Y40.173 E3.2777
G1 X56.702 Y39.858 E3.4316
G1 X56.709 Y39.856 E3.4324
G1 X56.904 Y39.825 E3.4538
G1 X56.911 Y39.824 E3.4546
G1 X57.987 Y39.718 E3.5719
G1 X57.995 Y39.717 E3.5727
G1 X58.192 Y39.710 E3.5941
G1 X58.199 Y39.710 E3.5949
G1 X59.433 Y39.745 E3.7288
G1 X59.441 Y39.745 E3.7296
G1 X59.634 Y39.763 E3.7506
G1 X59.641 Y39.764 E3.7514
G1 X60.694 Y39.925 E3.8669
G1 X60.701 Y39.927 E3.8677
G1 X60.891 Y39.968 E3.8888
G1 X60.898 Y39.970 E3.8896
G1 X62.436 Y40.406 E4.0630
G1 X62.446 Y40.410 E4.0641
G1 X62.694 Y40.504 E4.0929
G1 X62.703 Y40.508 E4.0940
G1 X64.020 Y41.139 E4.2524
G1 X64.029 Y41.143 E4.2535
G1 X64.258 Y41.278 E4.2823
G1 X64.267 Y41.284 E4.2834
G1 X65.426 Y42.106 E4.4376
G1 X65.431 Y42.109 E4.4381
G1 X65.534 Y42.190 E4.4524
G1 X65.538 Y42.193 E4.4529
G1 X66.089 Y42.658 E4.5311
G1 X66.093 Y42.661 E4.5317
G1 X66.190 Y42.750 E4.5459
G1 X66.193 Y42.754 E4.5465
G1 X71.159 Y47.720 E5.3082
G1 X77.438 Y47.720 E5.9891
G1 X77.484 Y47.729 E5.9942
G1 X78.630 Y48.204 E6.1288
G1 X78.670 Y48.230 E6.1339
G1 X83.648 Y53.208 E6.8974
G1 X83.674 Y53.247 E6.9025
G1 X84.149 Y54.394 E7.0371
G1 X84.158 Y54.440 E7.0422
G1 X84.158 Y68.047 E8.5180
G1 X85.290 Y68.556 E8.6527
G1 X85.294 Y68.558 E8.6531
G1 X85.378 Y68.599 E8.6633
G1 X85.382 Y68.601 E8.6637
G1 X85.840 Y68.841 E8.7198
G1 X85.843 Y68.843 E8.7202
G1 X85.925 Y68.889 E8.7304
G1 X85.928 Y68.891 E8.7308
G1 X87.146 Y69.627 E8.8851
G1 X87.149 Y69.629 E8.8855
G1 X87.228 Y69.680 E8.8957
G1 X87.231 Y69.682 E8.8961
G1 X87.657 Y69.976 E8.9522
G1 X87.660 Y69.978 E8.9526
G1 X87.736 Y70.034 E8.9629
G1 X87.739 Y70.037 E8.9633
G1 X88.859 Y70.914 E9.1176
G1 X88.862 Y70.916 E9.1180
G1 X88.934 Y70.977 E9.1282
G1 X88.937 Y70.979 E9.1286
G1 X89.324 Y71.322 E9.1847
G1 X89.326 Y71.324 E9.1850
G1 X89.395 Y71.389 E9.1953
G1 X89.398 Y71.391 E9.1957
G1 X90.404 Y72.398 E9.3500
G1 X90.406 Y72.400 E9.3504
G1 X90.471 Y72.469 E9.3606
G1 X90.473 Y72.471 E9.3610
G1 X90.817 Y72.859 E9.4171
G1 X90.819 Y72.862 E9.4175
G1 X90.879 Y72.934 E9.4277
G1 X90.882 Y72.937 E9.4281
G1 X91.759 Y74.057 E9.5825
G1 X91.761 Y74.060 E9.5829
G1 X91.817 Y74.136 E9.5931
G1 X91.819 Y74.139 E9.5935
G1 X92.113 Y74.564 E9.6496
G1 X92.115 Y74.567 E9.6500
G1 X92.166 Y74.647 E9.6602
G1 X92.168 Y74.650 E9.6606
G1 X92.904 Y75.867 E9.8149
G1 X92.906 Y75.871 E9.8153
G1 X92.953 Y75.953 E9.8255
G1 X92.954 Y75.956 E9.8259
G1 X93.195 Y76.414 E9.8820
G1 X93.196 Y76.417 E9.8824
G1 X93.238 Y76.502 E9.8926
G1 X93.239 Y76.505 E9.8930
G1 X93.823 Y77.803 E10.0474
G1 X93.825 Y77.806 E10.0478
G1 X93.861 Y77.893 E10.0580
G1 X93.862 Y77.897 E10.0584
G1 X94.045 Y78.380 E10.1145
G1 X94.047 Y78.384 E10.1149
G1 X94.077 Y78.473 E10.1251
G1 X94.078 Y78.476 E10.1255
G1 X94.502 Y79.835 E10.2798
G1 X94.503 Y79.838 E10.2802
G1 X94.528 Y79.929 E10.2904
G1 X94.529 Y79.932 E10.2908
G1 X94.653 Y80.435 E10.3469
G1 X94.654 Y80.438 E10.3473
G1 X94.673 Y80.530 E10.3575
G1 X94.674 Y80.534 E10.3579
G1 X94.931 Y81.934 E10.5123
G1 X94.931 Y81.937 E10.5127
G1 X94.945 Y82.030 E10.5229
G1 X94.946 Y82.034 E10.5233
G1 X95.008 Y82.547 E10.5794
G1 X95.009 Y82.551 E10.5798
G1 X95.017 Y82.645 E10.5900
G1 X95.017 Y82.649 E10.5904
G1 X95.103 Y84.069 E10.7447
G1 X95.104 Y84.072 E10.7451
G1 X95.106 Y84.167 E10.7553
G1 X95.106 Y84.170 E10.7557
G1 X95.106 Y84.688 E10.8118
G1 X95.106 Y84.691 E10.8122
G1 X95.104 Y84.785 E10.8224
G1 X95.103 Y84.789 E10.8228
G1 X95.018 Y86.209 E10.9772
G1 X95.017 Y86.213 E10.9776
G1 X95.009 Y86.307 E10.9878
G1 X95.008 Y86.311 E10.9882
G1 X94.946 Y86.824 E11.0443
G1 X94.945 Y86.828 E11.0447
G1 X94.931 Y86.921 E11.0549
G1 X94.931 Y86.925 E11.0553
G1 X94.674 Y88.324 E11.2096
G1 X94.673 Y88.328 E11.2100
G1 X94.654 Y88.420 E11.2202
G1 X94.653 Y88.424 E11.2206
G1 X94.529 Y88.926 E11.2767
G1 X94.528 Y88.929 E11.2771
G1 X94.503 Y89.020 E11.2873
G1 X94.502 Y89.023 E11.2877
G1 X94.078 Y90.382 E11.4421
G1 X94.077 Y90.385 E11.4425
G1 X94.047 Y90.474 E11.4527
G1 X94.045 Y90.478 E11.4531
G1 X93.862 Y90.962 E11.5092
G1 X93.861 Y90.965 E11.5096
G1 X93.825 Y91.052 E11.5198
G1 X93.823 Y91.055 E11.5202
G1 X93.239 Y92.353 E11.6745
G1 X93.238 Y92.356 E11.6749
G1 X93.196 Y92.441 E11.6851
G1 X93.195 Y92.444 E11.6855
G1 X92.954 Y92.902 E11.7416
G1 X92.953 Y92.905 E11.7420
G1 X92.906 Y92.987 E11.7522
G1 X92.904 Y92.991 E11.7526
G1 X92.168 Y94.208 E11.9070
G1 X92.166 Y94.211 E11.9074
G1 X92.115 Y94.291 E11.9176
G1 X92.113 Y94.294 E11.9180
G1 X91.819 Y94.719 E11.9741
G1 X91.817 Y94.722 E11.9745
G1 X91.761 Y94.798 E11.9847
G1 X91.759 Y94.801 E11.9851
G1 X90.882 Y95.921 E12.1394
G1 X90.879 Y95.924 E12.1398
G1 X90.819 Y95.997 E12.1500
G1 X90.816 Y95.999 E12.1504
G1 X90.473 Y96.387 E12.2066
G1 X90.471 Y96.389 E12.2069
G1 X90.406 Y96.458 E12.2172
G1 X90.404 Y96.461 E12.2176
G1 X89.398 Y97.467 E12.3719
G1 X89.395 Y97.469 E12.3723
G1 X89.326 Y97.534 E12.3825
G1 X89.324 Y97.536 E12.3829
G1 X88.937 Y97.879 E12.4390
G1 X88.934 Y97.881 E12.4394
G1 X88.862 Y97.942 E12.4496
G1 X88.859 Y97.944 E12.4500
G1 X87.739 Y98.822 E12.6043
G1 X87.736 Y98.824 E12.6047
G1 X87.660 Y98.880 E12.6149
G1 X87.657 Y98.882 E12.6153
G1 X87.231 Y99.176 E12.6714
G1 X87.228 Y99.178 E12.6718
G1 X87.149 Y99.229 E12.6820
G1 X87.146 Y99.231 E12.6824
G1 X85.928 Y99.967 E12.8368
G1 X85.925 Y99.969 E12.8372
G1 X85.843 Y100.015 E12.8474
G1 X85.840 Y100.017 E12.8478
G1 X85.382 Y100.257 E12.9039
G1 X85.378 Y100.259 E12.9043
G1 X85.294 Y100.300 E12.9145
G1 X85.290 Y100.302 E12.9149
G1 X84.000 Y100.882 E13.0684
G1 X83.997 Y100.884 E13.0687
G1 X83.910 Y100.920 E13.0789
G1 X83.907 Y100.921 E13.0793
G1 X83.427 Y101.103 E13.1350
G1 X83.423 Y101.105 E13.1354
G1 X83.335 Y101.135 E13.1456
G1 X83.331 Y101.136 E13.1460
G1 X81.967 Y101.563 E13.3010
G1 X81.964 Y101.564 E13.3014
G1 X81.872 Y101.589 E13.3116
G1 X81.869 Y101.590 E13.3120
G1 X81.690 Y101.634 E13.3320
G1 X81.690 Y139.504 E17.4393
G1 X81.681 Y139.551 E17.4444
G1 X81.206 Y140.697 E17.5790
G1 X81.180 Y140.736 E17.5841
G1 X76.202 Y145.714 E18.3476
G1 X76.162 Y145.741 E18.3527
G1 X75.016 Y146.215 E18.4873
G1 X74.970 Y146.225 E18.4924
G1 X37.930 Y146.225 E22.5096
G1 X37.884 Y146.215 E22.5147
G1 X36.737 Y145.741 E22.6493
G1 X36.698 Y145.714 E22.6544
G1 X31.720 Y140.736 E23.4179
G1 X31.694 Y140.697 E23.4230
G1 X31.219 Y139.551 E23.5576
G1 X31.210 Y139.504 E23.5627
G1 X31.210 Y130.087 E24.5841
G1 X28.930 Y130.087 E24.8314
G1 X28.884 Y130.078 E24.8365
G1 X27.737 Y129.603 E24.9711
G1 X27.698 Y129.577 E24.9762
G1 X22.720 Y124.599 E25.7397
G1 X22.694 Y124.560 E25.7448
G1 X22.219 Y123.413 E25.8794
G1 X22.210 Y123.367 E25.8845
G1 X22.210 Y103.602 E28.0281
G1 X22.219 Y103.556 E28.0333
G1 X22.694 Y102.410 E28.1678
G1 X22.720 Y102.370 E28.1729
G1 X27.698 Y97.392 E28.9365
G1 X27.737 Y97.366 E28.9416
G1 X28.884 Y96.891 E29.0761
G1 X28.930 Y96.882 E29.0813
G1 X30.743 Y96.882 E29.2779
G1 X26.392 Y92.532 E29.9451
G1 X26.366 Y92.492 E29.9502
G1 X25.891 Y91.346 E30.0848
G1 X25.882 Y91.299 E30.0899
G1 X25.885 Y57.410 E33.7654
G1 X25.887 Y57.393 E33.7674
G1 X25.954 Y56.937 E33.8173
G1 X25.958 Y56.920 E33.8192
G1 X26.207 Y56.100 E33.9121
G1 X26.012 Y55.628 E33.9675
G1 X26.005 Y55.606 E33.9701
G1 X25.885 Y55.003 E34.0367
G1 X25.883 Y54.980 E34.0393
G1 X25.883 Y50.409 E34.5350
G1 X25.883 Y50.404 E34.5356
G1 X25.888 Y50.272 E34.5498
G1 X25.888 Y50.267 E34.5504
G1 X25.949 Y49.549 E34.6285
G1 X25.950 Y49.544 E34.6291
G1 X25.966 Y49.414 E34.6433
G1 X25.967 Y49.409 E34.6439
G1 X26.204 Y48.015 E34.7972
G1 X26.206 Y48.005 E34.7983
G1 X26.271 Y47.751 E34.8267
G1 X26.274 Y47.741 E34.8278
G1 X26.751 Y46.379 E34.9844
G1 X26.755 Y46.370 E34.9855
G1 X26.862 Y46.130 E35.0140
G1 X26.867 Y46.121 E35.0151
G1 X27.725 Y44.568 E35.2075
G1 X27.730 Y44.559 E35.2086
G1 X27.876 Y44.341 E35.2371
G1 X27.882 Y44.333 E35.2381
G1 X28.781 Y43.205 E35.3946
G1 X28.788 Y43.197 E35.3957
G1 X28.968 Y43.006 E35.4242
G1 X28.976 Y42.999 E35.4253
G1 X30.162 Y41.939 E35.5978
G1 X30.167 Y41.934 E35.5987
G1 X30.322 Y41.813 E35.6200
G1 X30.328 Y41.808 E35.6208
; tool H0.500 W0.840
; raft
G1 X32.496 Y44.735 F3600
G92 E0
G1 X33.180 Y44.263 E0.1503 F360
G1 X34.070 Y43.802 E0.3314
G1 X34.856 Y43.514 E0.4828
G1 X35.994 Y43.255 E0.6937
G1 X36.824 Y43.173 E0.8444
G1 X37.814 Y43.201 E1.0236
G1 X38.629 Y43.326 E1.1726
G1 X39.888 Y43.685 E1.4092
G1 X40.901 Y44.170 E1.6123
G1 X41.856 Y44.848 E1.8239
G1 X42.280 Y45.207 E1.9244
G1 X48.254 Y51.180 E3.4515
G1 X50.920 Y51.180 E3.9333
G1 X50.920 Y50.671 E4.0255
G1 X50.966 Y50.117 E4.1259
G1 X51.162 Y48.967 E4.3366
G1 X51.530 Y47.917 E4.5379
G1 X52.228 Y46.653 E4.7988
G1 X52.920 Y45.784 E4.9996
G1 X53.887 Y44.919 E5.2343
G1 X54.568 Y44.448 E5.3839
G1 X55.459 Y43.985 E5.5654
G1 X56.251 Y43.694 E5.7178
G1 X57.391 Y43.434 E5.9292
G1 X58.221 Y43.352 E6.0800
G1 X59.209 Y43.380 E6.2587
G1 X60.021 Y43.505 E6.4071
G1 X61.281 Y43.862 E6.6439
