; G-Code generated by Simplify3D(R) Version 3.1.1
; Feb 12, 2017 at 2:58:02 PM
; Settings Summary
;   processName,Process2
;   applyToModels,hotend clamp and fan mount
;   profileName,Default (modified)
;   profileVersion,2015-07-02 16:19:25
;   baseProfile,normal (modified)
;   printMaterial,PLA
;   printQuality,Fast
;   printExtruders,
;   extruderName,Extruder 1
;   extruderToolheadNumber,0
;   extruderDiameter,0.4
;   extruderAutoWidth,1
;   extruderWidth,0.48
;   extrusionMultiplier,1
;   extruderUseRetract,1
;   extruderRetractionDistance,3.1
;   extruderExtraRestartDistance,0
;   extruderRetractionZLift,0
;   extruderRetractionSpeed,1800
;   extruderUseCoasting,0
;   extruderCoastingDistance,0.2
;   extruderUseWipe,0
;   extruderWipeDistance,5
;   primaryExtruder,0
;   layerHeight,0.3
;   topSolidLayers,2
;   bottomSolidLayers,2
;   perimeterOutlines,2
;   printPerimetersInsideOut,1
;   startPointOption,2
;   startPointOriginX,0
;   startPointOriginY,0
;   startPointOriginZ,300
;   sequentialIslands,0
;   spiralVaseMode,0
;   firstLayerHeightPercentage,100
;   firstLayerWidthPercentage,105
;   firstLayerUnderspeed,0.4
;   useRaft,1
;   raftExtruder,0
;   raftLayers,2
;   raftOffset,0.6
;   raftSeparationDistance,0.22
;   raftInfill,75
;   disableRaftBaseLayers,0
;   useSkirt,0
;   skirtExtruder,0
;   skirtLayers,1
;   skirtOutlines,1
;   skirtOffset,3
;   usePrimePillar,0
;   primePillarExtruder,999
;   primePillarWidth,12
;   primePillarLocation,7
;   primePillarSpeedMultiplier,1
;   useOozeShield,0
;   oozeShieldExtruder,999
;   oozeShieldOffset,2
;   oozeShieldOutlines,1
;   oozeShieldSidewallShape,1
;   oozeShieldSidewallAngle,30
;   oozeShieldSpeedMultiplier,1
;   infillExtruder,0
;   internalInfillPattern,Rectilinear
;   externalInfillPattern,Rectilinear
;   infillPercentage,40
;   outlineOverlapPercentage,15
;   infillExtrusionWidthPercentage,100
;   minInfillLength,5
;   infillLayerInterval,1
;   infillAngles,45,-45
;   overlapInfillAngles,0
;   generateSupport,1
;   supportExtruder,0
;   supportInfillPercentage,30
;   supportExtraInflation,0.2
;   denseSupportLayers,3
;   denseSupportInfillPercentage,70
;   supportLayerInterval,1
;   supportHorizontalPartOffset,0.3
;   supportUpperSeparationLayers,1
;   supportLowerSeparationLayers,1
;   supportType,0
;   supportGridSpacing,1.5
;   maxOverhangAngle,35
;   supportAngles,45
;   temperatureName,Extruder 1 Temperature
;   temperatureNumber,0
;   temperatureSetpointCount,1
;   temperatureSetpointLayers,1
;   temperatureSetpointTemperatures,200
;   temperatureStabilizeAtStartup,1
;   temperatureHeatedBed,0
;   temperatureRelayBetweenLayers,1
;   temperatureRelayBetweenLoops,0
;   fanLayers,1
;   fanSpeeds,0
;   blipFanToFullPower,0
;   adjustSpeedForCooling,1
;   minSpeedLayerTime,20
;   minCoolingSpeedSlowdown,20
;   increaseFanForCooling,0
;   minFanLayerTime,45
;   maxCoolingFanSpeed,100
;   increaseFanForBridging,0
;   bridgingFanSpeed,100
;   use5D,1
;   relativeEdistances,0
;   allowEaxisZeroing,1
;   independentExtruderAxes,0
;   includeM10123,0
;   stickySupport,1
;   applyToolheadOffsets,0
;   gcodeXoffset,0
;   gcodeYoffset,0
;   gcodeZoffset,0
;   overrideMachineDefinition,0
;   machineTypeOverride,0
;   strokeXoverride,113
;   strokeYoverride,187
;   strokeZoverride,100
;   originOffsetXoverride,0
;   originOffsetYoverride,0
;   originOffsetZoverride,0
;   homeXdirOverride,-1
;   homeYdirOverride,-1
;   homeZdirOverride,-1
;   flipXoverride,1
;   flipYoverride,-1
;   flipZoverride,1
;   toolheadOffsets,0,0|0,0|0,0|0,0|0,0|0,0
;   overrideFirmwareConfiguration,1
;   firmwareTypeOverride,RepRap (Marlin/Repetier/Sprinter)
;   GPXconfigOverride,r2
;   baudRateOverride,115200
;   overridePrinterModels,0
;   printerModelsOverride
;   startingGcode,G92 X0 Y0 ; zero X and Y axes,G28 Z; GO TO HOME ON Z
;   layerChangeGcode,
;   retractionGcode,
;   toolChangeGcode,
;   endingGcode,M104 S0 ; turn off extruder,M140 S0 ; turn off bed,G91 ; set to incrimental,G1 Z10 F5000 ; lift nozzle,G90 ; Absolute Positioning,G1 X0 ; move X to left,M84 ; disable motors
;   exportFileFormat,gcode
;   celebration,0
;   celebrationSong,Random Song
;   postProcessing,
;   defaultSpeed,4800
;   outlineUnderspeed,1
;   solidInfillUnderspeed,0.9
;   supportUnderspeed,0.75
;   rapidXYspeed,4800
;   rapidZspeed,1002
;   minBridgingArea,50
;   bridgingExtraInflation,0
;   bridgingExtrusionMultiplier,1
;   bridgingSpeedMultiplier,1
;   filamentDiameter,1.72
;   filamentPricePerKg,27
;   filamentDensity,1.25
;   useMinPrintHeight,0
;   minPrintHeight,0
;   useMaxPrintHeight,0
;   maxPrintHeight,10
;   useDiaphragm,0
;   diaphragmLayerInterval,20
;   robustSlicing,1
;   mergeAllIntoSolid,0
;   onlyRetractWhenCrossingOutline,1
;   retractBetweenLayers,0
;   useRetractionMinTravel,0
;   retractionMinTravel,3
;   retractWhileWiping,0
;   onlyWipeOutlines,1
;   avoidCrossingOutline,0
;   maxMovementDetourFactor,3
;   toolChangeRetractionDistance,12
;   toolChangeExtraRestartDistance,-0.5
;   toolChangeRetractionSpeed,600
;   allowThinWallGapFill,1
;   thinWallAllowedOverlapPercentage,15
;   horizontalSizeCompensation,0
G90
M82
M106 S0
M104 S200 T0
M109 S200 T0
G92 X0 Y0 ; zero X and Y axes
G28 Z; GO TO HOME ON Z
G92 E0
G1 E-3.1000 F1800
G1 Z0.500 F1002
; layer 1, Z = 0.5
M105
T0
; tool H0.500 W0.840
; raft
G1 X39.589 Y89.303 F4800
G1 E0.0000 F540
G92 E0
G1 X73.411 Y89.303 E6.1138 F480
G1 X74.700 Y90.592 E6.4432
G1 X74.700 Y135.114 E14.4911
G1 X73.411 Y136.403 E14.8206
G1 X39.589 Y136.403 E20.9343
G1 X38.300 Y135.114 E21.2638
G1 X38.300 Y90.592 E29.3117
G1 X39.589 Y89.303 E29.6411
G1 X39.100 Y92.281 F4800
G92 E0
G1 X73.900 Y92.281 E6.2905 F480
G1 X73.900 Y94.567 E6.7036
G1 X39.100 Y94.567 E12.9941
G1 X39.100 Y96.853 E13.4072
G1 X73.900 Y96.853 E19.6977
G1 X73.900 Y99.139 E20.1108
G1 X39.100 Y99.139 E26.4013
G1 X39.100 Y101.424 E26.8145
G1 X73.900 Y101.424 E33.1049
G1 X73.900 Y103.710 E33.5181
G1 X39.100 Y103.710 E39.8085
G1 X39.100 Y105.996 E40.2217
G1 X73.900 Y105.996 E46.5121
G1 X73.900 Y108.281 E46.9253
G1 X39.100 Y108.281 E53.2158
G1 X39.100 Y110.567 E53.6289
G1 X73.900 Y110.567 E59.9194
G1 X73.900 Y112.853 E60.3325
G1 X39.100 Y112.853 E66.6230
G1 X39.100 Y115.139 E67.0362
G1 X73.900 Y115.139 E73.3266
G1 X73.900 Y117.424 E73.7398
G1 X39.100 Y117.424 E80.0302
G1 X39.100 Y119.710 E80.4434
G1 X73.900 Y119.710 E86.7338
G1 X73.900 Y121.996 E87.1470
G1 X39.100 Y121.996 E93.4375
G1 X39.100 Y124.281 E93.8506
G1 X73.900 Y124.281 E100.1411
G1 X73.900 Y126.567 E100.5542
G1 X39.100 Y126.567 E106.8447
G1 X39.100 Y128.853 E107.2579
G1 X73.900 Y128.853 E113.5483
G1 X73.900 Y131.139 E113.9615
G1 X39.100 Y131.139 E120.2519
G1 X39.100 Y133.424 E120.6651
G1 X73.900 Y133.424 E126.9555
; layer 2, Z = 1
M105
; tool H0.500 W0.800
; raft
G1 X74.700 Y135.114 F4800
G1 Z1.000 F1002
G92 E0
G1 X73.411 Y136.403 E0.3138 F1200
G1 X39.589 Y136.403 E6.1364
G1 X38.300 Y135.114 E6.4501
G1 X38.300 Y90.592 E14.1148
G1 X39.589 Y89.303 E14.4286
G1 X73.411 Y89.303 E20.2512
G1 X74.700 Y90.592 E20.5649
G1 X74.700 Y135.114 E28.2296
G1 X73.900 Y133.424 F4800
G92 E0
G1 X39.100 Y133.424 E5.9909 F1200
G1 X39.100 Y131.139 E6.3844
G1 X73.900 Y131.139 E12.3753
G1 X73.900 Y128.853 E12.7688
G1 X39.100 Y128.853 E18.7597
G1 X39.100 Y126.567 E19.1532
G1 X73.900 Y126.567 E25.1441
G1 X73.900 Y124.281 E25.5376
G1 X39.100 Y124.281 E31.5285
G1 X39.100 Y121.996 E31.9220
G1 X73.900 Y121.996 E37.9129
G1 X73.900 Y119.710 E38.3064
G1 X39.100 Y119.710 E44.2973
G1 X39.100 Y117.424 E44.6908
G1 X73.900 Y117.424 E50.6817
G1 X73.900 Y115.139 E51.0752
G1 X39.100 Y115.139 E57.0661
G1 X39.100 Y112.853 E57.4596
G1 X73.900 Y112.853 E63.4505
G1 X73.900 Y110.567 E63.8440
G1 X39.100 Y110.567 E69.8349
G1 X39.100 Y108.281 E70.2284
G1 X73.900 Y108.281 E76.2193
G1 X73.900 Y105.996 E76.6128
G1 X39.100 Y105.996 E82.6037
G1 X39.100 Y103.710 E82.9972
G1 X73.900 Y103.710 E88.9881
G1 X73.900 Y101.424 E89.3816
G1 X39.100 Y101.424 E95.3725
G1 X39.100 Y99.139 E95.7659
G1 X73.900 Y99.139 E101.7569
G1 X73.900 Y96.853 E102.1503
G1 X39.100 Y96.853 E108.1413
G1 X39.100 Y94.567 E108.5347
G1 X73.900 Y94.567 E114.5256
G1 X73.900 Y92.281 E114.9191
G1 X39.100 Y92.281 E120.9100
; layer 3, Z = 1.37647
M105
; tool H0.376 W0.640
; raft
G1 X74.420 Y90.198 F4800
G1 Z1.376 F1002
G92 E0
G1 X74.420 Y135.507 E4.6984 F2400
G1 X73.444 Y136.483 E4.8414
G1 X73.140 Y136.483 E4.8730
G1 X73.140 Y89.223 E9.7737
G1 X71.860 Y89.223 E9.9064
G1 X71.860 Y136.483 E14.8071
G1 X70.580 Y136.483 E14.9399
G1 X70.580 Y89.223 E19.8406
G1 X69.300 Y89.223 E19.9733
G1 X69.300 Y136.483 E24.8740
G1 X68.020 Y136.483 E25.0067
G1 X68.020 Y89.223 E29.9074
G1 X66.740 Y89.223 E30.0401
G1 X66.740 Y136.483 E34.9408
G1 X65.460 Y136.483 E35.0736
G1 X65.460 Y89.223 E39.9743
G1 X64.180 Y89.223 E40.1070
G1 X64.180 Y136.483 E45.0077
G1 X62.900 Y136.483 E45.1404
G1 X62.900 Y89.223 E50.0411
G1 X61.620 Y89.223 E50.1739
G1 X61.620 Y136.483 E55.0746
G1 X60.340 Y136.483 E55.2073
G1 X60.340 Y89.223 E60.1080
G1 X59.060 Y89.223 E60.2407
G1 X59.060 Y136.483 E65.1414
G1 X57.780 Y136.483 E65.2742
G1 X57.780 Y89.223 E70.1749
G1 X56.500 Y89.223 E70.3076
G1 X56.500 Y136.483 E75.2083
G1 X55.220 Y136.483 E75.3410
G1 X55.220 Y89.223 E80.2417
G1 X53.940 Y89.223 E80.3744
G1 X53.940 Y136.483 E85.2751
G1 X52.660 Y136.483 E85.4079
G1 X52.660 Y89.223 E90.3086
G1 X51.380 Y89.223 E90.4413
G1 X51.380 Y136.483 E95.3420
G1 X50.100 Y136.483 E95.4747
G1 X50.100 Y89.223 E100.3754
G1 X48.820 Y89.223 E100.5082
G1 X48.820 Y136.483 E105.4089
G1 X47.540 Y136.483 E105.5416
G1 X47.540 Y89.223 E110.4423
G1 X46.260 Y89.223 E110.5750
G1 X46.260 Y136.483 E115.4757
G1 X44.980 Y136.483 E115.6085
G1 X44.980 Y89.223 E120.5092
G1 X43.700 Y89.223 E120.6419
G1 X43.700 Y136.483 E125.5426
G1 X42.420 Y136.483 E125.6753
G1 X42.420 Y89.223 E130.5760
G1 X41.140 Y89.223 E130.7087
G1 X41.140 Y136.483 E135.6094
G1 X39.860 Y136.483 E135.7422
G1 X39.860 Y89.223 E140.6429
G1 X39.556 Y89.223 E140.6744
G1 X38.580 Y90.198 E140.8175
G1 X38.580 Y135.507 E145.5159
; layer 4, Z = 1.59869
M105
; tool H0.222 W0.400
; raft
G1 X72.844 Y134.424 F4800
G1 Z1.599 F1002
G92 E0
G1 X72.178 Y134.603 E0.0264 F4800
G1 X70.118 Y134.603 E0.1052
G1 X72.900 Y133.857 E0.2154
G1 X72.900 Y133.305 E0.2365
G1 X68.057 Y134.603 E0.4284
G1 X65.996 Y134.603 E0.5072
G1 X72.900 Y132.753 E0.7806
G1 X72.900 Y132.201 E0.8017
G1 X63.936 Y134.603 E1.1568
G1 X61.875 Y134.603 E1.2356
G1 X72.900 Y131.649 E1.6723
G1 X72.900 Y131.097 E1.6934
G1 X59.814 Y134.603 E2.2117
G1 X57.754 Y134.603 E2.2905
G1 X72.900 Y130.544 E2.8904
G1 X72.900 Y129.992 E2.9115
G1 X55.693 Y134.603 E3.5930
G1 X53.632 Y134.603 E3.6718
G1 X72.900 Y129.440 E4.4349
G1 X72.900 Y128.888 E4.4560
G1 X51.572 Y134.603 E5.3008
G1 X49.511 Y134.603 E5.3796
G1 X72.900 Y128.336 E6.3059
G1 X72.900 Y127.784 E6.3271
G1 X47.450 Y134.603 E7.3350
G1 X45.390 Y134.603 E7.4138
G1 X72.900 Y127.232 E8.5034
G1 X72.900 Y126.679 E8.5245
G1 X43.329 Y134.603 E9.6957
G1 X41.269 Y134.603 E9.7745
G1 X72.900 Y126.127 E11.0273
G1 X72.900 Y125.575 E11.0484
G1 X40.100 Y134.364 E12.3475
G1 X40.100 Y133.812 E12.3686
G1 X72.900 Y125.023 E13.6677
G1 X72.900 Y124.471 E13.6888
G1 X40.100 Y133.260 E14.9879
G1 X40.100 Y132.707 E15.0090
G1 X72.900 Y123.919 E16.3080
G1 X72.900 Y123.367 E16.3292
G1 X40.100 Y132.155 E17.6282
G1 X40.100 Y131.603 E17.6494
G1 X72.900 Y122.814 E18.9484
G1 X72.900 Y122.262 E18.9695
G1 X40.100 Y131.051 E20.2686
G1 X40.100 Y130.499 E20.2897
G1 X72.900 Y121.710 E21.5888
G1 X72.900 Y121.158 E21.6099
G1 X40.100 Y129.947 E22.9090
G1 X40.100 Y129.395 E22.9301
G1 X72.900 Y120.606 E24.2292
G1 X72.900 Y120.054 E24.2503
G1 X40.100 Y128.842 E25.5494
G1 X40.100 Y128.290 E25.5705
G1 X72.900 Y119.501 E26.8695
G1 X72.900 Y118.949 E26.8907
G1 X40.100 Y127.738 E28.1897
G1 X40.100 Y127.186 E28.2109
G1 X72.900 Y118.397 E29.5099
G1 X72.900 Y117.845 E29.5310
G1 X40.100 Y126.634 E30.8301
G1 X40.100 Y126.082 E30.8512
G1 X72.900 Y117.293 E32.1503
G1 X72.900 Y116.741 E32.1714
G1 X40.100 Y125.529 E33.4705
G1 X40.100 Y124.977 E33.4916
G1 X72.900 Y116.189 E34.7907
G1 X72.900 Y115.636 E34.8118
G1 X40.100 Y124.425 E36.1109
G1 X40.100 Y123.873 E36.1320
G1 X72.900 Y115.084 E37.4311
G1 X72.900 Y114.532 E37.4522
G1 X40.100 Y123.321 E38.7512
G1 X40.100 Y122.769 E38.7724
G1 X72.900 Y113.980 E40.0714
G1 X72.900 Y113.428 E40.0925
G1 X40.100 Y122.217 E41.3916
G1 X40.100 Y121.664 E41.4127
G1 X72.900 Y112.876 E42.7118
G1 X72.900 Y112.324 E42.7329
G1 X40.100 Y121.112 E44.0320
G1 X40.100 Y120.560 E44.0531
G1 X72.900 Y111.771 E45.3522
G1 X72.900 Y111.219 E45.3733
G1 X40.100 Y120.008 E46.6724
G1 X40.100 Y119.456 E46.6935
G1 X72.900 Y110.667 E47.9926
G1 X72.900 Y110.115 E48.0137
G1 X40.100 Y118.904 E49.3127
G1 X40.100 Y118.352 E49.3339
G1 X72.900 Y109.563 E50.6329
G1 X72.900 Y109.011 E50.6540
G1 X40.100 Y117.799 E51.9531
G1 X40.100 Y117.247 E51.9742
G1 X72.900 Y108.459 E53.2733
G1 X72.900 Y107.906 E53.2944
G1 X40.100 Y116.695 E54.5935
G1 X40.100 Y116.143 E54.6146
G1 X72.900 Y107.354 E55.9137
G1 X72.900 Y106.802 E55.9348
G1 X40.100 Y115.591 E57.2339
G1 X40.100 Y115.039 E57.2550
G1 X72.900 Y106.250 E58.5541
G1 X72.900 Y105.698 E58.5752
G1 X40.100 Y114.487 E59.8742
G1 X40.100 Y113.934 E59.8954
G1 X72.900 Y105.146 E61.1944
G1 X72.900 Y104.593 E61.2156
G1 X40.100 Y113.382 E62.5146
G1 X40.100 Y112.830 E62.5357
G1 X72.900 Y104.041 E63.8348
G1 X72.900 Y103.489 E63.8559
G1 X40.100 Y112.278 E65.1550
G1 X40.100 Y111.726 E65.1761
G1 X72.900 Y102.937 E66.4752
G1 X72.900 Y102.385 E66.4963
G1 X40.100 Y111.174 E67.7954
G1 X40.100 Y110.621 E67.8165
G1 X72.900 Y101.833 E69.1156
G1 X72.900 Y101.281 E69.1367
G1 X40.100 Y110.069 E70.4357
G1 X40.100 Y109.517 E70.4569
G1 X72.900 Y100.728 E71.7559
G1 X72.900 Y100.176 E71.7771
G1 X40.100 Y108.965 E73.0761
G1 X40.100 Y108.413 E73.0972
G1 X72.900 Y99.624 E74.3963
G1 X72.900 Y99.072 E74.4174
G1 X40.100 Y107.861 E75.7165
G1 X40.100 Y107.309 E75.7376
G1 X72.900 Y98.520 E77.0367
G1 X72.900 Y97.968 E77.0578
G1 X40.100 Y106.756 E78.3569
G1 X40.100 Y106.204 E78.3780
G1 X72.900 Y97.416 E79.6771
G1 X72.900 Y96.863 E79.6982
G1 X40.100 Y105.652 E80.9972
G1 X40.100 Y105.100 E81.0184
G1 X72.900 Y96.311 E82.3174
G1 X72.900 Y95.759 E82.3386
G1 X40.100 Y104.548 E83.6376
G1 X40.100 Y103.996 E83.6587
G1 X72.900 Y95.207 E84.9578
G1 X72.900 Y94.655 E84.9789
G1 X40.100 Y103.444 E86.2780
G1 X40.100 Y102.891 E86.2991
G1 X72.900 Y94.103 E87.5982
G1 X72.900 Y93.551 E87.6193
G1 X40.100 Y102.339 E88.9184
G1 X40.100 Y101.787 E88.9395
G1 X72.900 Y92.998 E90.2386
G1 X72.900 Y92.446 E90.2597
G1 X40.100 Y101.235 E91.5587
G1 X40.100 Y100.683 E91.5799
G1 X72.900 Y91.894 E92.8789
G1 X72.900 Y91.342 E92.9001
G1 X40.100 Y100.131 E94.1991
G1 X40.100 Y99.579 E94.2202
G1 X71.732 Y91.103 E95.4730
G1 X69.671 Y91.103 E95.5519
G1 X40.100 Y99.026 E96.7230
G1 X40.100 Y98.474 E96.7442
G1 X67.610 Y91.103 E97.8337
G1 X65.550 Y91.103 E97.9126
G1 X40.100 Y97.922 E98.9205
G1 X40.100 Y97.370 E98.9416
G1 X63.489 Y91.103 E99.8680
G1 X61.428 Y91.103 E99.9468
G1 X40.100 Y96.818 E100.7915
G1 X40.100 Y96.266 E100.8127
G1 X59.368 Y91.103 E101.5758
G1 X57.307 Y91.103 E101.6546
G1 X40.100 Y95.714 E102.3361
G1 X40.100 Y95.161 E102.3572
G1 X55.247 Y91.103 E102.9571
G1 X53.186 Y91.103 E103.0360
G1 X40.100 Y94.609 E103.5542
G1 X40.100 Y94.057 E103.5753
G1 X51.125 Y91.103 E104.0120
G1 X49.065 Y91.103 E104.0908
G1 X40.100 Y93.505 E104.4459
G1 X40.100 Y92.953 E104.4670
G1 X47.004 Y91.103 E104.7405
G1 X44.943 Y91.103 E104.8193
G1 X40.100 Y92.401 E105.0111
G1 X40.100 Y91.848 E105.0322
G1 X42.883 Y91.103 E105.1424
G1 X40.822 Y91.103 E105.2213
G1 X40.156 Y91.281 E105.2477
; layer 5, Z = 1.82092
M105
; raft
G1 X40.156 Y91.281 F4800
G1 Z1.821 F1002
G92 E0
G1 X40.822 Y91.103 E0.0264 F2400
G1 X42.883 Y91.103 E0.1052
G1 X40.100 Y91.848 E0.2154
G1 X40.100 Y92.401 E0.2366
G1 X44.943 Y91.103 E0.4284
G1 X47.004 Y91.103 E0.5072
G1 X40.100 Y92.953 E0.7806
G1 X40.100 Y93.505 E0.8018
G1 X49.065 Y91.103 E1.1568
G1 X51.125 Y91.103 E1.2356
G1 X40.100 Y94.057 E1.6723
G1 X40.100 Y94.609 E1.6934
G1 X53.186 Y91.103 E2.2117
G1 X55.247 Y91.103 E2.2905
G1 X40.100 Y95.161 E2.8904
