; G-Code generated by Simplify3D(R) Version 3.1.1
; Apr 29, 2017 at 1:45:38 PM
; Settings Summary
;   processName,normal (clear)
;   applyToModels,z_coupler
;   profileName,Default (modified)
;   profileVersion,2015-07-02 16:19:25
;   baseProfile,normal (modified)
;   printMaterial,PLA
;   printQuality,Fast
;   printExtruders,
;   extruderName,Extruder 1
;   extruderToolheadNumber,0
;   extruderDiameter,0.4
;   extruderAutoWidth,1
;   extruderWidth,0.48
;   extrusionMultiplier,1
;   extruderUseRetract,1
;   extruderRetractionDistance,3.1
;   extruderExtraRestartDistance,0
;   extruderRetractionZLift,0
;   extruderRetractionSpeed,1800
;   extruderUseCoasting,0
;   extruderCoastingDistance,0.2
;   extruderUseWipe,0
;   extruderWipeDistance,5
;   primaryExtruder,0
;   layerHeight,0.3
;   topSolidLayers,2
;   bottomSolidLayers,2
;   perimeterOutlines,3
;   printPerimetersInsideOut,0
;   startPointOption,2
;   startPointOriginX,0
;   startPointOriginY,0
;   startPointOriginZ,300
;   sequentialIslands,0
;   spiralVaseMode,0
;   firstLayerHeightPercentage,100
;   firstLayerWidthPercentage,105
;   firstLayerUnderspeed,0.4
;   useRaft,1
;   raftExtruder,0
;   raftLayers,1
;   raftOffset,0.6
;   raftSeparationDistance,0.24
;   raftInfill,75
;   disableRaftBaseLayers,0
;   useSkirt,1
;   skirtExtruder,0
;   skirtLayers,1
;   skirtOutlines,1
;   skirtOffset,5
;   usePrimePillar,0
;   primePillarExtruder,999
;   primePillarWidth,12
;   primePillarLocation,7
;   primePillarSpeedMultiplier,1
;   useOozeShield,0
;   oozeShieldExtruder,999
;   oozeShieldOffset,2
;   oozeShieldOutlines,1
;   oozeShieldSidewallShape,1
;   oozeShieldSidewallAngle,30
;   oozeShieldSpeedMultiplier,1
;   infillExtruder,0
;   internalInfillPattern,Rectilinear
;   externalInfillPattern,Concentric
;   infillPercentage,50
;   outlineOverlapPercentage,15
;   infillExtrusionWidthPercentage,100
;   minInfillLength,5
;   infillLayerInterval,1
;   infillAngles,45,-45
;   overlapInfillAngles,0
;   generateSupport,0
;   supportExtruder,0
;   supportInfillPercentage,30
;   supportExtraInflation,0.2
;   denseSupportLayers,2
;   denseSupportInfillPercentage,80
;   supportLayerInterval,1
;   supportHorizontalPartOffset,0.3
;   supportUpperSeparationLayers,1
;   supportLowerSeparationLayers,1
;   supportType,0
;   supportGridSpacing,1.5
;   maxOverhangAngle,40
;   supportAngles,0
;   temperatureName,Extruder 1 Temperature
;   temperatureNumber,0
;   temperatureSetpointCount,1
;   temperatureSetpointLayers,1
;   temperatureSetpointTemperatures,205
;   temperatureStabilizeAtStartup,1
;   temperatureHeatedBed,0
;   temperatureRelayBetweenLayers,1
;   temperatureRelayBetweenLoops,0
;   fanLayers,1
;   fanSpeeds,0
;   blipFanToFullPower,0
;   adjustSpeedForCooling,1
;   minSpeedLayerTime,20
;   minCoolingSpeedSlowdown,20
;   increaseFanForCooling,0
;   minFanLayerTime,45
;   maxCoolingFanSpeed,100
;   increaseFanForBridging,0
;   bridgingFanSpeed,100
;   use5D,1
;   relativeEdistances,0
;   allowEaxisZeroing,1
;   independentExtruderAxes,0
;   includeM10123,0
;   stickySupport,1
;   applyToolheadOffsets,0
;   gcodeXoffset,0
;   gcodeYoffset,0
;   gcodeZoffset,0
;   overrideMachineDefinition,0
;   machineTypeOverride,0
;   strokeXoverride,113
;   strokeYoverride,187
;   strokeZoverride,100
;   originOffsetXoverride,0
;   originOffsetYoverride,0
;   originOffsetZoverride,0
;   homeXdirOverride,-1
;   homeYdirOverride,-1
;   homeZdirOverride,-1
;   flipXoverride,1
;   flipYoverride,-1
;   flipZoverride,1
;   toolheadOffsets,0,0|0,0|0,0|0,0|0,0|0,0
;   overrideFirmwareConfiguration,1
;   firmwareTypeOverride,RepRap (Marlin/Repetier/Sprinter)
;   GPXconfigOverride,r2
;   baudRateOverride,115200
;   overridePrinterModels,0
;   printerModelsOverride
;   startingGcode,G92 X0 Y0 ; zero X and Y axes,G28 Z; GO TO HOME ON Z
;   layerChangeGcode,
;   retractionGcode,
;   toolChangeGcode,
;   endingGcode,M104 S0 ; turn off extruder,M140 S0 ; turn off bed,G91 ; set to incrimental,G1 Z10 F5000 ; lift nozzle,G90 ; Absolute Positioning,G1 X0 ; move X to left,M84 ; disable motors
;   exportFileFormat,gcode
;   celebration,0
;   celebrationSong,Random Song
;   postProcessing,
;   defaultSpeed,4200
;   outlineUnderspeed,1
;   solidInfillUnderspeed,0.9
;   supportUnderspeed,0.75
;   rapidXYspeed,4800
;   rapidZspeed,1002
;   minBridgingArea,50
;   bridgingExtraInflation,0
;   bridgingExtrusionMultiplier,1
;   bridgingSpeedMultiplier,1
;   filamentDiameter,1.7
;   filamentPricePerKg,27
;   filamentDensity,1.25
;   useMinPrintHeight,0
;   minPrintHeight,0
;   useMaxPrintHeight,0
;   maxPrintHeight,10
;   useDiaphragm,0
;   diaphragmLayerInterval,20
;   robustSlicing,1
;   mergeAllIntoSolid,0
;   onlyRetractWhenCrossingOutline,1
;   retractBetweenLayers,0
;   useRetractionMinTravel,0
;   retractionMinTravel,3
;   retractWhileWiping,0
;   onlyWipeOutlines,1
;   avoidCrossingOutline,0
;   maxMovementDetourFactor,3
;   toolChangeRetractionDistance,12
;   toolChangeExtraRestartDistance,-0.5
;   toolChangeRetractionSpeed,600
;   allowThinWallGapFill,1
;   thinWallAllowedOverlapPercentage,15
;   horizontalSizeCompensation,0
G90
M82
M106 S0
M104 S205 T0
M109 S205 T0
G92 X0 Y0 ; zero X and Y axes
G28 Z; GO TO HOME ON Z
G92 E0
G1 E-3.1000 F1800
G1 Z0.500 F1002
; layer 1, Z = 0.5
M105
T0
; tool H0.500 W0.504
; skirt
G1 X48.677 Y67.346 F4800
G1 E0.0000 F540
G92 E0
G1 X49.519 Y66.749 E0.1146 F1680
G1 X49.522 Y66.747 E0.1150
G1 X49.668 Y66.651 E0.1344
G1 X49.672 Y66.649 E0.1349
G1 X49.972 Y66.465 E0.1740
G1 X49.976 Y66.463 E0.1744
G1 X50.128 Y66.377 E0.1939
G1 X50.132 Y66.375 E0.1943
G1 X51.047 Y65.899 E0.3089
G1 X51.051 Y65.897 E0.3093
G1 X51.209 Y65.822 E0.3287
G1 X51.212 Y65.820 E0.3292
G1 X51.535 Y65.679 E0.3683
G1 X51.539 Y65.678 E0.3688
G1 X51.702 Y65.613 E0.3882
G1 X51.705 Y65.612 E0.3886
G1 X52.677 Y65.265 E0.5032
G1 X52.681 Y65.264 E0.5036
G1 X52.848 Y65.210 E0.5231
G1 X52.851 Y65.209 E0.5235
G1 X53.191 Y65.114 E0.5626
G1 X53.195 Y65.112 E0.5631
G1 X53.364 Y65.071 E0.5825
G1 X53.368 Y65.070 E0.5829
G1 X54.379 Y64.858 E0.6975
G1 X54.383 Y64.857 E0.6980
G1 X54.555 Y64.827 E0.7174
G1 X54.559 Y64.827 E0.7179
G1 X54.908 Y64.778 E0.7570
G1 X54.912 Y64.778 E0.7575
G1 X55.086 Y64.760 E0.7769
G1 X55.090 Y64.759 E0.7774
G1 X56.120 Y64.687 E0.8920
G1 X56.125 Y64.687 E0.8925
G1 X56.299 Y64.681 E0.9119
G1 X56.303 Y64.681 E0.9123
G1 X56.656 Y64.680 E0.9515
G1 X56.660 Y64.680 E0.9519
G1 X56.835 Y64.686 E0.9714
G1 X56.839 Y64.686 E0.9718
G1 X57.870 Y64.755 E1.0865
G1 X57.874 Y64.755 E1.0870
G1 X58.048 Y64.773 E1.1064
G1 X58.052 Y64.773 E1.1069
G1 X58.402 Y64.821 E1.1460
G1 X58.406 Y64.821 E1.1465
G1 X58.578 Y64.851 E1.1659
G1 X58.582 Y64.852 E1.1663
G1 X59.593 Y65.060 E1.2809
G1 X59.597 Y65.061 E1.2813
G1 X59.767 Y65.102 E1.3008
G1 X59.771 Y65.103 E1.3012
G1 X60.110 Y65.198 E1.3404
G1 X60.114 Y65.199 E1.3408
G1 X60.281 Y65.252 E1.3602
G1 X60.285 Y65.253 E1.3607
G1 X61.258 Y65.597 E1.4752
G1 X61.261 Y65.599 E1.4757
G1 X61.424 Y65.662 E1.4951
G1 X61.428 Y65.664 E1.4955
G1 X61.751 Y65.804 E1.5346
G1 X61.755 Y65.805 E1.5351
G1 X61.913 Y65.880 E1.5545
G1 X61.917 Y65.882 E1.5550
G1 X62.833 Y66.355 E1.6695
G1 X62.837 Y66.357 E1.6700
G1 X62.989 Y66.443 E1.6894
G1 X62.993 Y66.445 E1.6898
G1 X63.294 Y66.627 E1.7290
G1 X63.298 Y66.630 E1.7294
G1 X63.444 Y66.725 E1.7488
G1 X63.448 Y66.728 E1.7493
G1 X64.291 Y67.321 E1.8638
G1 X64.295 Y67.324 E1.8643
G1 X64.434 Y67.429 E1.8837
G1 X64.437 Y67.432 E1.8841
G1 X64.711 Y67.653 E1.9233
G1 X64.714 Y67.656 E1.9237
G1 X64.846 Y67.771 E1.9431
G1 X64.849 Y67.774 E1.9436
G1 X65.605 Y68.477 E2.0582
G1 X65.608 Y68.480 E2.0586
G1 X65.731 Y68.603 E2.0780
G1 X65.734 Y68.606 E2.0785
G1 X65.975 Y68.863 E2.1176
G1 X65.978 Y68.866 E2.1181
G1 X66.093 Y68.998 E2.1375
G1 X66.096 Y69.001 E2.1379
G1 X66.749 Y69.801 E2.2525
G1 X66.751 Y69.804 E2.2530
G1 X66.857 Y69.943 E2.2724
G1 X66.859 Y69.946 E2.2729
G1 X67.063 Y70.234 E2.3120
G1 X67.066 Y70.237 E2.3125
G1 X67.162 Y70.384 E2.3319
G1 X67.164 Y70.387 E2.3324
G1 X67.702 Y71.269 E2.4470
G1 X67.704 Y71.272 E2.4475
G1 X67.790 Y71.425 E2.4669
G1 X67.792 Y71.428 E2.4674
G1 X67.955 Y71.741 E2.5065
G1 X67.957 Y71.745 E2.5070
G1 X68.032 Y71.903 E2.5264
G1 X68.034 Y71.906 E2.5269
G1 X68.446 Y72.853 E2.6415
G1 X68.448 Y72.857 E2.6419
G1 X68.512 Y73.019 E2.6614
G1 X68.514 Y73.023 E2.6618
G1 X68.632 Y73.355 E2.7010
G1 X68.634 Y73.359 E2.7014
G1 X68.687 Y73.525 E2.7208
G1 X68.688 Y73.529 E2.7213
G1 X68.968 Y74.523 E2.8359
G1 X68.969 Y74.527 E2.8363
G1 X69.011 Y74.697 E2.8557
G1 X69.012 Y74.701 E2.8562
G1 X69.084 Y75.046 E2.8953
G1 X69.085 Y75.050 E2.8958
G1 X69.114 Y75.222 E2.9152
G1 X69.115 Y75.226 E2.9156
G1 X69.257 Y76.248 E3.0302
G1 X69.258 Y76.252 E3.0306
G1 X69.276 Y76.426 E3.0500
G1 X69.276 Y76.430 E3.0505
G1 X69.301 Y76.781 E3.0896
G1 X69.301 Y76.785 E3.0901
G1 X69.307 Y76.960 E3.1095
G1 X69.307 Y76.964 E3.1099
G1 X69.309 Y77.996 E3.2245
G1 X69.309 Y78.000 E3.2249
G1 X69.303 Y78.175 E3.2443
G1 X69.303 Y78.179 E3.2448
G1 X69.279 Y78.530 E3.2839
G1 X69.279 Y78.534 E3.2844
G1 X69.261 Y78.708 E3.3038
G1 X69.261 Y78.712 E3.3042
G1 X69.122 Y79.735 E3.4188
G1 X69.122 Y79.739 E3.4192
G1 X69.092 Y79.911 E3.4386
G1 X69.091 Y79.915 E3.4391
G1 X69.020 Y80.261 E3.4782
G1 X69.019 Y80.265 E3.4787
G1 X68.978 Y80.434 E3.4981
G1 X68.977 Y80.438 E3.4986
G1 X68.700 Y81.433 E3.6131
G1 X68.699 Y81.436 E3.6136
G1 X68.647 Y81.603 E3.6330
G1 X68.645 Y81.607 E3.6334
G1 X68.528 Y81.939 E3.6726
G1 X68.526 Y81.943 E3.6730
G1 X68.462 Y82.106 E3.6925
G1 X68.461 Y82.110 E3.6929
G1 X68.051 Y83.057 E3.8075
G1 X68.049 Y83.061 E3.8080
G1 X67.975 Y83.219 E3.8274
G1 X67.973 Y83.223 E3.8278
G1 X67.811 Y83.536 E3.8670
G1 X67.809 Y83.540 E3.8675
G1 X67.723 Y83.693 E3.8869
G1 X67.721 Y83.696 E3.8874
G1 X67.186 Y84.580 E4.0020
G1 X67.184 Y84.583 E4.0025
G1 X67.088 Y84.729 E4.0219
G1 X67.086 Y84.733 E4.0223
G1 X66.883 Y85.021 E4.0615
G1 X66.881 Y85.024 E4.0620
G1 X66.775 Y85.164 E4.0814
G1 X66.773 Y85.167 E4.0819
G1 X66.122 Y85.969 E4.1965
G1 X66.120 Y85.972 E4.1969
G1 X66.005 Y86.104 E4.2163
G1 X66.002 Y86.107 E4.2168
G1 X65.762 Y86.365 E4.2559
G1 X65.759 Y86.368 E4.2564
G1 X65.636 Y86.492 E4.2758
G1 X65.633 Y86.495 E4.2763
G1 X64.879 Y87.200 E4.3908
G1 X64.876 Y87.203 E4.3913
G1 X64.745 Y87.318 E4.4107
G1 X64.742 Y87.321 E4.4111
G1 X64.469 Y87.543 E4.4502
G1 X64.466 Y87.546 E4.4507
G1 X64.327 Y87.652 E4.4701
G1 X64.323 Y87.654 E4.4705
G1 X63.481 Y88.251 E4.5851
G1 X63.478 Y88.253 E4.5856
G1 X63.332 Y88.349 E4.6050
G1 X63.328 Y88.351 E4.6054
G1 X63.027 Y88.535 E4.6446
G1 X63.024 Y88.537 E4.6450
G1 X62.872 Y88.623 E4.6644
G1 X62.868 Y88.625 E4.6649
G1 X61.953 Y89.101 E4.7794
G1 X61.949 Y89.103 E4.7799
G1 X61.792 Y89.178 E4.7993
G1 X61.788 Y89.180 E4.7997
G1 X61.465 Y89.321 E4.8389
G1 X61.461 Y89.322 E4.8393
G1 X61.298 Y89.387 E4.8587
G1 X61.294 Y89.388 E4.8592
G1 X60.323 Y89.735 E4.9738
G1 X60.319 Y89.737 E4.9742
G1 X60.152 Y89.790 E4.9936
G1 X60.148 Y89.791 E4.9941
G1 X59.809 Y89.886 E5.0332
G1 X59.805 Y89.887 E5.0336
G1 X59.636 Y89.929 E5.0530
G1 X59.632 Y89.930 E5.0535
G1 X58.622 Y90.142 E5.1681
G1 X58.618 Y90.142 E5.1685
G1 X58.445 Y90.172 E5.1879
G1 X58.441 Y90.173 E5.1884
G1 X58.092 Y90.222 E5.2276
G1 X58.088 Y90.222 E5.2280
G1 X57.914 Y90.240 E5.2475
G1 X57.910 Y90.241 E5.2479
G1 X56.879 Y90.313 E5.3626
G1 X56.875 Y90.313 E5.3630
G1 X56.700 Y90.319 E5.3824
G1 X56.696 Y90.319 E5.3829
G1 X56.344 Y90.320 E5.4220
G1 X56.340 Y90.320 E5.4225
G1 X56.165 Y90.314 E5.4419
G1 X56.161 Y90.314 E5.4424
G1 X55.130 Y90.245 E5.5570
G1 X55.126 Y90.245 E5.5575
G1 X54.952 Y90.227 E5.5769
G1 X54.948 Y90.227 E5.5774
G1 X54.598 Y90.179 E5.6166
G1 X54.594 Y90.178 E5.6170
G1 X54.422 Y90.149 E5.6364
G1 X54.418 Y90.148 E5.6369
G1 X53.407 Y89.940 E5.7515
G1 X53.403 Y89.939 E5.7519
G1 X53.233 Y89.898 E5.7713
G1 X53.229 Y89.897 E5.7718
G1 X52.890 Y89.802 E5.8109
G1 X52.886 Y89.801 E5.8113
G1 X52.719 Y89.748 E5.8307
G1 X52.715 Y89.747 E5.8312
G1 X51.743 Y89.403 E5.9458
G1 X51.739 Y89.402 E5.9462
G1 X51.576 Y89.338 E5.9656
G1 X51.572 Y89.336 E5.9661
G1 X51.249 Y89.196 E6.0052
G1 X51.245 Y89.195 E6.0056
G1 X51.087 Y89.120 E6.0251
G1 X51.084 Y89.118 E6.0255
G1 X50.167 Y88.645 E6.1401
G1 X50.163 Y88.643 E6.1405
G1 X50.010 Y88.557 E6.1600
G1 X50.007 Y88.555 E6.1604
G1 X49.705 Y88.372 E6.1995
G1 X49.702 Y88.370 E6.2000
G1 X49.556 Y88.275 E6.2194
G1 X49.552 Y88.272 E6.2198
G1 X48.708 Y87.679 E6.3344
G1 X48.705 Y87.676 E6.3348
G1 X48.566 Y87.571 E6.3542
G1 X48.563 Y87.568 E6.3547
G1 X48.289 Y87.347 E6.3938
G1 X48.286 Y87.344 E6.3942
G1 X48.154 Y87.229 E6.4137
G1 X48.151 Y87.227 E6.4141
G1 X47.395 Y86.523 E6.5287
G1 X47.393 Y86.521 E6.5291
G1 X47.269 Y86.397 E6.5486
G1 X47.266 Y86.394 E6.5490
G1 X47.025 Y86.137 E6.5881
G1 X47.022 Y86.134 E6.5886
G1 X46.907 Y86.002 E6.6080
G1 X46.904 Y85.999 E6.6085
G1 X46.251 Y85.199 E6.7231
G1 X46.249 Y85.196 E6.7235
G1 X46.143 Y85.057 E6.7430
G1 X46.141 Y85.054 E6.7434
G1 X45.937 Y84.766 E6.7826
G1 X45.934 Y84.763 E6.7830
G1 X45.838 Y84.616 E6.8025
G1 X45.836 Y84.613 E6.8029
G1 X45.298 Y83.731 E6.9176
G1 X45.296 Y83.728 E6.9180
G1 X45.210 Y83.575 E6.9375
G1 X45.208 Y83.572 E6.9379
G1 X45.045 Y83.259 E6.9771
G1 X45.043 Y83.255 E6.9775
G1 X44.968 Y83.097 E6.9970
G1 X44.966 Y83.093 E6.9974
G1 X44.554 Y82.147 E7.1120
G1 X44.552 Y82.143 E7.1125
G1 X44.488 Y81.981 E7.1319
G1 X44.486 Y81.977 E7.1324
G1 X44.368 Y81.645 E7.1715
G1 X44.366 Y81.641 E7.1719
G1 X44.313 Y81.475 E7.1914
G1 X44.312 Y81.471 E7.1918
G1 X44.032 Y80.477 E7.3064
G1 X44.031 Y80.473 E7.3069
G1 X43.989 Y80.303 E7.3263
G1 X43.988 Y80.299 E7.3267
G1 X43.916 Y79.954 E7.3659
G1 X43.915 Y79.950 E7.3663
G1 X43.886 Y79.778 E7.3857
G1 X43.885 Y79.774 E7.3862
G1 X43.743 Y78.752 E7.5008
G1 X43.742 Y78.747 E7.5013
G1 X43.724 Y78.573 E7.5207
G1 X43.724 Y78.569 E7.5212
G1 X43.699 Y78.216 E7.5604
G1 X43.699 Y78.212 E7.5609
G1 X43.693 Y78.037 E7.5803
G1 X43.693 Y78.033 E7.5808
G1 X43.691 Y76.992 E7.6963
G1 X43.692 Y76.988 E7.6968
G1 X43.697 Y76.812 E7.7163
G1 X43.698 Y76.808 E7.7168
G1 X43.721 Y76.455 E7.7561
G1 X43.722 Y76.451 E7.7566
G1 X43.740 Y76.276 E7.7761
G1 X43.740 Y76.272 E7.7765
G1 X43.879 Y75.258 E7.8902
G1 X43.880 Y75.254 E7.8906
G1 X43.909 Y75.083 E7.9099
G1 X43.910 Y75.079 E7.9103
G1 X43.980 Y74.737 E7.9491
G1 X43.981 Y74.733 E7.9495
G1 X44.022 Y74.564 E7.9688
G1 X44.023 Y74.560 E7.9692
G1 X44.300 Y73.567 E8.0837
G1 X44.301 Y73.564 E8.0841
G1 X44.353 Y73.397 E8.1035
G1 X44.355 Y73.393 E8.1040
G1 X44.472 Y73.060 E8.1431
G1 X44.474 Y73.057 E8.1436
G1 X44.538 Y72.894 E8.1630
G1 X44.539 Y72.890 E8.1635
G1 X44.949 Y71.942 E8.2781
G1 X44.951 Y71.939 E8.2786
G1 X45.026 Y71.780 E8.2980
G1 X45.027 Y71.777 E8.2984
G1 X45.189 Y71.463 E8.3376
G1 X45.191 Y71.460 E8.3380
G1 X45.277 Y71.307 E8.3575
G1 X45.279 Y71.304 E8.3579
G1 X45.814 Y70.420 E8.4726
G1 X45.816 Y70.417 E8.4730
G1 X45.912 Y70.271 E8.4925
G1 X45.914 Y70.267 E8.4929
G1 X46.117 Y69.979 E8.5321
G1 X46.119 Y69.975 E8.5325
G1 X46.225 Y69.836 E8.5519
G1 X46.227 Y69.833 E8.5524
G1 X46.878 Y69.031 E8.6670
G1 X46.880 Y69.028 E8.6675
G1 X46.995 Y68.896 E8.6869
G1 X46.998 Y68.893 E8.6874
G1 X47.238 Y68.635 E8.7265
G1 X47.241 Y68.632 E8.7270
G1 X47.365 Y68.508 E8.7464
G1 X47.367 Y68.505 E8.7468
G1 X48.120 Y67.800 E8.8614
G1 X48.124 Y67.797 E8.8618
G1 X48.255 Y67.682 E8.8812
G1 X48.258 Y67.679 E8.8817
G1 X48.531 Y67.457 E8.9208
G1 X48.534 Y67.454 E8.9212
G1 X48.673 Y67.348 E8.9406
G1 X48.677 Y67.346 E8.9411
; tool H0.500 W0.840
; raft
G1 X52.019 Y71.890 F4800
G92 E0
G1 X52.696 Y71.411 E0.1535 F420
G1 X52.824 Y71.332 E0.1813
G1 X53.560 Y70.949 E0.3349
G1 X53.698 Y70.889 E0.3627
G1 X54.479 Y70.610 E0.5162
G1 X54.624 Y70.569 E0.5440
G1 X55.436 Y70.399 E0.6976
G1 X55.585 Y70.378 E0.7254
G1 X56.414 Y70.320 E0.8791
G1 X56.564 Y70.320 E0.9069
G1 X57.393 Y70.376 E1.0606
G1 X57.542 Y70.396 E1.0884
G1 X58.354 Y70.563 E1.2419
G1 X58.499 Y70.604 E1.2698
G1 X59.282 Y70.881 E1.4233
G1 X59.419 Y70.940 E1.4511
G1 X60.157 Y71.321 E1.6046
G1 X60.285 Y71.399 E1.6324
G1 X60.964 Y71.876 E1.7860
G1 X61.080 Y71.971 E1.8137
G1 X61.688 Y72.536 E1.9673
G1 X61.790 Y72.646 E1.9951
G1 X62.316 Y73.289 E2.1487
