; G-Code generated by Simplify3D(R) Version 4.1.0
; Feb 16, 2019 at 4:09:52 PM
; Settings Summary
;   processName,Optimal(1)
;   applyToModels,acme rod bearing clamp - front 2,acme rod bearing clamp
;   profileName,BortBot (modified)
;   profileVersion,2018-03-11 18:52:45
;   baseProfile,Default
;   printMaterial,PLA
;   printQuality,Medium
;   printExtruders,
;   extruderName,Extruder 1
;   extruderToolheadNumber,0
;   extruderDiameter,0.4
;   extruderAutoWidth,1
;   extruderWidth,0.48
;   extrusionMultiplier,1
;   extruderUseRetract,1
;   extruderRetractionDistance,1
;   extruderExtraRestartDistance,0
;   extruderRetractionZLift,0
;   extruderRetractionSpeed,3000
;   extruderUseCoasting,1
;   extruderCoastingDistance,1.4
;   extruderUseWipe,0
;   extruderWipeDistance,2.4
;   primaryExtruder,0
;   layerHeight,0.3
;   topSolidLayers,5
;   bottomSolidLayers,5
;   perimeterOutlines,3
;   printPerimetersInsideOut,0
;   startPointOption,2
;   startPointOriginX,0
;   startPointOriginY,0
;   sequentialIslands,0
;   spiralVaseMode,0
;   firstLayerHeightPercentage,130
;   firstLayerWidthPercentage,100
;   firstLayerUnderspeed,0.65
;   useRaft,0
;   raftExtruder,0
;   raftTopLayers,2
;   raftBaseLayers,2
;   raftOffset,3
;   raftSeparationDistance,0.3
;   raftTopInfill,90
;   aboveRaftSpeedMultiplier,0.3
;   useSkirt,1
;   skirtExtruder,0
;   skirtLayers,1
;   skirtOutlines,2
;   skirtOffset,2
;   usePrimePillar,0
;   primePillarExtruder,999
;   primePillarWidth,12
;   primePillarLocation,7
;   primePillarSpeedMultiplier,1
;   useOozeShield,0
;   oozeShieldExtruder,999
;   oozeShieldOffset,2
;   oozeShieldOutlines,1
;   oozeShieldSidewallShape,1
;   oozeShieldSidewallAngle,30
;   oozeShieldSpeedMultiplier,1
;   infillExtruder,0
;   internalInfillPattern,Rectilinear
;   externalInfillPattern,Rectilinear
;   infillPercentage,40
;   outlineOverlapPercentage,38
;   infillExtrusionWidthPercentage,100
;   minInfillLength,5
;   infillLayerInterval,1
;   internalInfillAngles,45,-45
;   overlapInternalInfillAngles,0
;   externalInfillAngles,45,-45
;   generateSupport,1
;   supportExtruder,0
;   supportInfillPercentage,50
;   supportExtraInflation,0
;   supportBaseLayers,1
;   denseSupportExtruder,0
;   denseSupportLayers,4
;   denseSupportInfillPercentage,90
;   supportLayerInterval,1
;   supportHorizontalPartOffset,0.5
;   supportUpperSeparationLayers,1
;   supportLowerSeparationLayers,1
;   supportType,0
;   supportGridSpacing,1
;   maxOverhangAngle,46
;   supportAngles,45
;   temperatureName,Extruder 1,Heated Bed
;   temperatureNumber,0,1
;   temperatureSetpointCount,1,1
;   temperatureSetpointLayers,1,1
;   temperatureSetpointTemperatures,230,60
;   temperatureStabilizeAtStartup,1,1
;   temperatureHeatedBed,0,1
;   fanLayers,1,3
;   fanSpeeds,0,60
;   blipFanToFullPower,1
;   adjustSpeedForCooling,0
;   minSpeedLayerTime,15
;   minCoolingSpeedSlowdown,20
;   increaseFanForCooling,1
;   minFanLayerTime,45
;   maxCoolingFanSpeed,100
;   increaseFanForBridging,1
;   bridgingFanSpeed,100
;   use5D,1
;   relativeEdistances,0
;   allowEaxisZeroing,1
;   independentExtruderAxes,0
;   includeM10123,0
;   stickySupport,1
;   applyToolheadOffsets,0
;   gcodeXoffset,0
;   gcodeYoffset,0
;   gcodeZoffset,0
;   overrideMachineDefinition,0
;   machineTypeOverride,0
;   strokeXoverride,100
;   strokeYoverride,100
;   strokeZoverride,100
;   originOffsetXoverride,0
;   originOffsetYoverride,0
;   originOffsetZoverride,0
;   homeXdirOverride,-1
;   homeYdirOverride,-1
;   homeZdirOverride,-1
;   flipXoverride,1
;   flipYoverride,-1
;   flipZoverride,1
;   toolheadOffsets,0,0|0,0|0,0|0,0|0,0|0,0
;   overrideFirmwareConfiguration,0
;   firmwareTypeOverride,RepRap (Marlin/Repetier/Sprinter)
;   GPXconfigOverride,r2
;   baudRateOverride,115200
;   overridePrinterModels,0
;   printerModelsOverride
;   startingGcode,G28 XY ; HOME XY,M561 ; Clear any bed transform,G1 X100 Y80 Z25; move to center of bed,G30 ;Do a single Z probe,G29 S1 ; Load bed compensating height map,G1 Z10; ,G28 XY;
;   layerChangeGcode,
;   retractionGcode,
;   toolChangeGcode,
;   endingGcode,G10 S5; retract filament to relieve pressure,M104 S0 ; turn off extruder,M140 S0 ; turn off bed,G91 G1 Z10 ; Clearance from part,G90 G1 X0 Y0 ; Go to starting position (X0 Y0 Z300),M84 ; disable motor,M107; Turn off fan
;   exportFileFormat,gcode
;   celebration,0
;   celebrationSong,Random Song
;   postProcessing,
;   defaultSpeed,3600
;   outlineUnderspeed,0.8
;   solidInfillUnderspeed,1
;   supportUnderspeed,1
;   rapidXYspeed,3600
;   rapidZspeed,1800
;   minBridgingArea,10
;   bridgingExtraInflation,5
;   bridgingExtrusionMultiplier,0.9
;   bridgingSpeedMultiplier,0.6
;   useFixedBridgingAngle,0
;   fixedBridgingAngle,0
;   applyBridgingToPerimeters,1
;   filamentDiameters,1.75|1.75|1.75|1.75|1.75|1.75
;   filamentPricesPerKg,20|46|46|46|46|46
;   filamentDensities,1.33|1.25|1.25|1.25|1.25|1.25
;   useMinPrintHeight,0
;   minPrintHeight,40
;   useMaxPrintHeight,0
;   maxPrintHeight,60
;   useDiaphragm,0
;   diaphragmLayerInterval,20
;   robustSlicing,1
;   mergeAllIntoSolid,0
;   onlyRetractWhenCrossingOutline,1
;   retractBetweenLayers,0
;   useRetractionMinTravel,0
;   retractionMinTravel,3
;   retractWhileWiping,1
;   onlyWipeOutlines,1
;   avoidCrossingOutline,0
;   maxMovementDetourFactor,3
;   toolChangeRetractionDistance,12
;   toolChangeExtraRestartDistance,-0.5
;   toolChangeRetractionSpeed,600
;   externalThinWallType,1
;   internalThinWallType,2
;   thinWallAllowedOverlapPercentage,20
;   singleExtrusionMinLength,1
;   singleExtrusionMinPrintingWidthPercentage,50
;   singleExtrusionMaxPrintingWidthPercentage,200
;   singleExtrusionEndpointExtension,0.2
;   horizontalSizeCompensation,0
G90
M82
M106 S0
M140 S60
M190 S60
M104 S230 T0
M109 S230 T0
G28 XY ; HOME XY
M561 ; Clear any bed transform
G1 X100 Y80 Z25; move to center of bed
G30 ;Do a single Z probe
G29 S1 ; Load bed compensating height map
G1 Z10; 
G28 XY;
; process Optimal(1)
; layer 1, Z = 0.390
T0
; feature skirt
; tool H0.390 W0.480
G1 Z0.390 F1800
G1 X77.280 Y53.978 F3600
G92 E0.0000
G1 X78.873 Y52.384 E0.1754 F2340
G1 X121.127 Y52.384 E3.4639
G1 X122.720 Y53.978 E3.6393
G1 X122.720 Y68.790 E4.7921
G1 X121.127 Y70.383 E4.9674
G1 X78.873 Y70.383 E8.2559
G1 X77.280 Y68.790 E8.4313
G1 X77.280 Y53.978 E9.5841
G92 E0.0000
G1 E-1.0000 F3000
G1 X77.760 Y54.177 F3600
G1 E0.0000 F3000
G92 E0.0000
G1 X79.072 Y52.864 E0.1444 F2340
G1 X120.928 Y52.864 E3.4020
G1 X122.240 Y54.177 E3.5464
G1 X122.240 Y68.591 E4.6683
G1 X120.928 Y69.903 E4.8127
G1 X79.072 Y69.903 E8.0703
G1 X77.760 Y68.591 E8.2147
G1 X77.760 Y54.177 E9.3365
G92 E0.0000
G1 E-1.0000 F3000
G1 X78.873 Y79.826 F3600
G1 E0.0000 F3000
G92 E0.0000
G1 X121.127 Y79.826 E3.2885 F2340
G1 X122.720 Y81.419 E3.4639
G1 X122.720 Y96.231 E4.6167
G1 X121.347 Y97.604 E4.7678
G1 X122.720 Y98.978 E4.9190
G1 X122.720 Y104.231 E5.3279
G1 X121.127 Y105.824 E5.5032
G1 X113.963 Y105.824 E6.0607
G1 X113.955 Y109.299 E6.3311
G1 X113.877 Y109.751 E6.3669
G1 X113.609 Y110.513 E6.4297
G1 X113.379 Y110.922 E6.4662
G1 X112.869 Y111.548 E6.5290
G1 X112.518 Y111.854 E6.5653
G1 X111.830 Y112.272 E6.6280
G1 X111.396 Y112.443 E6.6642
G1 X110.608 Y112.606 E6.7269
G1 X110.142 Y112.622 E6.7632
G1 X109.344 Y112.512 E6.8259
G1 X108.900 Y112.370 E6.8622
G1 X108.185 Y111.999 E6.9249
G1 X107.814 Y111.717 E6.9611
G1 X107.371 Y111.242 E7.0116
G1 X107.274 Y111.125 E7.0236
G1 X106.542 Y110.137 E7.1192
G1 X105.861 Y109.413 E7.1965
G1 X105.101 Y108.773 E7.2739
G1 X104.272 Y108.226 E7.3512
G1 X103.384 Y107.779 E7.4285
G1 X102.451 Y107.439 E7.5059
G1 X101.484 Y107.209 E7.5832
G1 X100.497 Y107.094 E7.6606
G1 X99.503 Y107.094 E7.7379
G1 X98.516 Y107.209 E7.8152
G1 X97.549 Y107.439 E7.8926
G1 X96.616 Y107.779 E7.9699
G1 X95.728 Y108.226 E8.0472
G1 X94.899 Y108.773 E8.1246
G1 X94.139 Y109.413 E8.2019
G1 X93.458 Y110.137 E8.2793
G1 X92.726 Y111.125 E8.3749
G1 X92.629 Y111.242 E8.3868
G1 X92.186 Y111.717 E8.4374
G1 X91.815 Y111.999 E8.4736
G1 X91.100 Y112.370 E8.5363
G1 X90.656 Y112.512 E8.5726
G1 X89.916 Y112.614 E8.6307
G1 X89.567 Y112.617 E8.6579
G1 X89.051 Y112.555 E8.6983
G1 X88.713 Y112.470 E8.7255
G1 X88.017 Y112.196 E8.7836
G1 X87.619 Y111.955 E8.8199
G1 X87.012 Y111.425 E8.8826
G1 X86.718 Y111.064 E8.9188
G1 X86.352 Y110.413 E8.9770
G1 X86.221 Y110.089 E9.0041
G1 X86.090 Y109.588 E9.0444
G1 X86.045 Y109.246 E9.0713
G1 X86.037 Y105.824 E9.3376
G1 X78.873 Y105.824 E9.8951
G1 X77.280 Y104.231 E10.0705
G1 X77.280 Y98.978 E10.4793
G1 X78.653 Y97.604 E10.6305
G1 X77.280 Y96.231 E10.7817
G1 X77.280 Y81.419 E11.9345
G1 X78.873 Y79.826 E12.1098
G92 E0.0000
G1 E-1.0000 F3000
G1 X79.072 Y80.306 F3600
G1 E0.0000 F3000
G92 E0.0000
G1 X120.928 Y80.306 E3.2576 F2340
G1 X122.240 Y81.618 E3.4020
G1 X122.240 Y96.032 E4.5238
G1 X120.668 Y97.604 E4.6969
G1 X122.240 Y99.177 E4.8699
G1 X122.240 Y104.032 E5.2478
G1 X120.928 Y105.344 E5.3923
G1 X113.485 Y105.344 E5.9716
G1 X113.475 Y109.257 E6.2761
G1 X113.411 Y109.630 E6.3055
G1 X113.170 Y110.314 E6.3620
G1 X112.981 Y110.651 E6.3920
G1 X112.523 Y111.213 E6.4484
G1 X112.234 Y111.465 E6.4783
G1 X111.616 Y111.841 E6.5346
G1 X111.259 Y111.981 E6.5645
G1 X110.550 Y112.128 E6.6208
G1 X110.167 Y112.141 E6.6506
G1 X109.450 Y112.042 E6.7069
G1 X109.085 Y111.925 E6.7368
G1 X108.443 Y111.592 E6.7931
G1 X108.137 Y111.360 E6.8229
G1 X107.732 Y110.925 E6.8692
G1 X107.651 Y110.828 E6.8790
G1 X106.911 Y109.829 E6.9758
G1 X106.192 Y109.064 E7.0575
G1 X105.389 Y108.388 E7.1392
G1 X104.512 Y107.810 E7.2209
G1 X103.575 Y107.338 E7.3026
G1 X102.589 Y106.978 E7.3843
G1 X101.567 Y106.736 E7.4660
G1 X100.525 Y106.614 E7.5477
G1 X99.475 Y106.614 E7.6294
G1 X98.432 Y106.736 E7.7111
G1 X97.411 Y106.978 E7.7928
G1 X96.425 Y107.338 E7.8745
G1 X95.488 Y107.810 E7.9562
G1 X94.611 Y108.388 E8.0379
G1 X93.808 Y109.064 E8.1196
G1 X93.089 Y109.829 E8.2013
G1 X92.349 Y110.828 E8.2981
G1 X92.268 Y110.925 E8.3079
G1 X91.863 Y111.360 E8.3542
G1 X91.557 Y111.592 E8.3840
G1 X90.915 Y111.925 E8.4403
G1 X90.550 Y112.042 E8.4702
G1 X89.881 Y112.134 E8.5228
G1 X89.593 Y112.137 E8.5451
G1 X89.139 Y112.082 E8.5808
G1 X88.860 Y112.012 E8.6031
G1 X88.232 Y111.765 E8.6557
G1 X87.904 Y111.566 E8.6855
G1 X87.358 Y111.090 E8.7418
G1 X87.116 Y110.793 E8.7717
G1 X86.785 Y110.204 E8.8243
G1 X86.677 Y109.938 E8.8466
G1 X86.562 Y109.496 E8.8821
G1 X86.525 Y109.214 E8.9043
G1 X86.515 Y105.344 E9.2055
G1 X79.072 Y105.344 E9.7848
G1 X77.760 Y104.032 E9.9292
G1 X77.760 Y99.177 E10.3071
G1 X79.332 Y97.604 E10.4801
G1 X77.760 Y96.032 E10.6532
G1 X77.760 Y81.618 E11.7750
G1 X79.072 Y80.306 E11.9194
G92 E0.0000
G1 E-1.0000 F3000
; feature outer perimeter
G1 X80.240 Y67.423 F3600
G1 E0.0000 F3000
G92 E0.0000
G1 X80.240 Y55.344 E0.9401 F1872
G1 X119.760 Y55.344 E4.0158
G1 X119.760 Y67.423 E4.9559
G1 X81.640 Y67.423 E7.9227
G1 X80.240 Y67.423 F1872
; feature inner perimeter
G1 X80.720 Y66.943 F3600
G92 E0.0000
G1 X80.720 Y55.824 E0.8653 F2106
G1 X119.280 Y55.824 E3.8664
G1 X119.280 Y66.943 E4.7318
G1 X82.120 Y66.943 E7.6239
G1 X80.720 Y66.943 F2106
G1 X81.200 Y66.463 F3600
G92 E0.0000
G1 X81.200 Y56.304 E0.7906 F2106
G1 X118.800 Y56.304 E3.7170
G1 X118.800 Y66.463 E4.5076
G1 X82.600 Y66.463 E7.3250
G1 X81.200 Y66.463 F2106
; feature outer perimeter
G1 X83.578 Y61.255 F3600
G92 E0.0000
G1 X83.870 Y61.387 E0.0250 F1872
G1 X84.180 Y61.468 E0.0499
G1 X84.500 Y61.495 E0.0749
G1 X84.820 Y61.468 E0.0998
G1 X85.130 Y61.387 E0.1248
G1 X85.422 Y61.255 E0.1498
G1 X85.688 Y61.076 E0.1747
G1 X85.919 Y60.854 E0.1997
G1 X86.110 Y60.596 E0.2246
G1 X86.255 Y60.309 E0.2496
G1 X86.348 Y60.003 E0.2746
G1 X86.389 Y59.685 E0.2995
G1 X86.376 Y59.364 E0.3245
G1 X86.308 Y59.051 E0.3495
G1 X86.188 Y58.753 E0.3744
G1 X86.020 Y58.480 E0.3994
G1 X85.808 Y58.239 E0.4243
G1 X85.559 Y58.038 E0.4493
G1 X85.279 Y57.881 E0.4743
G1 X84.976 Y57.775 E0.4992
G1 X84.660 Y57.720 E0.5242
G1 X84.333 Y57.721 E0.5497
G1 X84.024 Y57.775 E0.5741
G1 X83.721 Y57.881 E0.5991
G1 X83.441 Y58.038 E0.6240
G1 X83.192 Y58.239 E0.6490
G1 X82.980 Y58.480 E0.6739
G1 X82.812 Y58.753 E0.6989
G1 X82.692 Y59.051 E0.7239
G1 X82.624 Y59.364 E0.7488
G1 X82.611 Y59.685 E0.7738
G1 X82.652 Y60.003 E0.7987
G1 X82.711 Y60.197 E0.8146
G1 X82.745 Y60.309 F1872
G1 X82.890 Y60.596
G1 X83.081 Y60.854
G1 X83.312 Y61.076
G1 X83.578 Y61.255
; feature inner perimeter
G1 X83.343 Y61.676 F3600
G92 E0.0000
G1 X83.710 Y61.841 E0.0313 F2106
G1 X84.099 Y61.943 E0.0626
G1 X84.500 Y61.977 E0.0940
G1 X84.901 Y61.943 E0.1253
G1 X85.290 Y61.841 E0.1566
G1 X85.657 Y61.676 E0.1879
G1 X85.991 Y61.450 E0.2192
G1 X86.281 Y61.172 E0.2506
G1 X86.520 Y60.848 E0.2819
G1 X86.702 Y60.489 E0.3132
G1 X86.819 Y60.104 E0.3445
G1 X86.870 Y59.705 E0.3758
G1 X86.853 Y59.303 E0.4072
G1 X86.769 Y58.910 E0.4385
G1 X86.619 Y58.536 E0.4698
G1 X86.408 Y58.194 E0.5011
G1 X86.142 Y57.891 E0.5324
G1 X85.829 Y57.639 E0.5638
G1 X85.477 Y57.442 E0.5951
G1 X85.098 Y57.308 E0.6264
G1 X84.700 Y57.240 E0.6578
G1 X84.291 Y57.242 E0.6896
G1 X83.902 Y57.308 E0.7204
G1 X83.523 Y57.442 E0.7517
G1 X83.171 Y57.639 E0.7830
G1 X82.858 Y57.891 E0.8143
G1 X82.592 Y58.194 E0.8456
G1 X82.381 Y58.536 E0.8770
G1 X82.231 Y58.910 E0.9083
G1 X82.147 Y59.303 E0.9396
G1 X82.130 Y59.705 E0.9709
G1 X82.181 Y60.104 E1.0022
G1 X82.298 Y60.489 E1.0336
G1 X82.393 Y60.676 E1.0499
G1 X82.480 Y60.848 F2106
G1 X82.719 Y61.172
G1 X83.009 Y61.450
G1 X83.343 Y61.676
G1 X83.108 Y62.096 F3600
G92 E0.0000
G1 X83.549 Y62.296 E0.0377 F2106
G1 X84.018 Y62.418 E0.0754
G1 X84.500 Y62.459 E0.1130
G1 X84.982 Y62.418 E0.1507
G1 X85.451 Y62.296 E0.1884
G1 X85.892 Y62.096 E0.2261
G1 X86.293 Y61.825 E0.2638
G1 X86.643 Y61.490 E0.3014
G1 X86.931 Y61.101 E0.3391
G1 X87.148 Y60.669 E0.3768
G1 X87.290 Y60.206 E0.4145
G1 X87.352 Y59.726 E0.4521
G1 X87.331 Y59.242 E0.4898
G1 X87.229 Y58.769 E0.5275
G1 X87.049 Y58.319 E0.5652
G1 X86.795 Y57.907 E0.6029
G1 X86.475 Y57.544 E0.6405
G1 X86.098 Y57.240 E0.6782
G1 X85.676 Y57.003 E0.7159
G1 X85.219 Y56.842 E0.7536
G1 X84.740 Y56.760 E0.7914
G1 X84.249 Y56.762 E0.8296
G1 X83.781 Y56.842 E0.8666
G1 X83.324 Y57.003 E0.9043
G1 X82.902 Y57.240 E0.9420
G1 X82.525 Y57.544 E0.9797
G1 X82.205 Y57.907 E1.0173
G1 X81.951 Y58.319 E1.0550
G1 X81.771 Y58.769 E1.0927
G1 X81.669 Y59.242 E1.1304
G1 X81.648 Y59.726 E1.1681
G1 X81.710 Y60.206 E1.2057
G1 X81.851 Y60.669 E1.2434
G1 X82.069 Y61.101 E1.2811
G1 X82.101 Y61.143 E1.2852
G1 X82.357 Y61.490 F2106
G1 X82.707 Y61.825
G1 X83.108 Y62.096
; feature outer perimeter
G1 X113.611 Y59.685 F3600
G92 E0.0000
G1 X113.652 Y60.003 E0.0250 F1872
G1 X113.745 Y60.309 E0.0499
G1 X113.890 Y60.596 E0.0749
G1 X114.081 Y60.854 E0.0998
G1 X114.312 Y61.076 E0.1248
G1 X114.578 Y61.255 E0.1498
G1 X114.870 Y61.387 E0.1747
G1 X115.180 Y61.468 E0.1997
G1 X115.500 Y61.495 E0.2246
G1 X115.820 Y61.468 E0.2496
G1 X116.130 Y61.387 E0.2746
G1 X116.422 Y61.255 E0.2995
G1 X116.688 Y61.076 E0.3245
G1 X116.919 Y60.854 E0.3494
G1 X117.110 Y60.596 E0.3744
G1 X117.254 Y60.309 E0.3994
G1 X117.348 Y60.003 E0.4243
G1 X117.389 Y59.685 E0.4493
G1 X117.376 Y59.364 E0.4743
G1 X117.308 Y59.051 E0.4992
G1 X117.188 Y58.753 E0.5242
G1 X117.020 Y58.480 E0.5491
G1 X116.808 Y58.239 E0.5741
G1 X116.559 Y58.038 E0.5991
G1 X116.279 Y57.881 E0.6240
G1 X115.976 Y57.775 E0.6490
G1 X115.660 Y57.720 E0.6740
G1 X115.333 Y57.721 E0.6994
G1 X115.024 Y57.775 E0.7239
G1 X114.721 Y57.881 E0.7488
G1 X114.441 Y58.038 E0.7738
G1 X114.192 Y58.239 E0.7987
G1 X114.057 Y58.392 E0.8146
G1 X113.980 Y58.480 F1872
G1 X113.812 Y58.753
G1 X113.692 Y59.051
G1 X113.624 Y59.364
G1 X113.611 Y59.685
; feature inner perimeter
G1 X113.130 Y59.705 F3600
G92 E0.0000
G1 X113.181 Y60.104 E0.0313 F2106
G1 X113.298 Y60.489 E0.0626
G1 X113.480 Y60.848 E0.0940
G1 X113.719 Y61.172 E0.1253
G1 X114.009 Y61.450 E0.1566
G1 X114.343 Y61.676 E0.1879
G1 X114.710 Y61.841 E0.2192
G1 X115.099 Y61.943 E0.2506
G1 X115.500 Y61.977 E0.2819
G1 X115.901 Y61.943 E0.3132
G1 X116.290 Y61.841 E0.3445
G1 X116.657 Y61.676 E0.3758
G1 X116.991 Y61.450 E0.4072
G1 X117.281 Y61.172 E0.4385
G1 X117.520 Y60.848 E0.4698
G1 X117.702 Y60.489 E0.5011
