; G-Code generated by Simplify3D(R) Version 4.0.1
; Oct 12, 2018 at 6:46:46 PM
; Settings Summary
;   processName,Optimal(1)
;   applyToModels,acme rod bearing clamp,acme rod bearing clamp(2)
;   profileName,BortBot (modified)
;   profileVersion,2018-03-11 18:52:45
;   baseProfile,Default
;   printMaterial,PLA
;   printQuality,Medium
;   printExtruders,
;   extruderName,Extruder 1
;   extruderToolheadNumber,0
;   extruderDiameter,0.4
;   extruderAutoWidth,1
;   extruderWidth,0.48
;   extrusionMultiplier,1.01
;   extruderUseRetract,1
;   extruderRetractionDistance,4
;   extruderExtraRestartDistance,0
;   extruderRetractionZLift,0
;   extruderRetractionSpeed,3000
;   extruderUseCoasting,0
;   extruderCoastingDistance,1.4
;   extruderUseWipe,1
;   extruderWipeDistance,2
;   primaryExtruder,0
;   layerHeight,0.3
;   topSolidLayers,2
;   bottomSolidLayers,2
;   perimeterOutlines,4
;   printPerimetersInsideOut,1
;   startPointOption,2
;   startPointOriginX,0
;   startPointOriginY,0
;   sequentialIslands,0
;   spiralVaseMode,0
;   firstLayerHeightPercentage,125
;   firstLayerWidthPercentage,100
;   firstLayerUnderspeed,0.75
;   useRaft,0
;   raftExtruder,0
;   raftTopLayers,2
;   raftBaseLayers,2
;   raftOffset,3
;   raftSeparationDistance,0.3
;   raftTopInfill,90
;   aboveRaftSpeedMultiplier,0.3
;   useSkirt,1
;   skirtExtruder,0
;   skirtLayers,1
;   skirtOutlines,2
;   skirtOffset,3
;   usePrimePillar,0
;   primePillarExtruder,999
;   primePillarWidth,12
;   primePillarLocation,7
;   primePillarSpeedMultiplier,1
;   useOozeShield,0
;   oozeShieldExtruder,999
;   oozeShieldOffset,2
;   oozeShieldOutlines,1
;   oozeShieldSidewallShape,1
;   oozeShieldSidewallAngle,30
;   oozeShieldSpeedMultiplier,1
;   infillExtruder,0
;   internalInfillPattern,Grid
;   externalInfillPattern,Rectilinear
;   infillPercentage,40
;   outlineOverlapPercentage,35
;   infillExtrusionWidthPercentage,90
;   minInfillLength,5
;   infillLayerInterval,1
;   internalInfillAngles,45,-45
;   overlapInternalInfillAngles,1
;   externalInfillAngles,45,-45
;   generateSupport,1
;   supportExtruder,0
;   supportInfillPercentage,50
;   supportExtraInflation,0
;   supportBaseLayers,1
;   denseSupportExtruder,0
;   denseSupportLayers,4
;   denseSupportInfillPercentage,90
;   supportLayerInterval,1
;   supportHorizontalPartOffset,0.5
;   supportUpperSeparationLayers,1
;   supportLowerSeparationLayers,1
;   supportType,0
;   supportGridSpacing,1
;   maxOverhangAngle,46
;   supportAngles,0
;   temperatureName,Extruder 1,Heated Bed
;   temperatureNumber,0,1
;   temperatureSetpointCount,1,1
;   temperatureSetpointLayers,1,1
;   temperatureSetpointTemperatures,200,60
;   temperatureStabilizeAtStartup,1,1
;   temperatureHeatedBed,0,1
;   temperatureRelayBetweenLayers,1,0
;   temperatureRelayBetweenLoops,1,0
;   fanLayers,1,3
;   fanSpeeds,0,40
;   blipFanToFullPower,0
;   adjustSpeedForCooling,1
;   minSpeedLayerTime,15
;   minCoolingSpeedSlowdown,20
;   increaseFanForCooling,1
;   minFanLayerTime,45
;   maxCoolingFanSpeed,100
;   increaseFanForBridging,1
;   bridgingFanSpeed,100
;   use5D,1
;   relativeEdistances,0
;   allowEaxisZeroing,1
;   independentExtruderAxes,0
;   includeM10123,0
;   stickySupport,1
;   applyToolheadOffsets,0
;   gcodeXoffset,0
;   gcodeYoffset,0
;   gcodeZoffset,0
;   overrideMachineDefinition,0
;   machineTypeOverride,0
;   strokeXoverride,100
;   strokeYoverride,100
;   strokeZoverride,100
;   originOffsetXoverride,0
;   originOffsetYoverride,0
;   originOffsetZoverride,0
;   homeXdirOverride,-1
;   homeYdirOverride,-1
;   homeZdirOverride,-1
;   flipXoverride,1
;   flipYoverride,-1
;   flipZoverride,1
;   toolheadOffsets,0,0|0,0|0,0|0,0|0,0|0,0
;   overrideFirmwareConfiguration,0
;   firmwareTypeOverride,RepRap (Marlin/Repetier/Sprinter)
;   GPXconfigOverride,r2
;   baudRateOverride,115200
;   overridePrinterModels,0
;   printerModelsOverride
;   startingGcode,G28  ; Home all,;M208S7; DISABLE THE PROBE,;G1 Z5; probe z clearance,;G1 X0 Y0; ,;M280S3; Enable the probe,;G32; probe the grid,;M374; save the grid,;G1 Z20 ; Set Z20 for ooze
;   layerChangeGcode,
;   retractionGcode,
;   toolChangeGcode,
;   endingGcode,G10 S2.5; retract filament to relieve pressure,M104 S0 ; turn off extruder,M140 S0 ; turn off bed,G91 G1 Z10 ; Clearance from part,G90 G1 X0 Y0 Z170 ; Go to starting position (X0 Y0 Z 170),;M84 ; disable motor,M107; Turn off fan
;   exportFileFormat,gcode
;   celebration,0
;   celebrationSong,Random Song
;   postProcessing,
;   defaultSpeed,3000
;   outlineUnderspeed,0.8
;   solidInfillUnderspeed,1
;   supportUnderspeed,1
;   rapidXYspeed,9000
;   rapidZspeed,1800
;   minBridgingArea,10
;   bridgingExtraInflation,5
;   bridgingExtrusionMultiplier,0.9
;   bridgingSpeedMultiplier,0.6
;   useFixedBridgingAngle,0
;   fixedBridgingAngle,0
;   applyBridgingToPerimeters,1
;   filamentDiameters,1.75|1.75|1.75|1.75|1.75|1.75
;   filamentPricesPerKg,20|46|46|46|46|46
;   filamentDensities,1.33|1.25|1.25|1.25|1.25|1.25
;   useMinPrintHeight,0
;   minPrintHeight,40
;   useMaxPrintHeight,0
;   maxPrintHeight,60
;   useDiaphragm,0
;   diaphragmLayerInterval,20
;   robustSlicing,1
;   mergeAllIntoSolid,0
;   onlyRetractWhenCrossingOutline,1
;   retractBetweenLayers,0
;   useRetractionMinTravel,0
;   retractionMinTravel,3
;   retractWhileWiping,1
;   onlyWipeOutlines,1
;   avoidCrossingOutline,0
;   maxMovementDetourFactor,3
;   toolChangeRetractionDistance,12
;   toolChangeExtraRestartDistance,-0.5
;   toolChangeRetractionSpeed,600
;   externalThinWallType,1
;   internalThinWallType,2
;   thinWallAllowedOverlapPercentage,20
;   singleExtrusionMinLength,1
;   singleExtrusionMinPrintingWidthPercentage,50
;   singleExtrusionMaxPrintingWidthPercentage,200
;   singleExtrusionEndpointExtension,0.2
;   horizontalSizeCompensation,0
G90
M82
M106 S0
M140 S60
M190 S60
M104 S200 T0
M109 S200 T0
G28  ; Home all
;M208S7; DISABLE THE PROBE
;G1 Z5; probe z clearance
;G1 X0 Y0; 
;M280S3; Enable the probe
;G32; probe the grid
;M374; save the grid
;G1 Z20 ; Set Z20 for ooze
G92 E0
G1 E-4.0000 F3000
G1 Z0.375 F1800
; process Optimal(1)
; layer 1, Z = 0.375
M105
T0
; tool H0.375 W0.480
; skirt
G1 X61.390 Y60.850 F9000
G1 E0.0000 F900
G92 E0
G1 X63.350 Y58.890 E0.2095 F2250
G1 X63.614 Y58.780 E0.2311
G1 X106.386 Y58.780 E3.4640
G1 X106.650 Y58.890 E3.4856
G1 X108.610 Y60.850 E3.6951
G1 X108.720 Y61.114 E3.7168
G1 X108.720 Y83.886 E5.4380
G1 X108.610 Y84.150 E5.4596
G1 X107.761 Y85.000 E5.5504
G1 X108.610 Y85.850 E5.6412
G1 X108.720 Y86.114 E5.6629
G1 X108.720 Y108.886 E7.3840
G1 X108.610 Y109.150 E7.4057
G1 X106.650 Y111.110 E7.6152
G1 X106.386 Y111.220 E7.6368
G1 X63.614 Y111.220 E10.8697
G1 X63.350 Y111.110 E10.8913
G1 X61.390 Y109.150 E11.1008
G1 X61.280 Y108.886 E11.1225
G1 X61.280 Y86.114 E12.8436
G1 X61.390 Y85.850 E12.8653
G1 X62.239 Y85.000 E12.9561
G1 X61.390 Y84.150 E13.0469
G1 X61.280 Y83.886 E13.0685
G1 X61.280 Y61.114 E14.7897
G1 X61.390 Y60.850 E14.8114
G1 X61.797 Y61.121 F9000
G92 E0
G1 X63.621 Y59.297 E0.1951 F2250
G1 X63.710 Y59.260 E0.2023
G1 X106.290 Y59.260 E3.4207
G1 X106.379 Y59.297 E3.4279
G1 X108.203 Y61.121 E3.6230
G1 X108.240 Y61.210 E3.6302
G1 X108.240 Y83.790 E5.3369
G1 X108.203 Y83.879 E5.3441
G1 X107.082 Y85.000 E5.4640
G1 X108.203 Y86.121 E5.5839
G1 X108.240 Y86.210 E5.5911
G1 X108.240 Y108.790 E7.2978
G1 X108.203 Y108.879 E7.3050
G1 X106.379 Y110.703 E7.5001
G1 X106.290 Y110.740 E7.5073
G1 X63.710 Y110.740 E10.7257
G1 X63.621 Y110.703 E10.7330
G1 X61.797 Y108.879 E10.9280
G1 X61.760 Y108.790 E10.9352
G1 X61.760 Y86.210 E12.6420
G1 X61.797 Y86.121 E12.6492
G1 X62.918 Y85.000 E12.7691
G1 X61.797 Y83.879 E12.8889
G1 X61.760 Y83.790 E12.8961
G1 X61.760 Y61.210 E14.6029
G1 X61.797 Y61.121 E14.6101
G92 E0
G1 E-4.0000 F3000
; inner perimeter
G1 X66.680 Y64.180 F9000
G1 E0.0000 F3000
G92 E0
G1 X67.294 Y64.180 E0.0464 F2025
G1 X67.384 Y64.436 E0.0669
G1 X67.192 Y64.591 E0.0856
G1 X66.928 Y64.891 E0.1157
G1 X66.680 Y64.797 E0.1358
G1 X66.680 Y64.180 E0.1824
G1 X71.616 Y64.436 F9000
G92 E0
G1 X71.706 Y64.180 E0.0205 F2025
G1 X98.294 Y64.180 E2.0301
G1 X98.384 Y64.436 E2.0506
G1 X98.192 Y64.592 E2.0693
G1 X97.818 Y65.016 E2.1121
G1 X97.521 Y65.498 E2.1549
G1 X97.310 Y66.023 E2.1976
G1 X97.191 Y66.576 E2.2404
G1 X97.167 Y67.142 E2.2832
G1 X97.239 Y67.703 E2.3259
G1 X97.404 Y68.244 E2.3687
G1 X97.659 Y68.749 E2.4115
G1 X97.996 Y69.204 E2.4542
G1 X98.404 Y69.596 E2.4970
G1 X98.873 Y69.912 E2.5398
G1 X99.389 Y70.145 E2.5825
G1 X99.936 Y70.288 E2.6253
G1 X100.500 Y70.336 E2.6681
G1 X101.064 Y70.288 E2.7108
G1 X101.611 Y70.145 E2.7536
G1 X102.127 Y69.912 E2.7964
G1 X102.596 Y69.596 E2.8391
G1 X103.087 Y69.125 E2.8905
G1 X103.320 Y69.225 E2.9097
G1 X103.320 Y80.820 E3.7861
G1 X66.680 Y80.820 E6.5555
G1 X66.680 Y69.225 E7.4319
G1 X66.913 Y69.125 E7.4511
G1 X67.404 Y69.596 E7.5025
G1 X67.873 Y69.912 E7.5453
G1 X68.389 Y70.145 E7.5880
G1 X68.936 Y70.288 E7.6308
G1 X69.500 Y70.336 E7.6736
G1 X70.064 Y70.288 E7.7164
G1 X70.611 Y70.146 E7.7591
G1 X71.127 Y69.912 E7.8019
G1 X71.596 Y69.596 E7.8447
G1 X72.004 Y69.204 E7.8874
G1 X72.341 Y68.749 E7.9302
G1 X72.595 Y68.244 E7.9730
G1 X72.761 Y67.703 E8.0157
G1 X72.833 Y67.142 E8.0585
G1 X72.809 Y66.576 E8.1013
G1 X72.690 Y66.023 E8.1440
G1 X72.479 Y65.498 E8.1868
G1 X72.182 Y65.016 E8.2296
G1 X71.808 Y64.592 E8.2723
G1 X71.616 Y64.436 E8.2910
G1 X102.616 Y64.436 F9000
G92 E0
G1 X102.706 Y64.180 E0.0205 F2025
G1 X103.320 Y64.180 E0.0669
G1 X103.320 Y64.797 E0.1135
G1 X103.072 Y64.891 E0.1336
G1 X102.808 Y64.591 E0.1637
G1 X102.616 Y64.436 E0.1824
G1 X103.800 Y63.700 F9000
G92 E0
G1 X103.800 Y81.300 E1.3303 F2025
G1 X66.200 Y81.300 E4.1722
G1 X66.200 Y63.700 E5.5025
G1 X103.800 Y63.700 E8.3444
G1 X104.280 Y63.220 F9000
G92 E0
G1 X104.280 Y81.780 E1.4028 F2025
G1 X65.720 Y81.780 E4.3173
G1 X65.720 Y63.220 E5.7202
G1 X104.280 Y63.220 E8.6347
; outer perimeter
G1 X104.760 Y62.740 F9000
G92 E0
G1 X104.760 Y82.260 E1.4754 F1800
G1 X65.240 Y82.260 E4.4625
G1 X65.240 Y62.740 E5.9379
G1 X104.760 Y62.740 E8.9249
G1 X104.760 Y66.740 F3000
; inner perimeter
G1 X103.331 Y66.637 F9000
G92 E0
G1 X103.229 Y66.164 E0.0366 F2025
G1 X103.049 Y65.715 E0.0732
G1 X102.795 Y65.303 E0.1098
G1 X102.475 Y64.939 E0.1464
G1 X102.098 Y64.635 E0.1830
G1 X101.676 Y64.399 E0.2195
G1 X101.219 Y64.238 E0.2561
G1 X100.742 Y64.156 E0.2927
G1 X100.259 Y64.156 E0.3292
G1 X99.776 Y64.240 E0.3663
G1 X99.324 Y64.399 E0.4025
G1 X98.902 Y64.635 E0.4391
G1 X98.525 Y64.939 E0.4757
G1 X98.205 Y65.303 E0.5123
G1 X97.951 Y65.715 E0.5489
G1 X97.771 Y66.164 E0.5855
G1 X97.669 Y66.637 E0.6221
G1 X97.648 Y67.121 E0.6587
G1 X97.710 Y67.601 E0.6952
G1 X97.851 Y68.064 E0.7318
G1 X98.069 Y68.497 E0.7684
G1 X98.357 Y68.886 E0.8050
G1 X98.707 Y69.221 E0.8416
G1 X99.108 Y69.492 E0.8782
G1 X99.549 Y69.691 E0.9148
G1 X100.018 Y69.813 E0.9514
G1 X100.500 Y69.854 E0.9880
G1 X100.982 Y69.813 E1.0246
G1 X101.451 Y69.691 E1.0612
G1 X101.892 Y69.492 E1.0978
G1 X102.293 Y69.221 E1.1344
G1 X102.643 Y68.886 E1.1709
G1 X102.931 Y68.497 E1.2075
G1 X103.149 Y68.064 E1.2441
G1 X103.290 Y67.601 E1.2807
G1 X103.352 Y67.121 E1.3173
G1 X103.331 Y66.637 E1.3539
G1 X102.853 Y66.699 F9000
G92 E0
G1 X102.769 Y66.305 E0.0304 F2025
G1 X102.619 Y65.932 E0.0608
G1 X102.408 Y65.589 E0.0912
G1 X102.142 Y65.287 E0.1217
G1 X101.829 Y65.034 E0.1521
G1 X101.477 Y64.838 E0.1825
G1 X101.098 Y64.704 E0.2129
G1 X100.701 Y64.636 E0.2433
G1 X100.300 Y64.636 E0.2736
G1 X99.897 Y64.706 E0.3045
G1 X99.523 Y64.838 E0.3346
G1 X99.171 Y65.034 E0.3650
G1 X98.858 Y65.287 E0.3954
G1 X98.592 Y65.589 E0.4258
G1 X98.381 Y65.932 E0.4562
G1 X98.231 Y66.305 E0.4867
G1 X98.147 Y66.699 E0.5171
G1 X98.130 Y67.101 E0.5475
G1 X98.181 Y67.500 E0.5779
G1 X98.298 Y67.885 E0.6083
G1 X98.480 Y68.244 E0.6387
G1 X98.719 Y68.568 E0.6692
G1 X99.009 Y68.846 E0.6996
G1 X99.343 Y69.071 E0.7300
G1 X99.710 Y69.237 E0.7604
G1 X100.099 Y69.338 E0.7908
G1 X100.500 Y69.373 E0.8212
G1 X100.901 Y69.338 E0.8517
G1 X101.290 Y69.237 E0.8821
G1 X101.657 Y69.071 E0.9125
G1 X101.990 Y68.846 E0.9429
G1 X102.281 Y68.568 E0.9733
G1 X102.520 Y68.244 E1.0037
G1 X102.702 Y67.885 E1.0342
G1 X102.819 Y67.500 E1.0646
G1 X102.870 Y67.101 E1.0950
G1 X102.853 Y66.699 E1.1254
; outer perimeter
G1 X102.376 Y66.760 F9000
G92 E0
G1 X102.308 Y66.446 E0.0242 F1800
G1 X102.188 Y66.149 E0.0485
G1 X102.020 Y65.876 E0.0727
G1 X101.808 Y65.635 E0.0970
G1 X101.559 Y65.433 E0.1212
G1 X101.279 Y65.277 E0.1454
G1 X100.976 Y65.170 E0.1697
G1 X100.660 Y65.116 E0.1939
G1 X100.342 Y65.116 E0.2180
G1 X100.019 Y65.172 E0.2427
G1 X99.721 Y65.277 E0.2666
G1 X99.441 Y65.433 E0.2909
G1 X99.192 Y65.635 E0.3151
G1 X98.980 Y65.876 E0.3394
G1 X98.812 Y66.149 E0.3636
G1 X98.692 Y66.446 E0.3878
G1 X98.624 Y66.760 E0.4121
G1 X98.611 Y67.080 E0.4363
G1 X98.652 Y67.398 E0.4606
G1 X98.745 Y67.705 E0.4848
G1 X98.890 Y67.991 E0.5090
G1 X99.081 Y68.249 E0.5333
G1 X99.312 Y68.471 E0.5575
G1 X99.578 Y68.651 E0.5818
G1 X99.870 Y68.783 E0.6060
G1 X100.180 Y68.864 E0.6303
G1 X100.500 Y68.891 E0.6545
G1 X100.820 Y68.864 E0.6787
G1 X101.130 Y68.783 E0.7030
G1 X101.422 Y68.651 E0.7272
G1 X101.688 Y68.471 E0.7515
G1 X101.919 Y68.249 E0.7757
G1 X102.110 Y67.991 E0.7999
G1 X102.254 Y67.705 E0.8242
G1 X102.348 Y67.398 E0.8484
G1 X102.389 Y67.080 E0.8727
G1 X102.376 Y66.760 E0.8969
G1 X102.308 Y66.446 F3000
G1 X102.188 Y66.149 F3000
G1 X102.020 Y65.876 F3000
G1 X101.808 Y65.635 F3000
G1 X101.559 Y65.433 F3000
G1 X101.279 Y65.277 F3000
G1 X100.976 Y65.170 F3000
G1 X100.660 Y65.116 F3000
G1 X100.342 Y65.116 F3000
G1 X100.019 Y65.172 F3000
G1 X99.721 Y65.277 F3000
G1 X99.441 Y65.433 F3000
G1 X99.323 Y65.529 F3000
; inner perimeter
G1 X72.331 Y66.637 F9000
G92 E0
G1 X72.229 Y66.164 E0.0366 F2025
G1 X72.049 Y65.715 E0.0732
G1 X71.795 Y65.303 E0.1098
G1 X71.475 Y64.939 E0.1464
G1 X71.098 Y64.635 E0.1830
G1 X70.676 Y64.399 E0.2196
G1 X70.219 Y64.238 E0.2561
G1 X69.742 Y64.156 E0.2927
G1 X69.259 Y64.156 E0.3292
G1 X68.776 Y64.240 E0.3663
G1 X68.324 Y64.399 E0.4025
G1 X67.902 Y64.635 E0.4391
G1 X67.525 Y64.939 E0.4757
G1 X67.205 Y65.303 E0.5123
G1 X66.951 Y65.715 E0.5489
G1 X66.771 Y66.164 E0.5855
G1 X66.669 Y66.637 E0.6221
G1 X66.648 Y67.121 E0.6587
G1 X66.710 Y67.601 E0.6952
G1 X66.851 Y68.064 E0.7318
G1 X67.069 Y68.497 E0.7684
G1 X67.357 Y68.886 E0.8050
G1 X67.707 Y69.221 E0.8416
G1 X68.108 Y69.492 E0.8782
G1 X68.549 Y69.691 E0.9148
G1 X69.018 Y69.813 E0.9514
G1 X69.500 Y69.854 E0.9880
G1 X69.982 Y69.813 E1.0246
G1 X70.451 Y69.691 E1.0612
G1 X70.892 Y69.492 E1.0978
G1 X71.293 Y69.221 E1.1344
G1 X71.643 Y68.886 E1.1709
G1 X71.931 Y68.497 E1.2075
G1 X72.148 Y68.064 E1.2441
G1 X72.290 Y67.601 E1.2807
G1 X72.352 Y67.121 E1.3173
G1 X72.331 Y66.637 E1.3539
G1 X71.853 Y66.699 F9000
G92 E0
G1 X71.769 Y66.305 E0.0304 F2025
G1 X71.619 Y65.932 E0.0608
G1 X71.408 Y65.589 E0.0912
G1 X71.142 Y65.287 E0.1217
G1 X70.829 Y65.034 E0.1521
G1 X70.477 Y64.838 E0.1825
G1 X70.098 Y64.704 E0.2129
G1 X69.701 Y64.636 E0.2433
G1 X69.300 Y64.636 E0.2736
G1 X68.897 Y64.706 E0.3045
G1 X68.523 Y64.838 E0.3346
G1 X68.171 Y65.034 E0.3650
G1 X67.858 Y65.287 E0.3954
G1 X67.592 Y65.589 E0.4258
G1 X67.381 Y65.932 E0.4562
G1 X67.231 Y66.305 E0.4867
G1 X67.147 Y66.699 E0.5171
G1 X67.129 Y67.101 E0.5475
G1 X67.181 Y67.500 E0.5779
G1 X67.298 Y67.885 E0.6083
G1 X67.480 Y68.244 E0.6387
G1 X67.719 Y68.568 E0.6692
G1 X68.010 Y68.846 E0.6996
G1 X68.343 Y69.071 E0.7300
G1 X68.710 Y69.237 E0.7604
G1 X69.099 Y69.338 E0.7908
G1 X69.500 Y69.373 E0.8212
G1 X69.901 Y69.338 E0.8517
G1 X70.290 Y69.237 E0.8821
G1 X70.657 Y69.071 E0.9125
G1 X70.990 Y68.846 E0.9429
G1 X71.281 Y68.568 E0.9733
G1 X71.520 Y68.244 E1.0037
G1 X71.701 Y67.885 E1.0342
G1 X71.819 Y67.500 E1.0646
G1 X71.870 Y67.101 E1.0950
G1 X71.853 Y66.699 E1.1254
; outer perimeter
G1 X71.376 Y66.760 F9000
G92 E0
G1 X71.308 Y66.446 E0.0242 F1800
G1 X71.188 Y66.149 E0.0485
G1 X71.020 Y65.876 E0.0727
G1 X70.808 Y65.635 E0.0970
G1 X70.559 Y65.433 E0.1212
G1 X70.279 Y65.277 E0.1454
G1 X69.976 Y65.170 E0.1697
G1 X69.660 Y65.116 E0.1939
G1 X69.342 Y65.116 E0.2180
G1 X69.019 Y65.172 E0.2427
