; G-Code generated by Simplify3D(R) Version 3.1.0
; Feb 11, 2017 at 5:51:27 PM
; Settings Summary
;   processName,Process2
;   applyToModels,tuning peg mount,tuning peg mount(2),tuning peg mount(3),tuning peg mount(4)
;   profileName,normal black (modified)
;   profileVersion,2015-07-02 16:19:25
;   baseProfile,normal (modified)
;   printMaterial,PLA
;   printQuality,Fast
;   printExtruders,
;   extruderName,Extruder 1
;   extruderToolheadNumber,0
;   extruderDiameter,0.4
;   extruderAutoWidth,1
;   extruderWidth,0.48
;   extrusionMultiplier,1
;   extruderUseRetract,1
;   extruderRetractionDistance,3.1
;   extruderExtraRestartDistance,0
;   extruderRetractionZLift,0
;   extruderRetractionSpeed,1800
;   extruderUseCoasting,0
;   extruderCoastingDistance,0.2
;   extruderUseWipe,0
;   extruderWipeDistance,5
;   primaryExtruder,0
;   layerHeight,0.3
;   topSolidLayers,2
;   bottomSolidLayers,2
;   perimeterOutlines,2
;   printPerimetersInsideOut,1
;   startPointOption,2
;   startPointOriginX,0
;   startPointOriginY,0
;   startPointOriginZ,300
;   sequentialIslands,0
;   spiralVaseMode,0
;   firstLayerHeightPercentage,100
;   firstLayerWidthPercentage,105
;   firstLayerUnderspeed,0.4
;   useRaft,1
;   raftExtruder,0
;   raftLayers,1
;   raftOffset,5
;   raftSeparationDistance,0.24
;   raftInfill,80
;   disableRaftBaseLayers,0
;   useSkirt,1
;   skirtExtruder,0
;   skirtLayers,1
;   skirtOutlines,1
;   skirtOffset,3
;   usePrimePillar,0
;   primePillarExtruder,999
;   primePillarWidth,12
;   primePillarLocation,7
;   primePillarSpeedMultiplier,1
;   useOozeShield,0
;   oozeShieldExtruder,999
;   oozeShieldOffset,2
;   oozeShieldOutlines,1
;   oozeShieldSidewallShape,1
;   oozeShieldSidewallAngle,30
;   oozeShieldSpeedMultiplier,1
;   infillExtruder,0
;   internalInfillPattern,Rectilinear
;   externalInfillPattern,Rectilinear
;   infillPercentage,40
;   outlineOverlapPercentage,15
;   infillExtrusionWidthPercentage,100
;   minInfillLength,5
;   infillLayerInterval,1
;   infillAngles,45,-45
;   overlapInfillAngles,0
;   generateSupport,1
;   supportExtruder,0
;   supportInfillPercentage,20
;   supportExtraInflation,0.2
;   denseSupportLayers,3
;   denseSupportInfillPercentage,70
;   supportLayerInterval,1
;   supportHorizontalPartOffset,0.3
;   supportUpperSeparationLayers,1
;   supportLowerSeparationLayers,1
;   supportType,0
;   supportGridSpacing,1.5
;   maxOverhangAngle,35
;   supportAngles,45
;   temperatureName,Extruder 1 Temperature
;   temperatureNumber,0
;   temperatureSetpointCount,1
;   temperatureSetpointLayers,1
;   temperatureSetpointTemperatures,200
;   temperatureStabilizeAtStartup,1
;   temperatureHeatedBed,0
;   temperatureRelayBetweenLayers,1
;   temperatureRelayBetweenLoops,0
;   fanLayers,1
;   fanSpeeds,0
;   blipFanToFullPower,0
;   adjustSpeedForCooling,1
;   minSpeedLayerTime,20
;   minCoolingSpeedSlowdown,20
;   increaseFanForCooling,0
;   minFanLayerTime,45
;   maxCoolingFanSpeed,100
;   increaseFanForBridging,0
;   bridgingFanSpeed,100
;   use5D,1
;   relativeEdistances,0
;   allowEaxisZeroing,1
;   independentExtruderAxes,0
;   includeM10123,0
;   stickySupport,1
;   applyToolheadOffsets,0
;   gcodeXoffset,0
;   gcodeYoffset,0
;   gcodeZoffset,0
;   overrideMachineDefinition,0
;   machineTypeOverride,0
;   strokeXoverride,113
;   strokeYoverride,187
;   strokeZoverride,100
;   originOffsetXoverride,0
;   originOffsetYoverride,0
;   originOffsetZoverride,0
;   homeXdirOverride,-1
;   homeYdirOverride,-1
;   homeZdirOverride,-1
;   flipXoverride,1
;   flipYoverride,-1
;   flipZoverride,1
;   toolheadOffsets,0,0|0,0|0,0|0,0|0,0|0,0
;   overrideFirmwareConfiguration,1
;   firmwareTypeOverride,RepRap (Marlin/Repetier/Sprinter)
;   GPXconfigOverride,r2
;   baudRateOverride,115200
;   overridePrinterModels,0
;   printerModelsOverride
;   startingGcode,G92 X0 Y0 ; zero X and Y axes,G28 Z; GO TO HOME ON Z
;   layerChangeGcode,
;   retractionGcode,
;   toolChangeGcode,
;   endingGcode,M104 S0 ; turn off extruder,M140 S0 ; turn off bed,G91 ; set to incrimental,G1 Z10 F5000 ; lift nozzle,G90 ; Absolute Positioning,G1 X0 ; move X to left,M84 ; disable motors
;   exportFileFormat,gcode
;   celebration,0
;   celebrationSong,Random Song
;   postProcessing,
;   defaultSpeed,3600
;   outlineUnderspeed,1
;   solidInfillUnderspeed,0.9
;   supportUnderspeed,0.75
;   rapidXYspeed,3600
;   rapidZspeed,1002
;   minBridgingArea,50
;   bridgingExtraInflation,0
;   bridgingExtrusionMultiplier,1
;   bridgingSpeedMultiplier,1
;   filamentDiameter,1.72
;   filamentPricePerKg,27
;   filamentDensity,1.25
;   useMinPrintHeight,0
;   minPrintHeight,0
;   useMaxPrintHeight,0
;   maxPrintHeight,10
;   useDiaphragm,0
;   diaphragmLayerInterval,20
;   robustSlicing,1
;   mergeAllIntoSolid,0
;   onlyRetractWhenCrossingOutline,1
;   retractBetweenLayers,0
;   useRetractionMinTravel,0
;   retractionMinTravel,3
;   retractWhileWiping,0
;   onlyWipeOutlines,1
;   avoidCrossingOutline,0
;   maxMovementDetourFactor,3
;   toolChangeRetractionDistance,12
;   toolChangeExtraRestartDistance,-0.5
;   toolChangeRetractionSpeed,600
;   allowThinWallGapFill,1
;   thinWallAllowedOverlapPercentage,15
;   horizontalSizeCompensation,0
G90
M82
M106 S0
M104 S200 T0
M109 S200 T0
G92 X0 Y0 ; zero X and Y axes
G28 Z; GO TO HOME ON Z
G92 E0
G1 E-3.1000 F1800
G1 Z0.500 F1002
; layer 1, Z = 0.5
M105
T0
; tool H0.500 W0.504
; skirt
G1 X17.897 Y52.687 F3600
G1 E0.0000 F540
G92 E0
G1 X17.944 Y52.677 E0.0051 F1440
G1 X94.984 Y52.677 E8.3606
G1 X95.030 Y52.687 E8.3657
G1 X96.176 Y53.161 E8.5002
G1 X96.215 Y53.188 E8.5054
G1 X101.193 Y58.166 E9.2689
G1 X101.220 Y58.205 E9.2740
G1 X101.694 Y59.351 E9.4086
G1 X101.704 Y59.398 E9.4137
G1 X101.704 Y141.437 E18.3114
G1 X101.694 Y141.484 E18.3165
G1 X101.220 Y142.630 E18.4511
G1 X101.193 Y142.669 E18.4562
G1 X96.215 Y147.647 E19.2197
G1 X96.176 Y147.673 E19.2249
G1 X95.030 Y148.148 E19.3594
G1 X94.984 Y148.157 E19.3646
G1 X17.944 Y148.157 E27.7200
G1 X17.897 Y148.148 E27.7251
G1 X16.751 Y147.673 E27.8597
G1 X16.712 Y147.647 E27.8648
G1 X11.734 Y142.669 E28.6283
G1 X11.708 Y142.630 E28.6334
G1 X11.233 Y141.484 E28.7680
G1 X11.224 Y141.437 E28.7731
G1 X11.224 Y59.398 E37.6708
G1 X11.233 Y59.351 E37.6760
G1 X11.708 Y58.205 E37.8105
G1 X11.734 Y58.166 E37.8156
G1 X16.712 Y53.188 E38.5792
G1 X16.751 Y53.161 E38.5843
G1 X17.897 Y52.687 E38.7188
; tool H0.500 W0.840
; raft
G1 X18.730 Y56.317 F3600
G92 E0
G1 X94.197 Y56.317 E13.6415 F360
G1 X98.064 Y60.184 E14.6299
G1 X98.064 Y140.651 E29.1752
G1 X94.197 Y144.517 E30.1635
G1 X18.730 Y144.517 E43.8051
G1 X14.864 Y140.651 E44.7934
G1 X14.864 Y60.184 E59.3387
G1 X18.730 Y56.317 E60.3270
G1 X16.904 Y59.275 F3600
G92 E0
G1 X96.023 Y59.275 E14.3016 F360
G1 X97.264 Y60.515 E14.6187
G1 X97.264 Y61.560 E14.8076
G1 X15.664 Y61.560 E29.5577
G1 X15.664 Y63.846 E29.9708
G1 X97.264 Y63.846 E44.7208
G1 X97.264 Y66.132 E45.1340
G1 X15.664 Y66.132 E59.8840
G1 X15.664 Y68.417 E60.2972
G1 X97.264 Y68.417 E75.0472
G1 X97.264 Y70.703 E75.4604
G1 X15.664 Y70.703 E90.2104
G1 X15.664 Y72.989 E90.6236
G1 X97.264 Y72.989 E105.3736
G1 X97.264 Y75.275 E105.7868
G1 X15.664 Y75.275 E120.5368
G1 X15.664 Y77.560 E120.9499
G1 X97.264 Y77.560 E135.7000
G1 X97.264 Y79.846 E136.1131
G1 X15.664 Y79.846 E150.8632
G1 X15.664 Y82.132 E151.2763
G1 X97.264 Y82.132 E166.0263
G1 X97.264 Y84.417 E166.4395
G1 X15.664 Y84.417 E181.1895
G1 X15.664 Y86.703 E181.6027
G1 X97.264 Y86.703 E196.3527
G1 X97.264 Y88.989 E196.7659
G1 X15.664 Y88.989 E211.5159
G1 X15.664 Y91.275 E211.9291
G1 X97.264 Y91.275 E226.6791
G1 X97.264 Y93.560 E227.0923
G1 X15.664 Y93.560 E241.8423
G1 X15.664 Y95.846 E242.2554
G1 X97.264 Y95.846 E257.0055
G1 X97.264 Y98.132 E257.4186
G1 X15.664 Y98.132 E272.1687
G1 X15.664 Y100.417 E272.5818
G1 X97.264 Y100.417 E287.3318
G1 X97.264 Y102.703 E287.7450
G1 X15.664 Y102.703 E302.4950
G1 X15.664 Y104.989 E302.9082
G1 X97.264 Y104.989 E317.6582
G1 X97.264 Y107.275 E318.0714
G1 X15.664 Y107.275 E332.8214
G1 X15.664 Y109.560 E333.2346
G1 X97.264 Y109.560 E347.9846
G1 X97.264 Y111.846 E348.3978
G1 X15.664 Y111.846 E363.1478
G1 X15.664 Y114.132 E363.5609
G1 X97.264 Y114.132 E378.3110
G1 X97.264 Y116.417 E378.7241
G1 X15.664 Y116.417 E393.4742
G1 X15.664 Y118.703 E393.8873
G1 X97.264 Y118.703 E408.6373
G1 X97.264 Y120.989 E409.0505
G1 X15.664 Y120.989 E423.8005
G1 X15.664 Y123.275 E424.2137
G1 X97.264 Y123.275 E438.9637
G1 X97.264 Y125.560 E439.3769
G1 X15.664 Y125.560 E454.1269
G1 X15.664 Y127.846 E454.5401
G1 X97.264 Y127.846 E469.2901
G1 X97.264 Y130.132 E469.7033
G1 X15.664 Y130.132 E484.4533
G1 X15.664 Y132.417 E484.8665
G1 X97.264 Y132.417 E499.6165
G1 X97.264 Y134.703 E500.0296
G1 X15.664 Y134.703 E514.7797
G1 X15.664 Y136.989 E515.1928
G1 X97.264 Y136.989 E529.9428
G1 X97.264 Y139.275 E530.3560
G1 X15.664 Y139.275 E545.1060
G1 X15.664 Y140.320 E545.2950
G1 X16.904 Y141.560 E545.6121
G1 X96.023 Y141.560 E559.9137
; layer 2, Z = 1
M105
; tool H0.500 W0.800
; raft
G1 X98.064 Y140.651 F3600
G1 Z1.000 F1002
G92 E0
G1 X94.197 Y144.517 E0.9413 F900
G1 X18.730 Y144.517 E13.9332
G1 X14.864 Y140.651 E14.8745
G1 X14.864 Y60.184 E28.7272
G1 X18.730 Y56.317 E29.6684
G1 X94.197 Y56.317 E42.6604
G1 X98.064 Y60.184 E43.6016
G1 X98.064 Y140.651 E57.4543
G1 X96.023 Y141.560 F3600
G92 E0
G1 X16.904 Y141.560 E13.6205 F900
G1 X15.664 Y140.320 E13.9225
G1 X15.664 Y139.275 E14.1025
G1 X97.264 Y139.275 E28.1501
G1 X97.264 Y136.989 E28.5436
G1 X15.664 Y136.989 E42.5913
G1 X15.664 Y134.703 E42.9848
G1 X97.264 Y134.703 E57.0324
G1 X97.264 Y132.417 E57.4259
G1 X15.664 Y132.417 E71.4735
G1 X15.664 Y130.132 E71.8670
G1 X97.264 Y130.132 E85.9147
G1 X97.264 Y127.846 E86.3081
G1 X15.664 Y127.846 E100.3558
G1 X15.664 Y125.560 E100.7493
G1 X97.264 Y125.560 E114.7969
G1 X97.264 Y123.275 E115.1904
G1 X15.664 Y123.275 E129.2381
G1 X15.664 Y120.989 E129.6315
G1 X97.264 Y120.989 E143.6792
G1 X97.264 Y118.703 E144.0727
G1 X15.664 Y118.703 E158.1203
G1 X15.664 Y116.417 E158.5138
G1 X97.264 Y116.417 E172.5614
G1 X97.264 Y114.132 E172.9549
G1 X15.664 Y114.132 E187.0026
G1 X15.664 Y111.846 E187.3961
G1 X97.264 Y111.846 E201.4437
G1 X97.264 Y109.560 E201.8372
G1 X15.664 Y109.560 E215.8848
G1 X15.664 Y107.275 E216.2783
G1 X97.264 Y107.275 E230.3260
G1 X97.264 Y104.989 E230.7195
G1 X15.664 Y104.989 E244.7671
G1 X15.664 Y102.703 E245.1606
G1 X97.264 Y102.703 E259.2082
G1 X97.264 Y100.417 E259.6017
G1 X15.664 Y100.417 E273.6494
G1 X15.664 Y98.132 E274.0429
G1 X97.264 Y98.132 E288.0905
G1 X97.264 Y95.846 E288.4840
G1 X15.664 Y95.846 E302.5316
G1 X15.664 Y93.560 E302.9251
G1 X97.264 Y93.560 E316.9728
G1 X97.264 Y91.275 E317.3662
G1 X15.664 Y91.275 E331.4139
G1 X15.664 Y88.989 E331.8074
G1 X97.264 Y88.989 E345.8550
G1 X97.264 Y86.703 E346.2485
G1 X15.664 Y86.703 E360.2962
G1 X15.664 Y84.417 E360.6896
G1 X97.264 Y84.417 E374.7373
G1 X97.264 Y82.132 E375.1308
G1 X15.664 Y82.132 E389.1784
G1 X15.664 Y79.846 E389.5719
G1 X97.264 Y79.846 E403.6195
G1 X97.264 Y77.560 E404.0130
G1 X15.664 Y77.560 E418.0607
G1 X15.664 Y75.275 E418.4542
G1 X97.264 Y75.275 E432.5018
G1 X97.264 Y72.989 E432.8953
G1 X15.664 Y72.989 E446.9429
G1 X15.664 Y70.703 E447.3364
G1 X97.264 Y70.703 E461.3841
G1 X97.264 Y68.417 E461.7776
G1 X15.664 Y68.417 E475.8252
G1 X15.664 Y66.132 E476.2187
G1 X97.264 Y66.132 E490.2663
G1 X97.264 Y63.846 E490.6598
G1 X15.664 Y63.846 E504.7075
G1 X15.664 Y61.560 E505.1010
G1 X97.264 Y61.560 E519.1486
G1 X97.264 Y60.515 E519.3285
G1 X96.023 Y59.275 E519.6305
G1 X16.904 Y59.275 E533.2511
; layer 3, Z = 1.37647
M105
; tool H0.376 W0.640
; raft
G1 X97.424 Y59.431 F3600
G1 Z1.376 F1002
G92 E0
G1 X97.424 Y141.404 E8.5004 F1800
G1 X96.144 Y142.684 E8.6881
G1 X96.144 Y58.151 E17.4540
G1 X94.864 Y56.871 E17.6417
G1 X94.864 Y143.964 E26.6730
G1 X94.231 Y144.597 E26.7659
G1 X93.584 Y144.597 E26.8329
G1 X93.584 Y56.237 E35.9956
G1 X92.304 Y56.237 E36.1283
G1 X92.304 Y144.597 E45.2909
G1 X91.024 Y144.597 E45.4237
G1 X91.024 Y56.237 E54.5863
G1 X89.744 Y56.237 E54.7190
G1 X89.744 Y144.597 E63.8816
G1 X88.464 Y144.597 E64.0144
G1 X88.464 Y56.237 E73.1770
G1 X87.184 Y56.237 E73.3097
G1 X87.184 Y144.597 E82.4724
G1 X85.904 Y144.597 E82.6051
G1 X85.904 Y56.237 E91.7677
G1 X84.624 Y56.237 E91.9004
G1 X84.624 Y144.597 E101.0631
G1 X83.344 Y144.597 E101.1958
G1 X83.344 Y56.237 E110.3584
G1 X82.064 Y56.237 E110.4912
G1 X82.064 Y144.597 E119.6538
G1 X80.784 Y144.597 E119.7865
G1 X80.784 Y56.237 E128.9491
G1 X79.504 Y56.237 E129.0819
G1 X79.504 Y144.597 E138.2445
G1 X78.224 Y144.597 E138.3772
G1 X78.224 Y56.237 E147.5399
G1 X76.944 Y56.237 E147.6726
G1 X76.944 Y144.597 E156.8352
G1 X75.664 Y144.597 E156.9680
G1 X75.664 Y56.237 E166.1306
G1 X74.384 Y56.237 E166.2633
G1 X74.384 Y144.597 E175.4259
G1 X73.104 Y144.597 E175.5587
G1 X73.104 Y56.237 E184.7213
G1 X71.824 Y56.237 E184.8540
G1 X71.824 Y144.597 E194.0167
G1 X70.544 Y144.597 E194.1494
G1 X70.544 Y56.237 E203.3120
G1 X69.264 Y56.237 E203.4447
G1 X69.264 Y144.597 E212.6074
G1 X67.984 Y144.597 E212.7401
G1 X67.984 Y56.237 E221.9027
G1 X66.704 Y56.237 E222.0355
G1 X66.704 Y144.597 E231.1981
G1 X65.424 Y144.597 E231.3308
G1 X65.424 Y56.237 E240.4934
G1 X64.144 Y56.237 E240.6262
G1 X64.144 Y144.597 E249.7888
G1 X62.864 Y144.597 E249.9215
G1 X62.864 Y56.237 E259.0842
G1 X61.584 Y56.237 E259.2169
G1 X61.584 Y144.597 E268.3795
G1 X60.304 Y144.597 E268.5122
G1 X60.304 Y56.237 E277.6749
G1 X59.024 Y56.237 E277.8076
G1 X59.024 Y144.597 E286.9702
G1 X57.744 Y144.597 E287.1030
G1 X57.744 Y56.237 E296.2656
G1 X56.464 Y56.237 E296.3983
G1 X56.464 Y144.597 E305.5609
G1 X55.184 Y144.597 E305.6937
G1 X55.184 Y56.237 E314.8563
G1 X53.904 Y56.237 E314.9890
G1 X53.904 Y144.597 E324.1517
G1 X52.624 Y144.597 E324.2844
G1 X52.624 Y56.237 E333.4470
G1 X51.344 Y56.237 E333.5797
G1 X51.344 Y144.597 E342.7424
G1 X50.064 Y144.597 E342.8751
G1 X50.064 Y56.237 E352.0377
G1 X48.784 Y56.237 E352.1705
G1 X48.784 Y144.597 E361.3331
G1 X47.504 Y144.597 E361.4658
G1 X47.504 Y56.237 E370.6284
G1 X46.224 Y56.237 E370.7612
G1 X46.224 Y144.597 E379.9238
G1 X44.944 Y144.597 E380.0565
G1 X44.944 Y56.237 E389.2192
G1 X43.664 Y56.237 E389.3519
G1 X43.664 Y144.597 E398.5145
G1 X42.384 Y144.597 E398.6473
G1 X42.384 Y56.237 E407.8099
G1 X41.104 Y56.237 E407.9426
G1 X41.104 Y144.597 E417.1052
G1 X39.824 Y144.597 E417.2380
G1 X39.824 Y56.237 E426.4006
G1 X38.544 Y56.237 E426.5333
G1 X38.544 Y144.597 E435.6959
G1 X37.264 Y144.597 E435.8287
G1 X37.264 Y56.237 E444.9913
G1 X35.984 Y56.237 E445.1240
G1 X35.984 Y144.597 E454.2867
G1 X34.704 Y144.597 E454.4194
G1 X34.704 Y56.237 E463.5820
G1 X33.424 Y56.237 E463.7148
G1 X33.424 Y144.597 E472.8774
G1 X32.144 Y144.597 E473.0101
G1 X32.144 Y56.237 E482.1727
G1 X30.864 Y56.237 E482.3055
G1 X30.864 Y144.597 E491.4681
G1 X29.584 Y144.597 E491.6008
G1 X29.584 Y56.237 E500.7635
G1 X28.304 Y56.237 E500.8962
G1 X28.304 Y144.597 E510.0588
G1 X27.024 Y144.597 E510.1915
G1 X27.024 Y56.237 E519.3542
G1 X25.744 Y56.237 E519.4869
G1 X25.744 Y144.597 E528.6495
G1 X24.464 Y144.597 E528.7823
G1 X24.464 Y56.237 E537.9449
G1 X23.184 Y56.237 E538.0776
G1 X23.184 Y144.597 E547.2402
G1 X21.904 Y144.597 E547.3730
G1 X21.904 Y56.237 E556.5356
G1 X20.624 Y56.237 E556.6683
G1 X20.624 Y144.597 E565.8310
G1 X19.344 Y144.597 E565.9637
G1 X19.344 Y56.237 E575.1263
G1 X18.697 Y56.237 E575.1934
G1 X18.064 Y56.870 E575.2862
G1 X18.064 Y143.964 E584.3176
G1 X16.784 Y142.684 E584.5053
G1 X16.784 Y58.150 E593.2712
G1 X15.504 Y59.430 E593.4589
G1 X15.504 Y141.404 E601.9593
; layer 4, Z = 1.59869
M105
; tool H0.222 W0.400
; raft
G1 X94.063 Y142.107 F3600
G1 Z1.599 F1002
G92 E0
G1 X91.783 Y142.717 E0.0903 F1800
G1 X89.851 Y142.717 E0.1642
G1 X94.770 Y141.400 E0.3590
G1 X95.477 Y140.692 E0.3972
G1 X87.919 Y142.717 E0.6966
G1 X85.988 Y142.717 E0.7705
G1 X96.184 Y139.985 E1.1743
G1 X96.264 Y139.906 E1.1786
G1 X96.264 Y139.446 E1.1962
G1 X84.056 Y142.717 E1.6797
G1 X82.124 Y142.717 E1.7536
G1 X96.264 Y138.929 E2.3136
G1 X96.264 Y138.411 E2.3334
G1 X80.192 Y142.717 E2.9699
G1 X78.260 Y142.717 E3.0438
G1 X96.264 Y137.893 E3.7569
G1 X96.264 Y137.376 E3.7767
