; G-Code generated by Simplify3D(R) Version 3.1.0
; Nov 24, 2016 at 11:30:41 AM
; Settings Summary
;   processName,Process2
;   applyToModels,Bed bearing mount,Bed bearing mount(2)
;   profileName,normal black (modified)
;   profileVersion,2015-07-02 16:19:25
;   baseProfile,normal (modified)
;   printMaterial,PLA
;   printQuality,Fast
;   printExtruders,
;   extruderName,Extruder 1
;   extruderToolheadNumber,0
;   extruderDiameter,0.4
;   extruderAutoWidth,1
;   extruderWidth,0.48
;   extrusionMultiplier,1
;   extruderUseRetract,1
;   extruderRetractionDistance,3.1
;   extruderExtraRestartDistance,0
;   extruderRetractionZLift,0
;   extruderRetractionSpeed,1800
;   extruderUseCoasting,0
;   extruderCoastingDistance,0.2
;   extruderUseWipe,0
;   extruderWipeDistance,5
;   primaryExtruder,0
;   layerHeight,0.3
;   topSolidLayers,2
;   bottomSolidLayers,2
;   perimeterOutlines,2
;   printPerimetersInsideOut,1
;   startPointOption,2
;   startPointOriginX,0
;   startPointOriginY,0
;   startPointOriginZ,300
;   sequentialIslands,0
;   spiralVaseMode,0
;   firstLayerHeightPercentage,100
;   firstLayerWidthPercentage,105
;   firstLayerUnderspeed,0.4
;   useRaft,1
;   raftExtruder,0
;   raftLayers,1
;   raftOffset,5
;   raftSeparationDistance,0.24
;   raftInfill,80
;   disableRaftBaseLayers,0
;   useSkirt,1
;   skirtExtruder,0
;   skirtLayers,1
;   skirtOutlines,1
;   skirtOffset,3
;   usePrimePillar,0
;   primePillarExtruder,999
;   primePillarWidth,12
;   primePillarLocation,7
;   primePillarSpeedMultiplier,1
;   useOozeShield,0
;   oozeShieldExtruder,999
;   oozeShieldOffset,2
;   oozeShieldOutlines,1
;   oozeShieldSidewallShape,1
;   oozeShieldSidewallAngle,30
;   oozeShieldSpeedMultiplier,1
;   infillExtruder,0
;   internalInfillPattern,Rectilinear
;   externalInfillPattern,Rectilinear
;   infillPercentage,40
;   outlineOverlapPercentage,15
;   infillExtrusionWidthPercentage,100
;   minInfillLength,5
;   infillLayerInterval,1
;   infillAngles,45,-45
;   overlapInfillAngles,0
;   generateSupport,1
;   supportExtruder,0
;   supportInfillPercentage,30
;   supportExtraInflation,0.2
;   denseSupportLayers,0
;   denseSupportInfillPercentage,70
;   supportLayerInterval,1
;   supportHorizontalPartOffset,0.3
;   supportUpperSeparationLayers,1
;   supportLowerSeparationLayers,1
;   supportType,0
;   supportGridSpacing,1.5
;   maxOverhangAngle,35
;   supportAngles,45
;   temperatureName,Extruder 1 Temperature
;   temperatureNumber,0
;   temperatureSetpointCount,1
;   temperatureSetpointLayers,1
;   temperatureSetpointTemperatures,200
;   temperatureStabilizeAtStartup,1
;   temperatureHeatedBed,0
;   temperatureRelayBetweenLayers,1
;   temperatureRelayBetweenLoops,0
;   fanLayers,1
;   fanSpeeds,0
;   blipFanToFullPower,0
;   adjustSpeedForCooling,1
;   minSpeedLayerTime,20
;   minCoolingSpeedSlowdown,20
;   increaseFanForCooling,0
;   minFanLayerTime,45
;   maxCoolingFanSpeed,100
;   increaseFanForBridging,0
;   bridgingFanSpeed,100
;   use5D,1
;   relativeEdistances,0
;   allowEaxisZeroing,1
;   independentExtruderAxes,0
;   includeM10123,0
;   stickySupport,1
;   applyToolheadOffsets,0
;   gcodeXoffset,0
;   gcodeYoffset,0
;   gcodeZoffset,0
;   overrideMachineDefinition,0
;   machineTypeOverride,0
;   strokeXoverride,113
;   strokeYoverride,187
;   strokeZoverride,100
;   originOffsetXoverride,0
;   originOffsetYoverride,0
;   originOffsetZoverride,0
;   homeXdirOverride,-1
;   homeYdirOverride,-1
;   homeZdirOverride,-1
;   flipXoverride,1
;   flipYoverride,-1
;   flipZoverride,1
;   toolheadOffsets,0,0|0,0|0,0|0,0|0,0|0,0
;   overrideFirmwareConfiguration,1
;   firmwareTypeOverride,RepRap (Marlin/Repetier/Sprinter)
;   GPXconfigOverride,r2
;   baudRateOverride,115200
;   overridePrinterModels,0
;   printerModelsOverride
;   startingGcode,G92 X0 Y0 ; zero X and Y axes,G28 Z; GO TO HOME ON Z
;   layerChangeGcode,
;   retractionGcode,
;   toolChangeGcode,
;   endingGcode,M104 S0 ; turn off extruder,M140 S0 ; turn off bed,G91 ; set to incrimental,G1 Z10 F5000 ; lift nozzle,G90 ; Absolute Positioning,G1 X0 ; move X to left,M84 ; disable motors
;   exportFileFormat,gcode
;   celebration,0
;   celebrationSong,Random Song
;   postProcessing,
;   defaultSpeed,3600
;   outlineUnderspeed,1
;   solidInfillUnderspeed,0.9
;   supportUnderspeed,0.75
;   rapidXYspeed,3600
;   rapidZspeed,1002
;   minBridgingArea,50
;   bridgingExtraInflation,0
;   bridgingExtrusionMultiplier,1
;   bridgingSpeedMultiplier,1
;   filamentDiameter,1.72
;   filamentPricePerKg,27
;   filamentDensity,1.25
;   useMinPrintHeight,0
;   minPrintHeight,0
;   useMaxPrintHeight,0
;   maxPrintHeight,10
;   useDiaphragm,0
;   diaphragmLayerInterval,20
;   robustSlicing,1
;   mergeAllIntoSolid,0
;   onlyRetractWhenCrossingOutline,1
;   retractBetweenLayers,0
;   useRetractionMinTravel,0
;   retractionMinTravel,3
;   retractWhileWiping,0
;   onlyWipeOutlines,1
;   avoidCrossingOutline,0
;   maxMovementDetourFactor,3
;   toolChangeRetractionDistance,12
;   toolChangeExtraRestartDistance,-0.5
;   toolChangeRetractionSpeed,600
;   allowThinWallGapFill,1
;   thinWallAllowedOverlapPercentage,15
;   horizontalSizeCompensation,0
G90
M82
M106 S0
M104 S200 T0
M109 S200 T0
G92 X0 Y0 ; zero X and Y axes
G28 Z; GO TO HOME ON Z
G92 E0
G1 E-3.1000 F1800
G1 Z0.500 F1002
; layer 1, Z = 0.5
M105
T0
; tool H0.500 W0.504
; skirt
G1 X31.621 Y59.279 F3600
G1 E0.0000 F540
G92 E0
G1 X32.768 Y58.805 E0.1346 F1440
G1 X32.814 Y58.795 E0.1397
G1 X54.854 Y58.795 E2.5300
G1 X54.900 Y58.805 E2.5352
G1 X56.047 Y59.279 E2.6697
G1 X56.086 Y59.306 E2.6749
G1 X57.184 Y60.404 E2.8433
G1 X58.102 Y60.047 E2.9501
G1 X58.111 Y60.044 E2.9511
G1 X58.356 Y59.971 E2.9789
G1 X58.366 Y59.969 E2.9799
G1 X59.915 Y59.644 E3.1516
G1 X59.925 Y59.642 E3.1527
G1 X60.183 Y59.610 E3.1809
G1 X60.193 Y59.609 E3.1820
G1 X61.620 Y59.552 E3.3369
G1 X61.630 Y59.552 E3.3379
G1 X61.889 Y59.563 E3.3661
G1 X61.899 Y59.564 E3.3672
G1 X62.858 Y59.685 E3.4720
G1 X62.861 Y59.686 E3.4724
G1 X62.937 Y59.697 E3.4807
G1 X62.940 Y59.698 E3.4810
G1 X63.357 Y59.772 E3.5270
G1 X63.360 Y59.772 E3.5273
G1 X63.436 Y59.788 E3.5356
G1 X63.438 Y59.788 E3.5360
G1 X64.671 Y60.071 E3.6731
G1 X64.682 Y60.074 E3.6744
G1 X64.975 Y60.172 E3.7079
G1 X64.986 Y60.177 E3.7092
G1 X66.534 Y60.873 E3.8933
G1 X66.544 Y60.879 E3.8945
G1 X66.812 Y61.032 E3.9280
G1 X66.822 Y61.039 E3.9293
G1 X67.933 Y61.833 E4.0774
G1 X67.937 Y61.836 E4.0779
G1 X68.038 Y61.915 E4.0919
G1 X68.042 Y61.918 E4.0924
G1 X68.580 Y62.374 E4.1689
G1 X68.584 Y62.377 E4.1695
G1 X68.679 Y62.465 E4.1834
G1 X68.682 Y62.468 E4.1839
G1 X84.092 Y77.877 E6.5474
G1 X84.107 Y77.896 E6.5500
G1 X84.448 Y78.407 E6.6166
G1 X84.459 Y78.427 E6.6192
G1 X85.760 Y81.568 E6.9879
G1 X85.767 Y81.590 E6.9904
G1 X85.887 Y82.193 E7.0571
G1 X85.889 Y82.217 E7.0596
G1 X85.889 Y124.543 E11.6502
G1 X85.880 Y124.589 E11.6553
G1 X85.405 Y125.735 E11.7899
G1 X85.379 Y125.775 E11.7950
G1 X80.401 Y130.753 E12.5585
G1 X80.361 Y130.779 E12.5636
G1 X79.215 Y131.254 E12.6982
G1 X79.169 Y131.263 E12.7033
G1 X57.129 Y131.263 E15.0936
G1 X57.083 Y131.254 E15.0988
G1 X55.936 Y130.779 E15.2333
G1 X55.897 Y130.753 E15.2385
G1 X54.797 Y129.652 E15.4073
G1 X54.076 Y129.963 E15.4923
G1 X54.065 Y129.967 E15.4937
G1 X53.762 Y130.062 E15.5282
G1 X53.750 Y130.065 E15.5295
G1 X51.866 Y130.454 E15.7380
G1 X51.854 Y130.456 E15.7394
G1 X51.534 Y130.488 E15.7743
G1 X51.522 Y130.488 E15.7756
G1 X49.753 Y130.484 E15.9675
G1 X49.740 Y130.483 E15.9688
G1 X49.420 Y130.449 E16.0037
G1 X49.408 Y130.447 E16.0050
G1 X47.439 Y130.030 E16.2234
G1 X47.427 Y130.027 E16.2247
G1 X47.121 Y129.928 E16.2596
G1 X47.109 Y129.924 E16.2610
G1 X45.490 Y129.211 E16.4528
G1 X45.479 Y129.206 E16.4541
G1 X45.200 Y129.046 E16.4890
G1 X45.189 Y129.040 E16.4903
G1 X44.050 Y128.225 E16.6423
G1 X44.046 Y128.222 E16.6428
G1 X43.944 Y128.143 E16.6567
G1 X43.941 Y128.140 E16.6573
G1 X43.403 Y127.684 E16.7338
G1 X43.399 Y127.681 E16.7343
G1 X43.304 Y127.594 E16.7483
G1 X43.301 Y127.590 E16.7488
G1 X27.891 Y112.181 E19.1123
G1 X27.876 Y112.163 E19.1148
G1 X27.535 Y111.652 E19.1815
G1 X27.524 Y111.631 E19.1840
G1 X26.223 Y108.490 E19.5527
G1 X26.216 Y108.468 E19.5553
G1 X26.096 Y107.865 E19.6219
G1 X26.094 Y107.842 E19.6245
G1 X26.094 Y65.515 E24.2150
G1 X26.103 Y65.469 E24.2201
G1 X26.578 Y64.323 E24.3547
G1 X26.604 Y64.283 E24.3598
G1 X31.582 Y59.306 E25.1233
G1 X31.621 Y59.279 E25.1284
; tool H0.500 W0.840
; raft
G1 X33.600 Y62.435 F3600
G92 E0
G1 X54.068 Y62.435 E3.6997 F360
G1 X56.629 Y64.997 E4.3545
G1 X57.069 Y64.595 E4.4622
G1 X58.260 Y63.891 E4.7123
G1 X59.270 Y63.498 E4.9082
G1 X60.502 Y63.240 E5.1358
G1 X61.603 Y63.195 E5.3349
G1 X62.352 Y63.290 E5.4713
G1 X62.673 Y63.347 E5.5303
G1 X63.669 Y63.576 E5.7150
G1 X64.863 Y64.113 E5.9517
G1 X65.750 Y64.747 E6.1488
G1 X66.166 Y65.099 E6.2472
G1 X81.244 Y80.178 E10.1018
G1 X82.249 Y82.603 E10.5764
G1 X82.249 Y123.757 E18.0153
G1 X78.383 Y127.623 E19.0036
G1 X57.915 Y127.623 E22.7033
G1 X55.376 Y125.084 E23.3524
G1 X54.058 Y126.007 E23.6433
G1 X52.819 Y126.541 E23.8872
G1 X51.329 Y126.848 E24.1621
G1 X49.965 Y126.844 E24.4087
G1 X48.391 Y126.511 E24.6996
G1 X47.142 Y125.961 E24.9462
G1 X46.232 Y125.311 E25.1483
G1 X45.817 Y124.959 E25.2466
G1 X30.739 Y109.881 E29.1012
G1 X29.734 Y107.455 E29.5758
G1 X29.734 Y66.302 E37.0147
G1 X33.600 Y62.435 E38.0030
G1 X31.852 Y65.315 F3600
G92 E0
G1 X55.816 Y65.315 E4.3317 F360
G1 X56.604 Y66.103 E4.5332
G1 X57.468 Y65.315 E4.7445
G1 X65.169 Y65.315 E6.1366
G1 X65.258 Y65.379 E6.1565
G1 X65.623 Y65.688 E6.2429
G1 X67.536 Y67.601 E6.7318
G1 X30.534 Y67.601 E13.4202
G1 X30.534 Y69.886 E13.8334
G1 X69.821 Y69.886 E20.9350
G1 X72.107 Y72.172 E21.5193
G1 X30.534 Y72.172 E29.0340
G1 X30.534 Y74.458 E29.4472
G1 X74.393 Y74.458 E37.3751
G1 X76.679 Y76.743 E37.9594
G1 X30.534 Y76.743 E46.3005
G1 X30.534 Y79.029 E46.7137
G1 X78.964 Y79.029 E55.4679
G1 X80.566 Y80.631 E55.8774
G1 X80.849 Y81.315 E56.0112
G1 X30.534 Y81.315 E65.1062
G1 X30.534 Y83.601 E65.5194
G1 X81.449 Y83.601 E74.7227
G1 X81.449 Y85.886 E75.1359
G1 X30.534 Y85.886 E84.3393
G1 X30.534 Y88.172 E84.7525
G1 X81.449 Y88.172 E93.9559
G1 X81.449 Y90.458 E94.3690
G1 X30.534 Y90.458 E103.5724
G1 X30.534 Y92.743 E103.9856
G1 X81.449 Y92.743 E113.1890
G1 X81.449 Y95.029 E113.6021
G1 X30.534 Y95.029 E122.8055
G1 X30.534 Y97.315 E123.2187
G1 X81.449 Y97.315 E132.4221
G1 X81.449 Y99.601 E132.8352
G1 X30.534 Y99.601 E142.0386
G1 X30.534 Y101.886 E142.4518
G1 X81.449 Y101.886 E151.6552
G1 X81.449 Y104.172 E152.0683
G1 X30.534 Y104.172 E161.2717
G1 X30.534 Y106.458 E161.6849
G1 X81.449 Y106.458 E170.8883
G1 X81.449 Y108.743 E171.3015
G1 X31.134 Y108.743 E180.3964
G1 X31.417 Y109.427 E180.5303
G1 X33.019 Y111.029 E180.9397
G1 X81.449 Y111.029 E189.6940
G1 X81.449 Y113.315 E190.1071
G1 X35.304 Y113.315 E198.4482
G1 X37.590 Y115.601 E199.0325
G1 X81.449 Y115.601 E206.9604
G1 X81.449 Y117.886 E207.3736
G1 X39.876 Y117.886 E214.8883
G1 X42.162 Y120.172 E215.4726
G1 X81.449 Y120.172 E222.5742
G1 X81.449 Y122.458 E222.9874
G1 X44.447 Y122.458 E229.6758
G1 X46.360 Y124.370 E230.1647
G1 X46.724 Y124.679 E230.2511
G1 X46.814 Y124.743 E230.2710
G1 X54.467 Y124.743 E231.6544
G1 X55.467 Y124.044 E231.8750
G1 X56.167 Y124.743 E232.0539
G1 X80.131 Y124.743 E236.3856
; layer 2, Z = 1
M105
; tool H0.500 W0.800
; raft
G1 X82.249 Y123.757 F3600
G1 Z1.000 F1002
G92 E0
G1 X78.383 Y127.623 E0.9413 F900
G1 X57.915 Y127.623 E4.4648
G1 X55.376 Y125.084 E5.0830
G1 X54.058 Y126.007 E5.3600
G1 X52.819 Y126.541 E5.5923
G1 X51.329 Y126.848 E5.8541
G1 X49.965 Y126.844 E6.0890
G1 X48.391 Y126.511 E6.3660
G1 X47.142 Y125.961 E6.6009
G1 X46.232 Y125.311 E6.7934
G1 X45.817 Y124.959 E6.8870
G1 X30.739 Y109.881 E10.5580
G1 X29.734 Y107.455 E11.0101
G1 X29.734 Y66.302 E18.0947
G1 X33.600 Y62.435 E19.0359
G1 X54.068 Y62.435 E22.5595
G1 X56.629 Y64.997 E23.1831
G1 X57.069 Y64.595 E23.2857
G1 X58.260 Y63.891 E23.5238
G1 X59.270 Y63.498 E23.7104
G1 X60.502 Y63.240 E23.9272
G1 X61.603 Y63.195 E24.1168
G1 X62.352 Y63.290 E24.2467
G1 X62.673 Y63.347 E24.3029
G1 X63.669 Y63.576 E24.4788
G1 X64.863 Y64.113 E24.7042
G1 X65.750 Y64.747 E24.8920
G1 X66.166 Y65.099 E24.9857
G1 X81.244 Y80.178 E28.6567
G1 X82.249 Y82.603 E29.1087
G1 X82.249 Y123.757 E36.1934
G1 X80.131 Y124.743 F3600
G92 E0
G1 X56.167 Y124.743 E4.1254 F900
G1 X55.467 Y124.044 E4.2958
G1 X54.467 Y124.743 E4.5059
G1 X46.814 Y124.743 E5.8234
G1 X46.724 Y124.679 E5.8424
G1 X46.360 Y124.370 E5.9247
G1 X44.447 Y122.458 E6.3903
G1 X81.449 Y122.458 E12.7602
G1 X81.449 Y120.172 E13.1537
G1 X42.162 Y120.172 E19.9171
G1 X39.876 Y117.886 E20.4736
G1 X81.449 Y117.886 E27.6305
G1 X81.449 Y115.601 E28.0240
G1 X37.590 Y115.601 E35.5744
G1 X35.304 Y113.315 E36.1309
G1 X81.449 Y113.315 E44.0748
G1 X81.449 Y111.029 E44.4683
G1 X33.019 Y111.029 E52.8056
G1 X31.417 Y109.427 E53.1956
G1 X31.134 Y108.743 E53.3230
G1 X81.449 Y108.743 E61.9849
G1 X81.449 Y106.458 E62.3784
G1 X30.534 Y106.458 E71.1436
G1 X30.534 Y104.172 E71.5371
G1 X81.449 Y104.172 E80.3022
G1 X81.449 Y101.886 E80.6957
G1 X30.534 Y101.886 E89.4608
G1 X30.534 Y99.601 E89.8543
G1 X81.449 Y99.601 E98.6194
G1 X81.449 Y97.315 E99.0129
G1 X30.534 Y97.315 E107.7781
G1 X30.534 Y95.029 E108.1715
G1 X81.449 Y95.029 E116.9367
G1 X81.449 Y92.743 E117.3302
G1 X30.534 Y92.743 E126.0953
G1 X30.534 Y90.458 E126.4888
G1 X81.449 Y90.458 E135.2539
G1 X81.449 Y88.172 E135.6474
G1 X30.534 Y88.172 E144.4125
G1 X30.534 Y85.886 E144.8060
G1 X81.449 Y85.886 E153.5712
G1 X81.449 Y83.601 E153.9647
G1 X30.534 Y83.601 E162.7298
G1 X30.534 Y81.315 E163.1233
G1 X80.849 Y81.315 E171.7852
G1 X80.566 Y80.631 E171.9126
G1 X78.964 Y79.029 E172.3026
G1 X30.534 Y79.029 E180.6400
G1 X30.534 Y76.743 E181.0335
G1 X76.679 Y76.743 E188.9773
G1 X74.393 Y74.458 E189.5338
G1 X30.534 Y74.458 E197.0842
G1 X30.534 Y72.172 E197.4777
G1 X72.107 Y72.172 E204.6346
G1 X69.821 Y69.886 E205.1911
G1 X30.534 Y69.886 E211.9545
G1 X30.534 Y67.601 E212.3480
G1 X67.536 Y67.601 E218.7179
G1 X65.623 Y65.688 E219.1836
G1 X65.258 Y65.379 E219.2659
G1 X65.169 Y65.315 E219.2848
G1 X57.468 Y65.315 E220.6106
G1 X56.604 Y66.103 E220.8119
G1 X55.816 Y65.315 E221.0037
G1 X31.852 Y65.315 E225.1292
; layer 3, Z = 1.37647
M105
; tool H0.376 W0.640
; raft
G1 X30.392 Y109.251 F3600
G1 Z1.376 F1002
G92 E0
G1 X30.392 Y65.531 E4.5336 F1800
G1 X31.672 Y64.251 E4.7213
G1 X31.672 Y110.926 E9.5614
G1 X32.952 Y112.206 E9.7491
G1 X32.952 Y62.971 E14.8547
G1 X33.567 Y62.355 E14.9450
G1 X34.232 Y62.355 E15.0139
G1 X34.232 Y113.486 E20.3160
G1 X35.512 Y114.766 E20.5037
G1 X35.512 Y62.355 E25.9385
G1 X36.792 Y62.355 E26.0713
G1 X36.792 Y116.046 E31.6388
G1 X38.072 Y117.326 E31.8265
G1 X38.072 Y62.355 E37.5269
G1 X39.352 Y62.355 E37.6596
G1 X39.352 Y118.606 E43.4926
G1 X40.632 Y119.886 E43.6803
G1 X40.632 Y62.355 E49.6461
G1 X41.912 Y62.355 E49.7788
G1 X41.912 Y121.166 E55.8773
G1 X43.192 Y122.446 E56.0650
G1 X43.192 Y62.355 E62.2963
G1 X44.472 Y62.355 E62.4290
G1 X44.472 Y123.726 E68.7930
G1 X45.752 Y125.006 E68.9807
G1 X45.752 Y62.355 E75.4774
G1 X47.032 Y62.355 E75.6101
G1 X47.032 Y125.980 E82.2078
G1 X47.102 Y126.031 E82.2168
G1 X48.312 Y126.563 E82.3538
G1 X48.312 Y62.355 E89.0120
G1 X49.592 Y62.355 E89.1447
G1 X49.592 Y126.847 E95.8323
G1 X49.956 Y126.924 E95.8709
G1 X50.872 Y126.927 E95.9659
G1 X50.872 Y62.355 E102.6617
G1 X52.152 Y62.355 E102.7944
G1 X52.152 Y126.760 E109.4730
G1 X52.843 Y126.617 E109.5462
G1 X53.432 Y126.364 E109.6126
G1 X53.432 Y62.355 E116.2501
G1 X54.101 Y62.355 E116.3195
G1 X54.712 Y62.966 E116.4090
G1 X54.712 Y125.647 E122.9088
G1 X55.367 Y125.188 E122.9918
G1 X55.992 Y125.812 E123.0834
G1 X55.992 Y64.246 E129.4676
G1 X56.632 Y64.886 E129.5615
G1 X57.022 Y64.530 E129.6162
G1 X57.272 Y64.383 E129.6463
G1 X57.272 Y127.092 E136.1491
G1 X57.882 Y127.703 E136.2387
G1 X58.552 Y127.703 E136.3081
G1 X58.552 Y63.691 E142.9458
G1 X59.247 Y63.421 E143.0232
G1 X59.832 Y63.299 E143.0852
G1 X59.832 Y127.703 E149.7637
G1 X61.112 Y127.703 E149.8964
G1 X61.112 Y63.135 E156.5918
G1 X61.606 Y63.115 E156.6432
G1 X62.364 Y63.211 E156.7224
