; G-Code generated by Simplify3D(R) Version 4.1.0
; Jun 4, 2019 at 6:55:50 PM
; Settings Summary
;   processName,general PLA fine
;   applyToModels,BLTouch Volcano Spacer
;   profileName,BortBot (modified)
;   profileVersion,2018-03-11 18:52:45
;   baseProfile,Default
;   printMaterial,PLA
;   printQuality,Medium
;   printExtruders,
;   extruderName,Extruder 1
;   extruderToolheadNumber,0
;   extruderDiameter,0.4
;   extruderAutoWidth,1
;   extruderWidth,0.48
;   extrusionMultiplier,1
;   extruderUseRetract,1
;   extruderRetractionDistance,2
;   extruderExtraRestartDistance,0
;   extruderRetractionZLift,0
;   extruderRetractionSpeed,3000
;   extruderUseCoasting,0
;   extruderCoastingDistance,1.4
;   extruderUseWipe,0
;   extruderWipeDistance,2
;   primaryExtruder,0
;   layerHeight,0.28
;   topSolidLayers,6
;   bottomSolidLayers,4
;   perimeterOutlines,2
;   printPerimetersInsideOut,1
;   startPointOption,3
;   startPointOriginX,200
;   startPointOriginY,100
;   sequentialIslands,0
;   spiralVaseMode,0
;   firstLayerHeightPercentage,150
;   firstLayerWidthPercentage,115
;   firstLayerUnderspeed,0.65
;   useRaft,0
;   raftExtruder,0
;   raftTopLayers,2
;   raftBaseLayers,2
;   raftOffset,3
;   raftSeparationDistance,0.3
;   raftTopInfill,90
;   aboveRaftSpeedMultiplier,0.3
;   useSkirt,1
;   skirtExtruder,0
;   skirtLayers,1
;   skirtOutlines,2
;   skirtOffset,2
;   usePrimePillar,0
;   primePillarExtruder,999
;   primePillarWidth,12
;   primePillarLocation,7
;   primePillarSpeedMultiplier,1
;   useOozeShield,0
;   oozeShieldExtruder,999
;   oozeShieldOffset,2
;   oozeShieldOutlines,1
;   oozeShieldSidewallShape,1
;   oozeShieldSidewallAngle,30
;   oozeShieldSpeedMultiplier,1
;   infillExtruder,0
;   internalInfillPattern,Wiggle
;   externalInfillPattern,Rectilinear
;   infillPercentage,20
;   outlineOverlapPercentage,50
;   infillExtrusionWidthPercentage,100
;   minInfillLength,5
;   infillLayerInterval,1
;   internalInfillAngles,0
;   overlapInternalInfillAngles,0
;   externalInfillAngles,45,-45
;   generateSupport,1
;   supportExtruder,0
;   supportInfillPercentage,15
;   supportExtraInflation,0
;   supportBaseLayers,1
;   denseSupportExtruder,0
;   denseSupportLayers,2
;   denseSupportInfillPercentage,75
;   supportLayerInterval,1
;   supportHorizontalPartOffset,0.5
;   supportUpperSeparationLayers,1
;   supportLowerSeparationLayers,1
;   supportType,0
;   supportGridSpacing,1
;   maxOverhangAngle,46
;   supportAngles,45
;   temperatureName,Extruder 1,Heated Bed
;   temperatureNumber,0,1
;   temperatureSetpointCount,1,1
;   temperatureSetpointLayers,1,1
;   temperatureSetpointTemperatures,235,60
;   temperatureStabilizeAtStartup,1,1
;   temperatureHeatedBed,0,1
;   fanLayers,1,3
;   fanSpeeds,0,60
;   blipFanToFullPower,1
;   adjustSpeedForCooling,0
;   minSpeedLayerTime,15
;   minCoolingSpeedSlowdown,20
;   increaseFanForCooling,1
;   minFanLayerTime,45
;   maxCoolingFanSpeed,100
;   increaseFanForBridging,1
;   bridgingFanSpeed,100
;   use5D,1
;   relativeEdistances,0
;   allowEaxisZeroing,1
;   independentExtruderAxes,0
;   includeM10123,0
;   stickySupport,1
;   applyToolheadOffsets,0
;   gcodeXoffset,0
;   gcodeYoffset,0
;   gcodeZoffset,0
;   overrideMachineDefinition,0
;   machineTypeOverride,0
;   strokeXoverride,100
;   strokeYoverride,100
;   strokeZoverride,100
;   originOffsetXoverride,0
;   originOffsetYoverride,0
;   originOffsetZoverride,0
;   homeXdirOverride,-1
;   homeYdirOverride,-1
;   homeZdirOverride,-1
;   flipXoverride,1
;   flipYoverride,-1
;   flipZoverride,1
;   toolheadOffsets,0,0|0,0|0,0|0,0|0,0|0,0
;   overrideFirmwareConfiguration,0
;   firmwareTypeOverride,RepRap (Marlin/Repetier/Sprinter)
;   GPXconfigOverride,r2
;   baudRateOverride,115200
;   overridePrinterModels,0
;   printerModelsOverride
;   startingGcode,G11 S1; Unretract,;G28 XY ; HOME XY,;M561 ; Clear any bed transform,G1 X100 Y80 Z25; move to center of bed,G30 ;Do a single Z probe,G29 S1 ; Load bed compensating height map,;G1 Z10; ,M572 D0 S0.15
;   layerChangeGcode,
;   retractionGcode,
;   toolChangeGcode,
;   endingGcode,G10 S1; retract filament to relieve pressure,M104 S0 ; turn off extruder,M140 S0 ; turn off bed,G91 G1 Z10 ; Clearance from part,G90 G1 X0 Y0 ; Go to starting position (X0 Y0 Z300),M84 ; disable motor,M107; Turn off fan
;   exportFileFormat,gcode
;   celebration,0
;   celebrationSong,Random Song
;   postProcessing,
;   defaultSpeed,3600
;   outlineUnderspeed,0.8
;   solidInfillUnderspeed,1
;   supportUnderspeed,1
;   rapidXYspeed,3600
;   rapidZspeed,1800
;   minBridgingArea,10
;   bridgingExtraInflation,5
;   bridgingExtrusionMultiplier,0.9
;   bridgingSpeedMultiplier,0.6
;   useFixedBridgingAngle,0
;   fixedBridgingAngle,0
;   applyBridgingToPerimeters,1
;   filamentDiameters,1.75|1.75|1.75|1.75|1.75|1.75
;   filamentPricesPerKg,20|46|46|46|46|46
;   filamentDensities,1.33|1.25|1.25|1.25|1.25|1.25
;   useMinPrintHeight,0
;   minPrintHeight,23
;   useMaxPrintHeight,0
;   maxPrintHeight,60
;   useDiaphragm,0
;   diaphragmLayerInterval,20
;   robustSlicing,1
;   mergeAllIntoSolid,0
;   onlyRetractWhenCrossingOutline,1
;   retractBetweenLayers,0
;   useRetractionMinTravel,0
;   retractionMinTravel,3
;   retractWhileWiping,0
;   onlyWipeOutlines,1
;   avoidCrossingOutline,1
;   maxMovementDetourFactor,3
;   toolChangeRetractionDistance,12
;   toolChangeExtraRestartDistance,-0.5
;   toolChangeRetractionSpeed,600
;   externalThinWallType,1
;   internalThinWallType,1
;   thinWallAllowedOverlapPercentage,30
;   singleExtrusionMinLength,1
;   singleExtrusionMinPrintingWidthPercentage,50
;   singleExtrusionMaxPrintingWidthPercentage,200
;   singleExtrusionEndpointExtension,0.2
;   horizontalSizeCompensation,0
G90
M82
M106 S255
G4 P500
M106 S151
M140 S60
M190 S60
M104 S235 T0
M109 S235 T0
G11 S1; Unretract
;G28 XY ; HOME XY
;M561 ; Clear any bed transform
G1 X100 Y80 Z25; move to center of bed
G30 ;Do a single Z probe
G29 S1 ; Load bed compensating height map
;G1 Z10; 
M572 D0 S0.15
; process general PLA fine
; layer 1, Z = 0.420
T0
; feature skirt
; tool H0.420 W0.552
G1 Z0.420 F1800
G1 X117.828 Y97.171 F3600
G92 E0.0000
G1 X116.171 Y98.828 E0.2258 F2340
G1 X83.829 Y98.828 E3.3433
G1 X82.172 Y97.171 E3.5691
G1 X82.172 Y82.829 E4.9516
G1 X83.829 Y81.172 E5.1774
G1 X116.171 Y81.172 E8.2948
G1 X117.828 Y82.829 E8.5206
G1 X117.828 Y97.171 E9.9031
G92 E0.0000
G1 E-2.0000 F3000
G1 X117.276 Y96.943 F3600
G1 E0.0000 F3000
G92 E0.0000
G1 X115.943 Y98.276 E0.1817 F2340
G1 X84.057 Y98.276 E3.2551
G1 X82.724 Y96.943 E3.4369
G1 X82.724 Y83.057 E4.7753
G1 X84.057 Y81.724 E4.9570
G1 X115.943 Y81.724 E8.0304
G1 X117.276 Y83.057 E8.2121
G1 X117.276 Y96.943 E9.5505
G92 E0.0000
G1 E-2.0000 F3000
; feature inner perimeter
G1 X114.724 Y95.724 F3600
G1 X114.724 Y95.487
G1 X114.172 Y95.172
G1 E0.0000 F3000
G92 E0.0000
G1 X85.828 Y95.172 E2.7320 F2106
G1 X85.828 Y84.828 E3.7291
G1 X114.172 Y84.828 E6.4611
G1 X114.172 Y95.172 E7.4581
; feature outer perimeter
G1 X114.724 Y95.724 F3600
G92 E0.0000
G1 X85.276 Y95.724 E2.8384 F1872
G1 X85.276 Y84.276 E3.9419
G1 X114.724 Y84.276 E6.7803
G1 X114.724 Y95.724 E7.8838
; feature inner perimeter
G1 X111.328 Y90.136 F3600
G92 E0.0000
G1 X111.313 Y89.702 E0.0418 F2106
G1 X111.217 Y89.279 E0.0836
G1 X111.046 Y88.881 E0.1253
G1 X110.798 Y88.514 E0.1680
G1 X110.422 Y88.151 E0.2184
G1 X110.046 Y87.916 E0.2611
G1 X109.643 Y87.759 E0.3029
G1 X109.207 Y87.677 E0.3456
G1 X108.675 Y87.689 E0.3969
G1 X108.160 Y87.824 E0.4482
G1 X107.764 Y88.023 E0.4909
G1 X107.412 Y88.291 E0.5336
G1 X107.072 Y88.688 E0.5840
G1 X106.859 Y89.077 E0.6267
G1 X106.722 Y89.498 E0.6694
G1 X106.668 Y90.017 E0.7197
G1 X106.714 Y90.458 E0.7625
G1 X106.838 Y90.873 E0.8042
G1 X107.037 Y91.258 E0.8460
G1 X107.304 Y91.600 E0.8878
G1 X107.630 Y91.886 E0.9296
G1 X108.002 Y92.107 E0.9714
G1 X108.419 Y92.259 E1.0141
G1 X108.936 Y92.332 E1.0644
G1 X109.378 Y92.301 E1.1071
G1 X109.797 Y92.191 E1.1489
G1 X110.189 Y92.006 E1.1907
G1 X110.540 Y91.751 E1.2325
G1 X110.837 Y91.435 E1.2742
G1 X111.077 Y91.062 E1.3170
G1 X111.261 Y90.574 E1.3673
G1 X111.328 Y90.136 E1.4100
; feature outer perimeter
G1 X110.774 Y90.103 F3600
G92 E0.0000
G1 X110.763 Y89.773 E0.0318 F1872
G1 X110.690 Y89.451 E0.0637
G1 X110.559 Y89.147 E0.0955
G1 X110.373 Y88.871 E0.1277
G1 X110.081 Y88.589 E0.1669
G1 X109.798 Y88.412 E0.1990
G1 X109.490 Y88.292 E0.2309
G1 X109.162 Y88.230 E0.2630
G1 X108.753 Y88.239 E0.3025
G1 X108.356 Y88.343 E0.3420
G1 X108.058 Y88.493 E0.3741
G1 X107.793 Y88.695 E0.4063
G1 X107.528 Y89.003 E0.4454
G1 X107.368 Y89.296 E0.4776
G1 X107.265 Y89.613 E0.5098
G1 X107.223 Y90.017 E0.5489
G1 X107.257 Y90.349 E0.5811
G1 X107.352 Y90.666 E0.6129
G1 X107.504 Y90.959 E0.6448
G1 X107.707 Y91.220 E0.6766
G1 X107.955 Y91.438 E0.7085
G1 X108.240 Y91.606 E0.7403
G1 X108.553 Y91.720 E0.7725
G1 X108.955 Y91.777 E0.8116
G1 X109.288 Y91.754 E0.8438
G1 X109.608 Y91.670 E0.8756
G1 X109.906 Y91.529 E0.9075
G1 X110.174 Y91.334 E0.9393
G1 X110.400 Y91.094 E0.9712
G1 X110.581 Y90.813 E1.0033
G1 X110.724 Y90.433 E1.0425
G1 X110.774 Y90.103 E1.0746
; feature inner perimeter
G1 X110.724 Y90.433 F3600
G1 X110.581 Y90.813
G1 X110.400 Y91.094
G1 X110.174 Y91.334
G1 X109.906 Y91.529
G1 X109.608 Y91.670
G1 X109.288 Y91.754
G1 X108.955 Y91.777
G1 X108.553 Y91.720
G1 X108.240 Y91.606
G1 X107.955 Y91.438
G1 X107.707 Y91.220
G1 X107.504 Y90.959
G1 X107.352 Y90.666
G1 X107.257 Y90.349
G1 X107.230 Y90.090
G1 X93.332 Y90.037
G92 E0.0000
G1 X93.296 Y89.595 E0.0427 F2106
G1 X93.182 Y89.177 E0.0845
G1 X92.987 Y88.779 E0.1272
G1 X92.666 Y88.367 E0.1776
G1 X92.326 Y88.082 E0.2203
G1 X91.948 Y87.870 E0.2621
G1 X91.538 Y87.731 E0.3038
G1 X91.108 Y87.671 E0.3456
G1 X90.666 Y87.692 E0.3883
G1 X90.160 Y87.824 E0.4387
G1 X89.764 Y88.023 E0.4814
G1 X89.412 Y88.291 E0.5241
G1 X89.072 Y88.688 E0.5745
G1 X88.859 Y89.077 E0.6172
G1 X88.722 Y89.498 E0.6599
G1 X88.668 Y90.017 E0.7102
G1 X88.714 Y90.458 E0.7530
G1 X88.838 Y90.873 E0.7947
G1 X89.037 Y91.258 E0.8365
G1 X89.304 Y91.600 E0.8783
G1 X89.629 Y91.886 E0.9201
G1 X90.002 Y92.107 E0.9618
G1 X90.419 Y92.259 E1.0046
G1 X90.936 Y92.332 E1.0549
G1 X91.378 Y92.301 E1.0976
G1 X91.807 Y92.189 E1.1403
G1 X92.274 Y91.954 E1.1907
G1 X92.620 Y91.677 E1.2334
G1 X92.902 Y91.348 E1.2752
G1 X93.119 Y90.973 E1.3170
G1 X93.266 Y90.555 E1.3597
G1 X93.332 Y90.037 E1.4100
; feature outer perimeter
G1 X92.777 Y90.024 F3600
G92 E0.0000
G1 X92.750 Y89.691 E0.0322 F1872
G1 X92.663 Y89.373 E0.0640
G1 X92.517 Y89.073 E0.0962
G1 X92.266 Y88.753 E0.1353
G1 X92.011 Y88.538 E0.1675
G1 X91.723 Y88.376 E0.1993
G1 X91.410 Y88.271 E0.2312
G1 X91.083 Y88.225 E0.2630
G1 X90.749 Y88.240 E0.2952
G1 X90.356 Y88.343 E0.3343
G1 X90.058 Y88.493 E0.3665
G1 X89.793 Y88.695 E0.3986
G1 X89.528 Y89.003 E0.4378
G1 X89.368 Y89.296 E0.4700
G1 X89.265 Y89.613 E0.5021
G1 X89.223 Y90.017 E0.5413
G1 X89.257 Y90.349 E0.5734
G1 X89.352 Y90.666 E0.6053
G1 X89.504 Y90.959 E0.6371
G1 X89.707 Y91.220 E0.6690
G1 X89.955 Y91.438 E0.7008
G1 X90.240 Y91.606 E0.7327
G1 X90.553 Y91.720 E0.7648
G1 X90.955 Y91.777 E0.8040
G1 X91.288 Y91.754 E0.8361
G1 X91.611 Y91.669 E0.8683
G1 X91.974 Y91.487 E0.9075
G1 X92.235 Y91.278 E0.9396
G1 X92.450 Y91.028 E0.9715
G1 X92.615 Y90.742 E1.0033
G1 X92.725 Y90.427 E1.0355
G1 X92.777 Y90.024 E1.0746
; feature solid layer
G1 X93.593 Y89.838 F3600
G92 E0.0000
G1 X98.651 Y94.896 E0.6895 F2340
G1 X97.870 Y94.896 E0.7647
G1 X93.542 Y90.568 E1.3547
G1 X93.536 Y90.619 E1.3596
G1 X93.368 Y91.097 E1.4085
G1 X93.353 Y91.119 E1.4110
G1 X93.338 Y91.145 E1.4139
G1 X97.090 Y94.896 E1.9252
G1 X96.309 Y94.896 E2.0005
G1 X93.033 Y91.620 E2.4470
G1 X92.812 Y91.877 E2.4797
G1 X92.644 Y92.011 E2.5005
G1 X95.528 Y94.896 E2.8937
G1 X94.748 Y94.896 E2.9689
G1 X92.168 Y92.316 E3.3206
G1 X91.931 Y92.435 E3.3462
G1 X91.872 Y92.465 E3.3525
G1 X91.842 Y92.465 E3.3553
G1 X91.599 Y92.528 E3.3796
G1 X93.967 Y94.896 E3.7023
G1 X93.186 Y94.896 E3.7776
G1 X90.895 Y92.605 E4.0899
G1 X113.840 Y85.104 F3600
G92 E0.0000
G1 X113.896 Y85.160 E0.0077 F2340
G1 X113.896 Y85.941 E0.0829
G1 X113.059 Y85.104 E0.1971
G1 X112.278 Y85.104 E0.2723
G1 X113.896 Y86.722 E0.4928
G1 X113.896 Y87.502 E0.5681
G1 X111.498 Y85.104 E0.8950
G1 X110.717 Y85.104 E0.9703
G1 X113.896 Y88.283 E1.4036
G1 X113.896 Y89.064 E1.4788
G1 X109.936 Y85.104 E2.0186
G1 X109.156 Y85.104 E2.0939
G1 X113.896 Y89.844 E2.7400
G1 X113.896 Y90.625 E2.8153
G1 X108.375 Y85.104 E3.5679
G1 X107.594 Y85.104 E3.6431
G1 X110.151 Y87.661 E3.9917
G1 X110.023 Y87.611 E4.0049
G1 X109.719 Y87.492 E4.0364
G1 X109.233 Y87.401 E4.0841
G1 X109.204 Y87.401 E4.0869
G1 X109.113 Y87.403 E4.0957
G1 X106.814 Y85.104 E4.4091
G1 X106.033 Y85.104 E4.4843
G1 X108.404 Y87.475 E4.8075
G1 X108.063 Y87.564 E4.8415
G1 X108.037 Y87.577 E4.8443
G1 X107.830 Y87.681 E4.8666
G1 X105.252 Y85.104 E5.2179
G1 X104.472 Y85.104 E5.2932
G1 X107.355 Y87.988 E5.6862
G1 X107.222 Y88.090 E5.7024
G1 X106.970 Y88.383 E5.7397
G1 X103.691 Y85.104 E6.1866
G1 X102.910 Y85.104 E6.2619
G1 X106.664 Y88.858 E6.7735
G1 X106.605 Y88.967 E6.7855
G1 X106.454 Y89.429 E6.8323
G1 X102.130 Y85.104 E7.4218
G1 X101.349 Y85.104 E7.4971
G1 X106.405 Y90.160 E8.1862
G1 X106.442 Y90.513 E8.2204
G1 X106.478 Y90.634 E8.2327
G1 X106.581 Y90.977 E8.2672
G1 X106.730 Y91.266 E8.2985
G1 X100.569 Y85.104 E9.1384
G1 X99.788 Y85.104 E9.2136
G1 X109.580 Y94.896 E10.5484
G1 X108.799 Y94.896 E10.6237
G1 X99.007 Y85.104 E11.9584
G1 X98.227 Y85.104 E12.0337
G1 X108.019 Y94.896 E13.3685
G1 X107.238 Y94.896 E13.4437
G1 X97.446 Y85.104 E14.7785
G1 X96.665 Y85.104 E14.8537
G1 X106.457 Y94.896 E16.1885
G1 X105.677 Y94.896 E16.2638
G1 X95.885 Y85.104 E17.5985
G1 X95.104 Y85.104 E17.6738
G1 X104.896 Y94.896 E19.0086
G1 X104.115 Y94.896 E19.0838
G1 X94.323 Y85.104 E20.4186
G1 X93.543 Y85.104 E20.4938
G1 X103.335 Y94.896 E21.8286
G1 X102.554 Y94.896 E21.9038
G1 X92.762 Y85.104 E23.2386
G1 X91.981 Y85.104 E23.3139
G1 X101.773 Y94.896 E24.6486
G1 X100.993 Y94.896 E24.7239
G1 X91.201 Y85.104 E26.0587
G1 X90.420 Y85.104 E26.1339
G1 X100.212 Y94.896 E27.4687
G1 X99.431 Y94.896 E27.5439
G1 X93.275 Y88.740 E28.3831
G1 X93.223 Y88.632 E28.3947
G1 X92.865 Y88.174 E28.4506
G1 X92.484 Y87.854 E28.4986
G1 X92.269 Y87.734 E28.5224
G1 X89.639 Y85.104 E28.8808
G1 X88.859 Y85.104 E28.9561
G1 X91.153 Y87.399 E29.2688
G1 X91.128 Y87.395 E29.2713
G1 X91.102 Y87.395 E29.2738
G1 X90.874 Y87.406 E29.2958
G1 X90.624 Y87.417 E29.3199
G1 X90.440 Y87.465 E29.3383
G1 X88.078 Y85.104 E29.6602
G1 X87.298 Y85.104 E29.7354
G1 X89.860 Y87.666 E30.0847
G1 X89.641 Y87.776 E30.1083
G1 X89.601 Y87.796 E30.1126
G1 X89.582 Y87.814 E30.1151
G1 X89.381 Y87.968 E30.1395
G1 X86.517 Y85.104 E30.5299
G1 X86.104 Y85.104 E30.5697
G1 X86.104 Y85.472 E30.6052
G1 X88.991 Y88.358 E30.9987
G1 X88.843 Y88.530 E31.0205
G1 X88.680 Y88.828 E31.0533
G1 X86.104 Y86.252 E31.4044
G1 X86.104 Y87.033 E31.4797
G1 X88.466 Y89.395 E31.8016
G1 X88.451 Y89.440 E31.8062
G1 X88.390 Y90.017 E31.8621
G1 X88.400 Y90.109 E31.8711
G1 X86.104 Y87.814 E32.1840
G1 X86.104 Y88.594 E32.2592
G1 X88.682 Y91.172 E32.6106
G1 X88.804 Y91.408 E32.6362
G1 X89.102 Y91.790 E32.6830
G1 X89.377 Y92.032 E32.7182
G1 X89.467 Y92.111 E32.7297
G1 X89.844 Y92.334 E32.7720
G1 X92.406 Y94.896 E33.1212
G1 X91.625 Y94.896 E33.1964
G1 X86.104 Y89.375 E33.9490
G1 X86.104 Y90.156 E34.0243
G1 X90.844 Y94.896 E34.6705
G1 X90.064 Y94.896 E34.7457
G1 X86.104 Y90.936 E35.2855
G1 X86.104 Y91.717 E35.3607
G1 X89.283 Y94.896 E35.7941
G1 X88.502 Y94.896 E35.8693
G1 X86.104 Y92.498 E36.1962
G1 X86.104 Y93.278 E36.2715
G1 X87.722 Y94.896 E36.4920
G1 X86.941 Y94.896 E36.5673
G1 X86.104 Y94.059 E36.6814
G1 X86.104 Y94.839 E36.7566
G1 X86.161 Y94.896 E36.7643
G1 X107.243 Y89.820 F3600
G1 X107.265 Y89.613
G1 X107.368 Y89.296
G1 X107.528 Y89.003
G1 X107.793 Y88.695
G1 X108.058 Y88.493
G1 X108.356 Y88.343
G1 X108.753 Y88.239
G1 X109.162 Y88.230
G1 X109.490 Y88.292
G1 X109.798 Y88.412
G1 X110.081 Y88.589
G1 X110.373 Y88.871
G1 X110.486 Y89.039
G1 X111.327 Y88.837
G92 E0.0000
G1 X113.896 Y91.406 E0.3502 F2340
G1 X113.896 Y92.186 E0.4254
