; G-Code generated by Simplify3D(R) Version 4.1.2
; Oct 28, 2021 at 9:08:22 PM
; Settings Summary
;   processName,Process1
;   applyToModels,Candy chute_6
;   profileName,Volcano - Fine (modified)
;   profileVersion,2021-06-13 11:20:06
;   baseProfile,Default
;   printMaterial,PLA
;   printQuality,Medium
;   printExtruders,
;   extruderName,Volcano
;   extruderToolheadNumber,4
;   extruderDiameter,1
;   extruderAutoWidth,1
;   extruderWidth,1.2
;   extrusionMultiplier,1
;   extruderUseRetract,1
;   extruderRetractionDistance,1.5
;   extruderExtraRestartDistance,-0.1
;   extruderRetractionZLift,0
;   extruderRetractionSpeed,1800
;   extruderUseCoasting,1
;   extruderCoastingDistance,0.15
;   extruderUseWipe,1
;   extruderWipeDistance,0.3
;   primaryExtruder,0
;   layerHeight,0.5
;   topSolidLayers,2
;   bottomSolidLayers,2
;   perimeterOutlines,3
;   printPerimetersInsideOut,1
;   startPointOption,2
;   startPointOriginX,0
;   startPointOriginY,0
;   sequentialIslands,0
;   spiralVaseMode,0
;   firstLayerHeightPercentage,100
;   firstLayerWidthPercentage,115
;   firstLayerUnderspeed,0.5
;   useRaft,0
;   raftExtruder,0
;   raftTopLayers,3
;   raftBaseLayers,2
;   raftOffset,3
;   raftSeparationDistance,0.14
;   raftTopInfill,100
;   aboveRaftSpeedMultiplier,0.3
;   useSkirt,1
;   skirtExtruder,0
;   skirtLayers,1
;   skirtOutlines,3
;   skirtOffset,4
;   usePrimePillar,0
;   primePillarExtruder,999
;   primePillarWidth,12
;   primePillarLocation,7
;   primePillarSpeedMultiplier,1
;   useOozeShield,0
;   oozeShieldExtruder,999
;   oozeShieldOffset,2
;   oozeShieldOutlines,1
;   oozeShieldSidewallShape,1
;   oozeShieldSidewallAngle,30
;   oozeShieldSpeedMultiplier,1
;   infillExtruder,0
;   internalInfillPattern,Rectilinear
;   externalInfillPattern,Concentric
;   infillPercentage,10
;   outlineOverlapPercentage,20
;   infillExtrusionWidthPercentage,80
;   minInfillLength,3
;   infillLayerInterval,1
;   internalInfillAngles,45,-45
;   overlapInternalInfillAngles,0
;   externalInfillAngles,45,-45
;   generateSupport,0
;   supportExtruder,0
;   supportInfillPercentage,50
;   supportExtraInflation,0.6
;   supportBaseLayers,0
;   denseSupportExtruder,0
;   denseSupportLayers,1
;   denseSupportInfillPercentage,70
;   supportLayerInterval,1
;   supportHorizontalPartOffset,0.3
;   supportUpperSeparationLayers,1
;   supportLowerSeparationLayers,1
;   supportType,0
;   supportGridSpacing,4
;   maxOverhangAngle,45
;   supportAngles,0
;   temperatureName,Primary Extruder,Heated Bed
;   temperatureNumber,4,1
;   temperatureSetpointCount,2,1
;   temperatureSetpointLayers,1,2,1
;   temperatureSetpointTemperatures,215,215,65
;   temperatureStabilizeAtStartup,1,1
;   temperatureHeatedBed,0,1
;   fanLayers,1,2
;   fanSpeeds,0,60
;   blipFanToFullPower,0
;   adjustSpeedForCooling,1
;   minSpeedLayerTime,15
;   minCoolingSpeedSlowdown,20
;   increaseFanForCooling,0
;   minFanLayerTime,45
;   maxCoolingFanSpeed,100
;   increaseFanForBridging,0
;   bridgingFanSpeed,100
;   use5D,1
;   relativeEdistances,0
;   allowEaxisZeroing,1
;   independentExtruderAxes,0
;   includeM10123,0
;   stickySupport,1
;   applyToolheadOffsets,0
;   gcodeXoffset,0
;   gcodeYoffset,0
;   gcodeZoffset,0
;   overrideMachineDefinition,0
;   machineTypeOverride,0
;   strokeXoverride,200
;   strokeYoverride,200
;   strokeZoverride,200
;   originOffsetXoverride,0
;   originOffsetYoverride,0
;   originOffsetZoverride,0
;   homeXdirOverride,-1
;   homeYdirOverride,-1
;   homeZdirOverride,-1
;   flipXoverride,1
;   flipYoverride,-1
;   flipZoverride,1
;   toolheadOffsets,0,0|0,0|0,0|0,0|0,0|0,0
;   overrideFirmwareConfiguration,0
;   firmwareTypeOverride,RepRap (Marlin/Repetier/Sprinter)
;   GPXconfigOverride,r2
;   baudRateOverride,115200
;   overridePrinterModels,0
;   printerModelsOverride
;   startingGcode,G28 ;Home,M572 D0 S0.4 ;Enable Pressure Advance,G29 S1 ;Load Heightmap and enable bed mesh leveling,;Prime the extruder,G92 E0 ; Zero Extruder,G1 X-1 Y-1 Z3; Move just outside origin and up 3mm,G1 E40 F500; Extrude 35mm filament,G1 Z0.25 X50; Squash blob,G92 E0; Reset Extruder position
;   layerChangeGcode,
;   retractionGcode,
;   toolChangeGcode,
;   endingGcode,;Retract the filament,G92 E1,G1 E-20 F300,G28 X0 Y0,M104 S0,;Retraction,M140 S0,M84,M106 S0
;   exportFileFormat,gcode
;   celebration,0
;   celebrationSong,Random Song
;   postProcessing,
;   defaultSpeed,2160
;   outlineUnderspeed,0.5
;   solidInfillUnderspeed,0.8
;   supportUnderspeed,0.8
;   rapidXYspeed,4800
;   rapidZspeed,1002
;   minBridgingArea,50
;   bridgingExtraInflation,0
;   bridgingExtrusionMultiplier,1
;   bridgingSpeedMultiplier,1
;   useFixedBridgingAngle,0
;   fixedBridgingAngle,0
;   applyBridgingToPerimeters,0
;   filamentDiameters,1.75|1.75|1.75|1.75|1.75|1.75
;   filamentPricesPerKg,46|46|46|46|46|46
;   filamentDensities,1.25|1.25|1.25|1.25|1.25|1.25
;   useMinPrintHeight,0
;   minPrintHeight,0
;   useMaxPrintHeight,0
;   maxPrintHeight,0
;   useDiaphragm,0
;   diaphragmLayerInterval,20
;   robustSlicing,1
;   mergeAllIntoSolid,0
;   onlyRetractWhenCrossingOutline,1
;   retractBetweenLayers,0
;   useRetractionMinTravel,1
;   retractionMinTravel,3
;   retractWhileWiping,0
;   onlyWipeOutlines,1
;   avoidCrossingOutline,1
;   maxMovementDetourFactor,3
;   toolChangeRetractionDistance,12
;   toolChangeExtraRestartDistance,-0.5
;   toolChangeRetractionSpeed,600
;   externalThinWallType,0
;   internalThinWallType,2
;   thinWallAllowedOverlapPercentage,10
;   singleExtrusionMinLength,1
;   singleExtrusionMinPrintingWidthPercentage,50
;   singleExtrusionMaxPrintingWidthPercentage,200
;   singleExtrusionEndpointExtension,0.2
;   horizontalSizeCompensation,0
G90
M82
M106 S0
M140 S65
M190 S65
M104 S215 T4
M109 S215 T4
G28 ;Home
M572 D0 S0.4 ;Enable Pressure Advance
G29 S1 ;Load Heightmap and enable bed mesh leveling
;Prime the extruder
G92 E0 ; Zero Extruder
G1 X-1 Y-1 Z3; Move just outside origin and up 3mm
G1 E40 F500; Extrude 35mm filament
G1 Z0.25 X50; Squash blob
G92 E0; Reset Extruder position
; process Process1
; layer 1, Z = 0.500
T4
G92 E0.0000
G1 E-1.5000 F1800
; feature skirt
; tool H0.500 W1.380
G1 Z0.500 F1002
G1 X72.277 Y53.322 F4800
G1 E-0.1000 F1800
G92 E0.0000
G1 X73.883 Y51.229 E0.7566 F1080
G1 X74.092 Y50.980 E0.8499
G1 X75.874 Y49.035 E1.6065
G1 X76.104 Y48.805 E1.6998
G1 X78.033 Y47.038 E2.4505
G1 X78.280 Y46.830 E2.5429
G1 X80.386 Y45.211 E3.3052
G1 X80.655 Y45.023 E3.3992
G1 X82.881 Y43.605 E4.1562
G1 X83.162 Y43.443 E4.2495
G1 X85.502 Y42.225 E5.0061
G1 X85.796 Y42.087 E5.0994
G1 X88.233 Y41.078 E5.8560
G1 X88.539 Y40.967 E5.9493
G1 X91.054 Y40.174 E6.7059
G1 X91.368 Y40.090 E6.7992
G1 X93.943 Y39.519 E7.5559
G1 X94.264 Y39.462 E7.6491
G1 X96.879 Y39.118 E8.4058
G1 X97.202 Y39.090 E8.4990
G1 X99.837 Y38.975 E9.2557
G1 X100.163 Y38.975 E9.3489
G1 X102.798 Y39.090 E10.1055
G1 X103.121 Y39.118 E10.1988
G1 X105.737 Y39.462 E10.9555
G1 X106.057 Y39.519 E11.0487
G1 X108.632 Y40.090 E11.8054
G1 X108.946 Y40.174 E11.8987
G1 X111.461 Y40.967 E12.6553
G1 X111.767 Y41.078 E12.7485
G1 X114.204 Y42.087 E13.5052
G1 X114.498 Y42.225 E13.5984
G1 X116.838 Y43.443 E14.3551
G1 X117.119 Y43.605 E14.4484
G1 X119.344 Y45.022 E15.2050
G1 X119.610 Y45.209 E15.2983
G1 X121.703 Y46.815 E16.0549
G1 X121.952 Y47.024 E16.1482
G1 X123.896 Y48.805 E16.9048
G1 X124.126 Y49.035 E16.9981
G1 X125.908 Y50.980 E17.7547
G1 X126.117 Y51.229 E17.8480
G1 X127.723 Y53.322 E18.6046
G1 X127.909 Y53.588 E18.6979
G1 X129.327 Y55.812 E19.4545
G1 X129.489 Y56.094 E19.5478
G1 X130.707 Y58.434 E20.3044
G1 X130.844 Y58.728 E20.3977
G1 X131.854 Y61.165 E21.1543
G1 X131.965 Y61.471 E21.2476
G1 X132.758 Y63.986 E22.0043
G1 X132.842 Y64.300 E22.0975
G1 X133.413 Y66.875 E22.8541
G1 X133.470 Y67.195 E22.9474
G1 X133.814 Y69.810 E23.7041
G1 X133.842 Y70.134 E23.7973
G1 X133.957 Y72.769 E24.5539
G1 X133.957 Y73.094 E24.6472
G1 X133.842 Y75.729 E25.4039
G1 X133.814 Y76.053 E25.4971
G1 X133.470 Y78.668 E26.2537
G1 X133.413 Y78.989 E26.3470
G1 X132.842 Y81.564 E27.1037
G1 X132.758 Y81.878 E27.1969
G1 X131.965 Y84.393 E27.9536
G1 X131.854 Y84.699 E28.0468
G1 X130.844 Y87.135 E28.8035
G1 X130.707 Y87.430 E28.8967
G1 X129.499 Y89.751 E29.6474
G1 X129.338 Y90.031 E29.7399
G1 X127.912 Y92.272 E30.5021
G1 X127.724 Y92.541 E30.5961
G1 X126.117 Y94.635 E31.3532
G1 X125.908 Y94.884 E31.4464
G1 X124.126 Y96.828 E32.2031
G1 X123.896 Y97.058 E32.2963
G1 X121.952 Y98.840 E33.0530
G1 X121.703 Y99.049 E33.1463
G1 X119.610 Y100.655 E33.9029
G1 X119.344 Y100.841 E33.9961
G1 X117.119 Y102.258 E34.7528
G1 X116.838 Y102.421 E34.8461
G1 X114.498 Y103.639 E35.6027
G1 X114.204 Y103.776 E35.6960
G1 X111.767 Y104.786 E36.4526
G1 X111.461 Y104.897 E36.5459
G1 X108.946 Y105.690 E37.3025
G1 X108.632 Y105.774 E37.3958
G1 X106.057 Y106.345 E38.1524
G1 X105.737 Y106.401 E38.2457
G1 X103.122 Y106.746 E39.0023
G1 X102.798 Y106.774 E39.0956
G1 X100.163 Y106.889 E39.8522
G1 X99.837 Y106.889 E39.9455
G1 X97.202 Y106.774 E40.7021
G1 X96.878 Y106.746 E40.7954
G1 X94.263 Y106.401 E41.5520
G1 X93.943 Y106.345 E41.6453
G1 X91.368 Y105.774 E42.4019
G1 X91.054 Y105.690 E42.4952
G1 X88.539 Y104.897 E43.2518
G1 X88.233 Y104.786 E43.3451
G1 X85.796 Y103.776 E44.1018
G1 X85.502 Y103.639 E44.1950
G1 X83.162 Y102.421 E44.9516
G1 X82.881 Y102.258 E45.0449
G1 X80.656 Y100.841 E45.8015
G1 X80.390 Y100.655 E45.8948
G1 X78.297 Y99.049 E46.6515
G1 X78.048 Y98.840 E46.7447
G1 X76.104 Y97.058 E47.5014
G1 X75.874 Y96.828 E47.5946
G1 X74.106 Y94.899 E48.3453
G1 X73.898 Y94.652 E48.4378
G1 X72.279 Y92.545 E49.2000
G1 X72.091 Y92.277 E49.2941
G1 X70.673 Y90.051 E50.0511
G1 X70.511 Y89.770 E50.1444
G1 X69.293 Y87.430 E50.9010
G1 X69.156 Y87.135 E50.9943
G1 X68.146 Y84.699 E51.7509
G1 X68.035 Y84.393 E51.8441
G1 X67.242 Y81.878 E52.6008
G1 X67.158 Y81.563 E52.6941
G1 X66.587 Y78.988 E53.4507
G1 X66.530 Y78.668 E53.5440
G1 X66.186 Y76.053 E54.3006
G1 X66.158 Y75.729 E54.3939
G1 X66.043 Y73.094 E55.1505
G1 X66.043 Y72.769 E55.2438
G1 X66.158 Y70.134 E56.0004
G1 X66.186 Y69.810 E56.0937
G1 X66.530 Y67.195 E56.8503
G1 X66.587 Y66.875 E56.9436
G1 X67.158 Y64.300 E57.7002
G1 X67.242 Y63.986 E57.7934
G1 X68.035 Y61.470 E58.5501
G1 X68.146 Y61.165 E58.6434
G1 X69.156 Y58.728 E59.4000
G1 X69.293 Y58.434 E59.4933
G1 X70.511 Y56.094 E60.2499
G1 X70.673 Y55.812 E60.3432
G1 X72.091 Y53.588 E61.0999
G1 X72.277 Y53.322 E61.1931
G1 X73.390 Y54.138 F4800
G92 E0.0000
G1 X74.959 Y52.093 E0.7394 F1080
G1 X75.130 Y51.890 E0.8154
G1 X76.871 Y49.990 E1.5547
G1 X77.058 Y49.803 E1.6307
G1 X78.943 Y48.075 E2.3642
G1 X79.144 Y47.906 E2.4395
G1 X81.203 Y46.324 E3.1844
G1 X81.422 Y46.171 E3.2611
G1 X83.597 Y44.785 E4.0007
G1 X83.826 Y44.653 E4.0767
G1 X86.112 Y43.463 E4.8161
G1 X86.352 Y43.351 E4.8921
G1 X88.733 Y42.365 E5.6315
G1 X88.982 Y42.274 E5.7074
G1 X91.440 Y41.499 E6.4468
G1 X91.696 Y41.430 E6.5228
G1 X94.213 Y40.872 E7.2622
G1 X94.473 Y40.826 E7.3382
G1 X97.029 Y40.490 E8.0775
G1 X97.293 Y40.467 E8.1535
G1 X99.868 Y40.355 E8.8929
G1 X100.132 Y40.355 E8.9689
G1 X102.707 Y40.467 E9.7082
G1 X102.971 Y40.490 E9.7842
G1 X105.527 Y40.826 E10.5236
G1 X105.787 Y40.872 E10.5996
G1 X108.304 Y41.430 E11.3389
G1 X108.560 Y41.499 E11.4149
G1 X111.018 Y42.274 E12.1543
G1 X111.267 Y42.365 E12.2303
G1 X113.648 Y43.351 E12.9696
G1 X113.888 Y43.463 E13.0456
G1 X116.174 Y44.653 E13.7850
G1 X116.403 Y44.785 E13.8610
G1 X118.577 Y46.170 E14.6003
G1 X118.794 Y46.322 E14.6763
G1 X120.839 Y47.891 E15.4157
G1 X121.042 Y48.061 E15.4917
G1 X122.942 Y49.803 E16.2310
G1 X123.129 Y49.990 E16.3070
G1 X124.870 Y51.890 E17.0464
G1 X125.041 Y52.093 E17.1224
G1 X126.610 Y54.138 E17.8617
G1 X126.762 Y54.355 E17.9377
G1 X128.147 Y56.529 E18.6771
G1 X128.279 Y56.758 E18.7531
G1 X129.469 Y59.044 E19.4924
G1 X129.581 Y59.284 E19.5684
G1 X130.567 Y61.665 E20.3078
G1 X130.658 Y61.914 E20.3838
G1 X131.433 Y64.372 E21.1232
G1 X131.501 Y64.628 E21.1992
G1 X132.059 Y67.144 E21.9385
G1 X132.105 Y67.405 E22.0145
G1 X132.442 Y69.961 E22.7539
G1 X132.465 Y70.224 E22.8299
G1 X132.577 Y72.799 E23.5692
G1 X132.577 Y73.064 E23.6452
G1 X132.465 Y75.639 E24.3846
G1 X132.442 Y75.903 E24.4606
G1 X132.105 Y78.458 E25.1999
G1 X132.059 Y78.719 E25.2759
G1 X131.501 Y81.236 E26.0153
G1 X131.433 Y81.491 E26.0913
G1 X130.658 Y83.949 E26.8306
G1 X130.567 Y84.198 E26.9066
G1 X129.581 Y86.580 E27.6460
G1 X129.469 Y86.820 E27.7220
G1 X128.288 Y89.088 E28.4554
G1 X128.157 Y89.315 E28.5308
G1 X126.764 Y91.506 E29.2757
G1 X126.610 Y91.725 E29.3523
G1 X125.041 Y93.771 E30.0920
G1 X124.871 Y93.974 E30.1680
G1 X123.129 Y95.874 E30.9074
G1 X122.942 Y96.061 E30.9834
G1 X121.042 Y97.802 E31.7227
G1 X120.839 Y97.973 E31.7987
G1 X118.794 Y99.542 E32.5381
G1 X118.577 Y99.694 E32.6141
G1 X116.403 Y101.078 E33.3534
G1 X116.174 Y101.211 E33.4294
G1 X113.888 Y102.401 E34.1688
G1 X113.648 Y102.513 E34.2448
G1 X111.267 Y103.499 E34.9841
G1 X111.018 Y103.590 E35.0601
G1 X108.560 Y104.365 E35.7995
G1 X108.304 Y104.433 E35.8755
G1 X105.787 Y104.991 E36.6148
G1 X105.527 Y105.037 E36.6908
G1 X102.971 Y105.374 E37.4302
G1 X102.707 Y105.397 E37.5062
G1 X100.132 Y105.509 E38.2455
G1 X99.868 Y105.509 E38.3215
G1 X97.293 Y105.397 E39.0609
G1 X97.029 Y105.374 E39.1369
G1 X94.473 Y105.037 E39.8763
G1 X94.213 Y104.991 E39.9522
G1 X91.696 Y104.433 E40.6916
G1 X91.440 Y104.365 E40.7676
G1 X88.982 Y103.590 E41.5070
G1 X88.734 Y103.499 E41.5829
G1 X86.352 Y102.513 E42.3223
G1 X86.112 Y102.401 E42.3983
G1 X83.826 Y101.211 E43.1377
G1 X83.597 Y101.078 E43.2136
G1 X81.423 Y99.694 E43.9530
G1 X81.206 Y99.542 E44.0290
G1 X79.161 Y97.973 E44.7684
G1 X78.958 Y97.802 E44.8444
G1 X77.058 Y96.061 E45.5837
G1 X76.871 Y95.874 E45.6597
G1 X75.143 Y93.989 E46.3932
G1 X74.974 Y93.788 E46.4685
G1 X73.392 Y91.729 E47.2135
G1 X73.239 Y91.510 E47.2901
G1 X71.853 Y89.335 E48.0298
G1 X71.721 Y89.106 E48.1058
G1 X70.531 Y86.820 E48.8451
G1 X70.419 Y86.579 E48.9211
G1 X69.433 Y84.198 E49.6605
G1 X69.342 Y83.949 E49.7364
G1 X68.567 Y81.491 E50.4758
G1 X68.499 Y81.235 E50.5518
G1 X67.941 Y78.719 E51.2912
G1 X67.895 Y78.458 E51.3672
G1 X67.558 Y75.903 E52.1065
G1 X67.535 Y75.639 E52.1825
G1 X67.423 Y73.064 E52.9219
G1 X67.423 Y72.799 E52.9979
G1 X67.535 Y70.224 E53.7372
G1 X67.558 Y69.961 E53.8132
G1 X67.895 Y67.405 E54.5526
G1 X67.941 Y67.144 E54.6286
G1 X68.499 Y64.628 E55.3679
G1 X68.567 Y64.372 E55.4439
G1 X69.342 Y61.914 E56.1833
G1 X69.433 Y61.665 E56.2593
G1 X70.419 Y59.284 E56.9986
G1 X70.531 Y59.044 E57.0746
G1 X71.721 Y56.758 E57.8140
G1 X71.854 Y56.528 E57.8900
G1 X73.238 Y54.355 E58.6294
G1 X73.390 Y54.138 E58.7053
G1 X74.503 Y54.954 F4800
G92 E0.0000
G1 X76.036 Y52.957 E0.7221 F1080
G1 X76.167 Y52.800 E0.7808
G1 X77.868 Y50.944 E1.5029
G1 X78.013 Y50.800 E1.5616
G1 X79.853 Y49.113 E2.2779
G1 X80.009 Y48.982 E2.3361
G1 X82.020 Y47.437 E3.0637
G1 X82.189 Y47.318 E3.1229
G1 X84.313 Y45.965 E3.8453
G1 X84.490 Y45.863 E3.9040
G1 X86.723 Y44.701 E4.6261
G1 X86.908 Y44.614 E4.6848
G1 X89.234 Y43.651 E5.4069
G1 X89.426 Y43.581 E5.4656
G1 X91.827 Y42.824 E6.1877
G1 X92.024 Y42.771 E6.2464
G1 X94.482 Y42.226 E6.9685
G1 X94.683 Y42.191 E7.0272
G1 X97.179 Y41.862 E7.7493
G1 X97.383 Y41.844 E7.8080
G1 X99.898 Y41.735 E8.5301
G1 X100.102 Y41.735 E8.5888
G1 X102.617 Y41.844 E9.3109
G1 X102.821 Y41.862 E9.3696
G1 X105.317 Y42.191 E10.0917
G1 X105.518 Y42.226 E10.1504
G1 X107.976 Y42.771 E10.8725
G1 X108.173 Y42.824 E10.9312
G1 X110.574 Y43.581 E11.6533
G1 X110.766 Y43.651 E11.7120
G1 X113.092 Y44.614 E12.4341
G1 X113.277 Y44.701 E12.4928
G1 X115.510 Y45.863 E13.2149
G1 X115.687 Y45.965 E13.2736
G1 X117.810 Y47.318 E13.9957
G1 X117.978 Y47.435 E14.0544
G1 X119.975 Y48.968 E14.7765
G1 X120.132 Y49.099 E14.8352
G1 X121.987 Y50.800 E15.5573
G1 X122.132 Y50.944 E15.6160
G1 X123.833 Y52.800 E16.3381
G1 X123.964 Y52.957 E16.3968
G1 X125.497 Y54.954 E17.1189
G1 X125.614 Y55.122 E17.1776
G1 X126.966 Y57.245 E17.8997
G1 X127.069 Y57.422 E17.9584
G1 X128.231 Y59.655 E18.6805
G1 X128.318 Y59.840 E18.7392
G1 X129.281 Y62.166 E19.4613
G1 X129.351 Y62.358 E19.5200
G1 X130.108 Y64.759 E20.2421
G1 X130.161 Y64.956 E20.3008
