; G-Code generated by Simplify3D(R) Version 4.1.2
; Oct 29, 2021 at 10:46:09 AM
; Settings Summary
;   processName,Process1
;   applyToModels,Candy chute_6
;   profileName,Volcano - Fine (modified)
;   profileVersion,2021-06-13 11:20:06
;   baseProfile,Default
;   printMaterial,PLA
;   printQuality,Medium
;   printExtruders,
;   extruderName,Volcano
;   extruderToolheadNumber,4
;   extruderDiameter,1
;   extruderAutoWidth,1
;   extruderWidth,1.2
;   extrusionMultiplier,1
;   extruderUseRetract,1
;   extruderRetractionDistance,1.5
;   extruderExtraRestartDistance,-0.1
;   extruderRetractionZLift,0
;   extruderRetractionSpeed,1800
;   extruderUseCoasting,1
;   extruderCoastingDistance,0.15
;   extruderUseWipe,1
;   extruderWipeDistance,0.3
;   primaryExtruder,0
;   layerHeight,0.5
;   topSolidLayers,2
;   bottomSolidLayers,2
;   perimeterOutlines,3
;   printPerimetersInsideOut,1
;   startPointOption,1
;   startPointOriginX,0
;   startPointOriginY,0
;   sequentialIslands,0
;   spiralVaseMode,0
;   firstLayerHeightPercentage,100
;   firstLayerWidthPercentage,115
;   firstLayerUnderspeed,0.5
;   useRaft,0
;   raftExtruder,0
;   raftTopLayers,3
;   raftBaseLayers,2
;   raftOffset,3
;   raftSeparationDistance,0.14
;   raftTopInfill,100
;   aboveRaftSpeedMultiplier,0.3
;   useSkirt,1
;   skirtExtruder,0
;   skirtLayers,1
;   skirtOutlines,3
;   skirtOffset,4
;   usePrimePillar,0
;   primePillarExtruder,999
;   primePillarWidth,12
;   primePillarLocation,7
;   primePillarSpeedMultiplier,1
;   useOozeShield,0
;   oozeShieldExtruder,999
;   oozeShieldOffset,2
;   oozeShieldOutlines,1
;   oozeShieldSidewallShape,1
;   oozeShieldSidewallAngle,30
;   oozeShieldSpeedMultiplier,1
;   infillExtruder,0
;   internalInfillPattern,Rectilinear
;   externalInfillPattern,Concentric
;   infillPercentage,10
;   outlineOverlapPercentage,20
;   infillExtrusionWidthPercentage,80
;   minInfillLength,3
;   infillLayerInterval,1
;   internalInfillAngles,45,-45
;   overlapInternalInfillAngles,0
;   externalInfillAngles,45,-45
;   generateSupport,0
;   supportExtruder,0
;   supportInfillPercentage,50
;   supportExtraInflation,0.6
;   supportBaseLayers,0
;   denseSupportExtruder,0
;   denseSupportLayers,1
;   denseSupportInfillPercentage,70
;   supportLayerInterval,1
;   supportHorizontalPartOffset,0.3
;   supportUpperSeparationLayers,1
;   supportLowerSeparationLayers,1
;   supportType,0
;   supportGridSpacing,4
;   maxOverhangAngle,45
;   supportAngles,0
;   temperatureName,Primary Extruder,Heated Bed
;   temperatureNumber,4,1
;   temperatureSetpointCount,2,1
;   temperatureSetpointLayers,1,2,1
;   temperatureSetpointTemperatures,215,215,65
;   temperatureStabilizeAtStartup,1,1
;   temperatureHeatedBed,0,1
;   fanLayers,1,2
;   fanSpeeds,0,60
;   blipFanToFullPower,0
;   adjustSpeedForCooling,1
;   minSpeedLayerTime,15
;   minCoolingSpeedSlowdown,20
;   increaseFanForCooling,0
;   minFanLayerTime,45
;   maxCoolingFanSpeed,100
;   increaseFanForBridging,0
;   bridgingFanSpeed,100
;   use5D,1
;   relativeEdistances,0
;   allowEaxisZeroing,1
;   independentExtruderAxes,0
;   includeM10123,0
;   stickySupport,1
;   applyToolheadOffsets,0
;   gcodeXoffset,0
;   gcodeYoffset,0
;   gcodeZoffset,0
;   overrideMachineDefinition,0
;   machineTypeOverride,0
;   strokeXoverride,200
;   strokeYoverride,200
;   strokeZoverride,200
;   originOffsetXoverride,0
;   originOffsetYoverride,0
;   originOffsetZoverride,0
;   homeXdirOverride,-1
;   homeYdirOverride,-1
;   homeZdirOverride,-1
;   flipXoverride,1
;   flipYoverride,-1
;   flipZoverride,1
;   toolheadOffsets,0,0|0,0|0,0|0,0|0,0|0,0
;   overrideFirmwareConfiguration,0
;   firmwareTypeOverride,RepRap (Marlin/Repetier/Sprinter)
;   GPXconfigOverride,r2
;   baudRateOverride,115200
;   overridePrinterModels,0
;   printerModelsOverride
;   startingGcode,G28 ;Home,M572 D0 S0.4 ;Enable Pressure Advance,G29 S1 ;Load Heightmap and enable bed mesh leveling,;Prime the extruder,G92 E0 ; Zero Extruder,G1 X-1 Y-1 Z3; Move just outside origin and up 3mm,G1 E40 F500; Extrude 35mm filament,G1 Z0.25 X50; Squash blob,G92 E0; Reset Extruder position
;   layerChangeGcode,
;   retractionGcode,
;   toolChangeGcode,
;   endingGcode,;Retract the filament,G92 E1,G1 E-20 F300,G28 X0 Y0,M104 S0,;Retraction,M140 S0,M84,M106 S0
;   exportFileFormat,gcode
;   celebration,0
;   celebrationSong,Random Song
;   postProcessing,
;   defaultSpeed,2160
;   outlineUnderspeed,0.5
;   solidInfillUnderspeed,0.8
;   supportUnderspeed,0.8
;   rapidXYspeed,4800
;   rapidZspeed,1002
;   minBridgingArea,50
;   bridgingExtraInflation,0
;   bridgingExtrusionMultiplier,1
;   bridgingSpeedMultiplier,1
;   useFixedBridgingAngle,0
;   fixedBridgingAngle,0
;   applyBridgingToPerimeters,0
;   filamentDiameters,1.75|1.75|1.75|1.75|1.75|1.75
;   filamentPricesPerKg,46|46|46|46|46|46
;   filamentDensities,1.25|1.25|1.25|1.25|1.25|1.25
;   useMinPrintHeight,0
;   minPrintHeight,0
;   useMaxPrintHeight,0
;   maxPrintHeight,0
;   useDiaphragm,0
;   diaphragmLayerInterval,20
;   robustSlicing,1
;   mergeAllIntoSolid,0
;   onlyRetractWhenCrossingOutline,1
;   retractBetweenLayers,0
;   useRetractionMinTravel,1
;   retractionMinTravel,3
;   retractWhileWiping,0
;   onlyWipeOutlines,1
;   avoidCrossingOutline,1
;   maxMovementDetourFactor,3
;   toolChangeRetractionDistance,12
;   toolChangeExtraRestartDistance,-0.5
;   toolChangeRetractionSpeed,600
;   externalThinWallType,0
;   internalThinWallType,2
;   thinWallAllowedOverlapPercentage,10
;   singleExtrusionMinLength,1
;   singleExtrusionMinPrintingWidthPercentage,50
;   singleExtrusionMaxPrintingWidthPercentage,200
;   singleExtrusionEndpointExtension,0.2
;   horizontalSizeCompensation,0
G90
M82
M106 S0
M140 S65
M190 S65
M104 S215 T4
M109 S215 T4
G28 ;Home
M572 D0 S0.4 ;Enable Pressure Advance
G29 S1 ;Load Heightmap and enable bed mesh leveling
;Prime the extruder
G92 E0 ; Zero Extruder
G1 X-1 Y-1 Z3; Move just outside origin and up 3mm
G1 E40 F500; Extrude 35mm filament
G1 Z0.25 X50; Squash blob
G92 E0; Reset Extruder position
; process Process1
; layer 1, Z = 0.500
T4
G92 E0.0000
G1 E-1.5000 F1800
; feature skirt
; tool H0.500 W1.380
G1 Z0.500 F1002
G1 X102.809 Y63.530 F4800
G1 E-0.1000 F1800
G92 E0.0000
G1 X103.133 Y63.558 E0.0933 F1080
G1 X105.759 Y63.904 E0.8531
G1 X106.079 Y63.960 E0.9463
G1 X108.665 Y64.534 E1.7062
G1 X108.979 Y64.618 E1.7995
G1 X111.505 Y65.414 E2.5593
G1 X111.811 Y65.525 E2.6526
G1 X114.239 Y66.531 E3.4065
G1 X114.531 Y66.667 E3.4990
G1 X116.899 Y67.898 E4.2644
G1 X117.183 Y68.061 E4.3585
G1 X119.418 Y69.485 E5.1187
G1 X119.684 Y69.672 E5.2120
G1 X121.785 Y71.284 E5.9718
G1 X122.034 Y71.493 E6.0651
G1 X123.987 Y73.283 E6.8250
G1 X124.217 Y73.513 E6.9182
G1 X126.007 Y75.466 E7.6781
G1 X126.216 Y75.715 E7.7714
G1 X127.828 Y77.816 E8.5312
G1 X128.015 Y78.082 E8.6245
G1 X129.438 Y80.316 E9.3843
G1 X129.601 Y80.598 E9.4776
G1 X130.824 Y82.947 E10.2375
G1 X130.961 Y83.242 E10.3307
G1 X131.975 Y85.689 E11.0906
G1 X132.086 Y85.995 E11.1838
G1 X132.882 Y88.521 E11.9437
G1 X132.967 Y88.835 E12.0370
G1 X133.540 Y91.421 E12.7968
G1 X133.596 Y91.741 E12.8901
G1 X133.942 Y94.367 E13.6499
G1 X133.970 Y94.691 E13.7432
G1 X134.086 Y97.338 E14.5031
G1 X134.086 Y97.663 E14.5963
G1 X133.970 Y100.309 E15.3562
G1 X133.942 Y100.633 E15.4495
G1 X133.596 Y103.259 E16.2093
G1 X133.540 Y103.579 E16.3026
G1 X132.966 Y106.165 E17.0624
G1 X132.882 Y106.479 E17.1557
G1 X132.086 Y109.005 E17.9156
G1 X131.975 Y109.311 E18.0088
G1 X130.969 Y111.739 E18.7628
G1 X130.833 Y112.031 E18.8552
G1 X129.602 Y114.399 E19.6206
G1 X129.439 Y114.683 E19.7147
G1 X128.015 Y116.918 E20.4749
G1 X127.828 Y117.184 E20.5682
G1 X126.216 Y119.285 E21.3280
G1 X126.007 Y119.535 E21.4213
G1 X124.217 Y121.487 E22.1812
G1 X123.987 Y121.717 E22.2744
G1 X122.034 Y123.507 E23.0343
G1 X121.785 Y123.716 E23.1276
G1 X119.684 Y125.328 E23.8874
G1 X119.418 Y125.515 E23.9807
G1 X117.184 Y126.938 E24.7406
G1 X116.902 Y127.101 E24.8338
G1 X114.553 Y128.324 E25.5936
G1 X114.258 Y128.461 E25.6869
G1 X111.811 Y129.475 E26.4468
G1 X111.505 Y129.586 E26.5401
G1 X108.979 Y130.382 E27.2999
G1 X108.665 Y130.467 E27.3932
G1 X106.079 Y131.040 E28.1531
G1 X105.759 Y131.096 E28.2463
G1 X103.133 Y131.442 E29.0062
G1 X102.809 Y131.470 E29.0994
G1 X100.163 Y131.586 E29.8593
G1 X99.837 Y131.586 E29.9525
G1 X97.191 Y131.470 E30.7124
G1 X96.867 Y131.442 E30.8057
G1 X94.241 Y131.096 E31.5655
G1 X93.921 Y131.040 E31.6588
G1 X91.335 Y130.467 E32.4187
G1 X91.021 Y130.382 E32.5119
G1 X88.495 Y129.586 E33.2718
G1 X88.189 Y129.475 E33.3650
G1 X85.742 Y128.461 E34.1249
G1 X85.447 Y128.324 E34.2182
G1 X83.098 Y127.101 E34.9780
G1 X82.816 Y126.938 E35.0713
G1 X80.582 Y125.515 E35.8311
G1 X80.316 Y125.328 E35.9244
G1 X78.215 Y123.716 E36.6843
G1 X77.965 Y123.507 E36.7776
G1 X76.013 Y121.717 E37.5374
G1 X75.783 Y121.487 E37.6307
G1 X73.993 Y119.535 E38.3905
G1 X73.784 Y119.286 E38.4838
G1 X72.172 Y117.184 E39.2436
G1 X71.985 Y116.918 E39.3369
G1 X70.562 Y114.684 E40.0968
G1 X70.399 Y114.402 E40.1900
G1 X69.176 Y112.053 E40.9499
G1 X69.039 Y111.758 E41.0432
G1 X68.025 Y109.311 E41.8031
G1 X67.914 Y109.005 E41.8963
G1 X67.124 Y106.499 E42.6502
G1 X67.040 Y106.188 E42.7427
G1 X66.461 Y103.583 E43.5081
G1 X66.404 Y103.260 E43.6021
G1 X66.058 Y100.633 E44.3624
G1 X66.030 Y100.309 E44.4556
G1 X65.914 Y97.663 E45.2155
G1 X65.914 Y97.338 E45.3088
G1 X66.030 Y94.691 E46.0687
G1 X66.058 Y94.367 E46.1619
G1 X66.404 Y91.741 E46.9217
G1 X66.460 Y91.421 E47.0150
G1 X67.034 Y88.835 E47.7749
G1 X67.118 Y88.521 E47.8682
G1 X67.914 Y85.995 E48.6280
G1 X68.025 Y85.689 E48.7213
G1 X69.039 Y83.242 E49.4811
G1 X69.176 Y82.947 E49.5744
G1 X70.399 Y80.598 E50.3342
G1 X70.562 Y80.316 E50.4275
G1 X71.985 Y78.082 E51.1874
G1 X72.172 Y77.816 E51.2806
G1 X73.784 Y75.715 E52.0405
G1 X73.993 Y75.466 E52.1338
G1 X75.783 Y73.513 E52.8936
G1 X76.013 Y73.283 E52.9869
G1 X77.950 Y71.507 E53.7408
G1 X78.197 Y71.300 E53.8333
G1 X80.313 Y69.674 E54.5987
G1 X80.581 Y69.486 E54.6927
G1 X82.816 Y68.062 E55.4530
G1 X83.098 Y67.900 E55.5463
G1 X85.447 Y66.676 E56.3061
G1 X85.742 Y66.539 E56.3994
G1 X88.189 Y65.525 E57.1592
G1 X88.495 Y65.414 E57.2525
G1 X91.021 Y64.618 E58.0124
G1 X91.335 Y64.534 E58.1056
G1 X93.921 Y63.960 E58.8655
G1 X94.241 Y63.904 E58.9588
G1 X96.867 Y63.558 E59.7186
G1 X97.191 Y63.530 E59.8118
G1 X99.837 Y63.414 E60.5717
G1 X100.163 Y63.414 E60.6650
G1 X102.809 Y63.530 E61.4249
G92 E0.0000
G1 E-1.5000 F1800
G1 X102.261 Y71.654 F4800
G1 X100.686 Y71.585
G1 X100.517 Y72.226
G1 X100.000 Y72.203
G1 X97.795 Y72.299
G1 X95.590 Y72.591
G1 X93.453 Y73.065
G1 X91.348 Y73.729
G1 X89.309 Y74.573
G1 X87.351 Y75.592
G1 X85.490 Y76.778
G1 X83.739 Y78.121
G1 X82.112 Y79.612
G1 X80.621 Y81.239
G1 X79.278 Y82.990
G1 X78.092 Y84.852
G1 X77.073 Y86.809
G1 X76.228 Y88.848
G1 X75.565 Y90.953
G1 X75.087 Y93.107
G1 X74.799 Y95.295
G1 X74.703 Y97.500
G1 X74.799 Y99.705
G1 X75.087 Y101.893
G1 X75.570 Y104.064
G1 X76.228 Y106.152
G1 X77.073 Y108.191
G1 X78.092 Y110.149
G1 X79.278 Y112.010
G1 X80.621 Y113.761
G1 X82.112 Y115.388
G1 X83.739 Y116.879
G1 X85.490 Y118.222
G1 X87.351 Y119.408
G1 X87.993 Y119.742
G1 X87.824 Y120.384
G1 X89.035 Y121.014
G1 X86.058 Y127.086
G1 E-0.1000 F1800
G92 E0.0000
G1 X83.762 Y125.890 E0.7426 F1080
G1 X83.532 Y125.758 E0.8186
G1 X81.349 Y124.367 E1.5611
G1 X81.132 Y124.215 E1.6371
G1 X79.078 Y122.639 E2.3797
G1 X78.876 Y122.469 E2.4557
G1 X76.967 Y120.720 E3.1983
G1 X76.780 Y120.533 E3.2743
G1 X75.031 Y118.624 E4.0169
G1 X74.861 Y118.422 E4.0929
G1 X73.285 Y116.368 E4.8354
G1 X73.133 Y116.151 E4.9114
G1 X71.742 Y113.968 E5.6540
G1 X71.610 Y113.738 E5.7300
G1 X70.414 Y111.442 E6.4726
G1 X70.302 Y111.202 E6.5486
G1 X69.312 Y108.811 E7.2912
G1 X69.221 Y108.562 E7.3672
G1 X68.449 Y106.112 E8.1038
G1 X68.381 Y105.859 E8.1792
G1 X67.815 Y103.313 E8.9273
G1 X67.768 Y103.050 E9.0039
G1 X67.430 Y100.483 E9.7468
G1 X67.407 Y100.219 E9.8228
G1 X67.294 Y97.633 E10.5654
G1 X67.294 Y97.368 E10.6414
G1 X67.407 Y94.781 E11.3840
G1 X67.430 Y94.518 E11.4600
G1 X67.768 Y91.951 E12.2026
G1 X67.814 Y91.690 E12.2786
G1 X68.374 Y89.163 E13.0211
G1 X68.443 Y88.907 E13.0971
G1 X69.221 Y86.438 E13.8397
G1 X69.312 Y86.189 E13.9157
G1 X70.302 Y83.798 E14.6583
G1 X70.414 Y83.558 E14.7343
G1 X71.610 Y81.262 E15.4768
G1 X71.742 Y81.032 E15.5528
G1 X73.133 Y78.849 E16.2954
G1 X73.285 Y78.632 E16.3714
G1 X74.861 Y76.579 E17.1140
G1 X75.031 Y76.376 E17.1900
G1 X76.780 Y74.467 E17.9326
G1 X76.967 Y74.280 E18.0086
G1 X78.861 Y72.545 E18.7453
G1 X79.062 Y72.376 E18.8206
G1 X81.129 Y70.787 E19.5687
G1 X81.348 Y70.634 E19.6454
G1 X83.532 Y69.242 E20.3883
G1 X83.762 Y69.110 E20.4643
G1 X86.058 Y67.914 E21.2068
G1 X86.298 Y67.803 E21.2828
G1 X88.689 Y66.812 E22.0254
G1 X88.938 Y66.721 E22.1014
G1 X91.407 Y65.943 E22.8440
G1 X91.663 Y65.874 E22.9200
G1 X94.190 Y65.314 E23.6626
G1 X94.451 Y65.268 E23.7386
G1 X97.018 Y64.930 E24.4811
G1 X97.281 Y64.907 E24.5571
G1 X99.868 Y64.794 E25.2997
G1 X100.132 Y64.794 E25.3757
G1 X102.719 Y64.907 E26.1183
G1 X102.982 Y64.930 E26.1943
G1 X105.549 Y65.268 E26.9368
G1 X105.810 Y65.314 E27.0128
G1 X108.337 Y65.874 E27.7554
G1 X108.593 Y65.943 E27.8314
G1 X111.062 Y66.721 E28.5740
G1 X111.311 Y66.812 E28.6500
G1 X113.683 Y67.795 E29.3866
G1 X113.921 Y67.906 E29.4620
G1 X116.235 Y69.108 E30.2102
G1 X116.467 Y69.242 E30.2868
G1 X118.651 Y70.633 E31.0297
G1 X118.868 Y70.785 E31.1057
G1 X120.921 Y72.361 E31.8482
G1 X121.124 Y72.531 E31.9242
G1 X123.033 Y74.280 E32.6668
G1 X123.220 Y74.467 E32.7428
G1 X124.969 Y76.376 E33.4854
G1 X125.139 Y76.579 E33.5614
G1 X126.715 Y78.632 E34.3040
G1 X126.867 Y78.849 E34.3799
G1 X128.258 Y81.032 E35.1225
G1 X128.390 Y81.262 E35.1985
G1 X129.586 Y83.558 E35.9411
G1 X129.698 Y83.798 E36.0171
G1 X130.688 Y86.190 E36.7597
G1 X130.779 Y86.438 E36.8357
G1 X131.557 Y88.907 E37.5783
G1 X131.626 Y89.163 E37.6543
G1 X132.186 Y91.690 E38.3968
G1 X132.232 Y91.951 E38.4728
G1 X132.570 Y94.518 E39.2154
G1 X132.593 Y94.781 E39.2914
G1 X132.706 Y97.368 E40.0340
G1 X132.706 Y97.633 E40.1100
G1 X132.593 Y100.219 E40.8526
G1 X132.570 Y100.483 E40.9285
G1 X132.232 Y103.049 E41.6711
G1 X132.186 Y103.310 E41.7471
G1 X131.626 Y105.837 E42.4897
G1 X131.557 Y106.093 E42.5657
G1 X130.779 Y108.562 E43.3082
G1 X130.688 Y108.811 E43.3842
G1 X129.705 Y111.183 E44.1210
G1 X129.594 Y111.421 E44.1963
G1 X128.392 Y113.735 E44.9444
G1 X128.258 Y113.967 E45.0211
G1 X126.867 Y116.151 E45.7640
G1 X126.715 Y116.368 E45.8399
G1 X125.139 Y118.422 E46.5825
G1 X124.969 Y118.624 E46.6585
G1 X123.220 Y120.533 E47.4011
G1 X123.033 Y120.720 E47.4771
G1 X121.124 Y122.469 E48.2197
G1 X120.921 Y122.639 E48.2957
G1 X118.868 Y124.215 E49.0382
G1 X118.651 Y124.367 E49.1142
G1 X116.468 Y125.758 E49.8568
G1 X116.238 Y125.890 E49.9328
G1 X113.942 Y127.086 E50.6754
G1 X113.702 Y127.198 E50.7514
G1 X111.310 Y128.188 E51.4940
G1 X111.062 Y128.279 E51.5700
G1 X108.593 Y129.057 E52.3125
G1 X108.337 Y129.126 E52.3885
G1 X105.810 Y129.686 E53.1311
G1 X105.549 Y129.732 E53.2071
G1 X102.982 Y130.070 E53.9497
G1 X102.719 Y130.093 E54.0257
G1 X100.132 Y130.206 E54.7682
G1 X99.868 Y130.206 E54.8442
G1 X97.281 Y130.093 E55.5868
G1 X97.018 Y130.070 E55.6628
G1 X94.451 Y129.732 E56.4054
G1 X94.190 Y129.686 E56.4814
G1 X91.663 Y129.126 E57.2240
G1 X91.407 Y129.057 E57.2999
G1 X88.938 Y128.279 E58.0425
G1 X88.689 Y128.188 E58.1185
G1 X86.298 Y127.198 E58.8611
G1 X86.058 Y127.086 E58.9371
G92 E0.0000
G1 E-1.5000 F1800
G1 X89.035 Y121.014 F4800
G1 X91.126 Y121.881
G1 X91.538 Y122.011
G1 X92.085 Y121.504
G1 X93.453 Y121.935
G1 X95.607 Y122.413
G1 X97.795 Y122.701
G1 X100.000 Y122.797
G1 X102.205 Y122.701
G1 X104.410 Y122.409
G1 X106.547 Y121.935
G1 X108.652 Y121.272
G1 X110.691 Y120.427
G1 X112.649 Y119.408
G1 X114.510 Y118.222
G1 X116.261 Y116.879
G1 X117.888 Y115.388
G1 X119.379 Y113.761
G1 X120.722 Y112.010
G1 X121.908 Y110.149
G1 X122.927 Y108.191
G1 X123.772 Y106.152
G1 X124.435 Y104.047
G1 X124.915 Y101.875
G1 X125.201 Y99.705
G1 X125.297 Y97.500
G1 X125.201 Y95.295
G1 X124.913 Y93.107
G1 X124.544 Y91.445
G1 X125.095 Y90.936
