; G-Code generated by Simplify3D(R) Version 4.1.2
; Oct 28, 2021 at 10:32:48 AM
; Settings Summary
;   processName,Process1
;   applyToModels,Candy chute_5
;   profileName,Volcano - Fine (modified)
;   profileVersion,2021-06-13 11:20:06
;   baseProfile,Default
;   printMaterial,PLA
;   printQuality,Medium
;   printExtruders,
;   extruderName,Volcano
;   extruderToolheadNumber,4
;   extruderDiameter,1
;   extruderAutoWidth,1
;   extruderWidth,1.2
;   extrusionMultiplier,1
;   extruderUseRetract,1
;   extruderRetractionDistance,1.5
;   extruderExtraRestartDistance,-0.1
;   extruderRetractionZLift,0
;   extruderRetractionSpeed,1800
;   extruderUseCoasting,1
;   extruderCoastingDistance,0.15
;   extruderUseWipe,1
;   extruderWipeDistance,0.3
;   primaryExtruder,0
;   layerHeight,0.5
;   topSolidLayers,1
;   bottomSolidLayers,1
;   perimeterOutlines,2
;   printPerimetersInsideOut,1
;   startPointOption,2
;   startPointOriginX,0
;   startPointOriginY,0
;   sequentialIslands,0
;   spiralVaseMode,0
;   firstLayerHeightPercentage,100
;   firstLayerWidthPercentage,115
;   firstLayerUnderspeed,0.5
;   useRaft,0
;   raftExtruder,0
;   raftTopLayers,3
;   raftBaseLayers,2
;   raftOffset,3
;   raftSeparationDistance,0.14
;   raftTopInfill,100
;   aboveRaftSpeedMultiplier,0.3
;   useSkirt,1
;   skirtExtruder,0
;   skirtLayers,1
;   skirtOutlines,3
;   skirtOffset,4
;   usePrimePillar,0
;   primePillarExtruder,999
;   primePillarWidth,12
;   primePillarLocation,7
;   primePillarSpeedMultiplier,1
;   useOozeShield,0
;   oozeShieldExtruder,999
;   oozeShieldOffset,2
;   oozeShieldOutlines,1
;   oozeShieldSidewallShape,1
;   oozeShieldSidewallAngle,30
;   oozeShieldSpeedMultiplier,1
;   infillExtruder,0
;   internalInfillPattern,Rectilinear
;   externalInfillPattern,Concentric
;   infillPercentage,10
;   outlineOverlapPercentage,20
;   infillExtrusionWidthPercentage,80
;   minInfillLength,3
;   infillLayerInterval,1
;   internalInfillAngles,45,-45
;   overlapInternalInfillAngles,0
;   externalInfillAngles,45,-45
;   generateSupport,0
;   supportExtruder,0
;   supportInfillPercentage,50
;   supportExtraInflation,0.6
;   supportBaseLayers,0
;   denseSupportExtruder,0
;   denseSupportLayers,1
;   denseSupportInfillPercentage,70
;   supportLayerInterval,1
;   supportHorizontalPartOffset,0.3
;   supportUpperSeparationLayers,1
;   supportLowerSeparationLayers,1
;   supportType,0
;   supportGridSpacing,4
;   maxOverhangAngle,45
;   supportAngles,0
;   temperatureName,Primary Extruder,Heated Bed
;   temperatureNumber,4,1
;   temperatureSetpointCount,2,1
;   temperatureSetpointLayers,1,2,1
;   temperatureSetpointTemperatures,215,215,65
;   temperatureStabilizeAtStartup,1,1
;   temperatureHeatedBed,0,1
;   fanLayers,1,2
;   fanSpeeds,0,60
;   blipFanToFullPower,0
;   adjustSpeedForCooling,1
;   minSpeedLayerTime,15
;   minCoolingSpeedSlowdown,20
;   increaseFanForCooling,0
;   minFanLayerTime,45
;   maxCoolingFanSpeed,100
;   increaseFanForBridging,0
;   bridgingFanSpeed,100
;   use5D,1
;   relativeEdistances,0
;   allowEaxisZeroing,1
;   independentExtruderAxes,0
;   includeM10123,0
;   stickySupport,1
;   applyToolheadOffsets,0
;   gcodeXoffset,0
;   gcodeYoffset,0
;   gcodeZoffset,0
;   overrideMachineDefinition,0
;   machineTypeOverride,0
;   strokeXoverride,200
;   strokeYoverride,200
;   strokeZoverride,200
;   originOffsetXoverride,0
;   originOffsetYoverride,0
;   originOffsetZoverride,0
;   homeXdirOverride,-1
;   homeYdirOverride,-1
;   homeZdirOverride,-1
;   flipXoverride,1
;   flipYoverride,-1
;   flipZoverride,1
;   toolheadOffsets,0,0|0,0|0,0|0,0|0,0|0,0
;   overrideFirmwareConfiguration,0
;   firmwareTypeOverride,RepRap (Marlin/Repetier/Sprinter)
;   GPXconfigOverride,r2
;   baudRateOverride,115200
;   overridePrinterModels,0
;   printerModelsOverride
;   startingGcode,G28 ;Home,M572 D0 S0.4 ;Enable Pressure Advance,G29 S1 ;Load Heightmap and enable bed mesh leveling,;Prime the extruder,G92 E0 ; Zero Extruder,G1 X-1 Y-1 Z3; Move just outside origin and up 3mm,G1 E40 F500; Extrude 35mm filament,G1 Z0.25 X50; Squash blob,G92 E0; Reset Extruder position
;   layerChangeGcode,
;   retractionGcode,
;   toolChangeGcode,
;   endingGcode,;Retract the filament,G92 E1,G1 E-20 F300,G28 X0 Y0,M104 S0,;Retraction,M140 S0,M84,M106 S0
;   exportFileFormat,gcode
;   celebration,0
;   celebrationSong,Random Song
;   postProcessing,
;   defaultSpeed,2160
;   outlineUnderspeed,0.5
;   solidInfillUnderspeed,0.8
;   supportUnderspeed,0.8
;   rapidXYspeed,4800
;   rapidZspeed,1002
;   minBridgingArea,50
;   bridgingExtraInflation,0
;   bridgingExtrusionMultiplier,1
;   bridgingSpeedMultiplier,1
;   useFixedBridgingAngle,0
;   fixedBridgingAngle,0
;   applyBridgingToPerimeters,0
;   filamentDiameters,1.75|1.75|1.75|1.75|1.75|1.75
;   filamentPricesPerKg,46|46|46|46|46|46
;   filamentDensities,1.25|1.25|1.25|1.25|1.25|1.25
;   useMinPrintHeight,0
;   minPrintHeight,0
;   useMaxPrintHeight,0
;   maxPrintHeight,0
;   useDiaphragm,0
;   diaphragmLayerInterval,20
;   robustSlicing,1
;   mergeAllIntoSolid,0
;   onlyRetractWhenCrossingOutline,1
;   retractBetweenLayers,0
;   useRetractionMinTravel,1
;   retractionMinTravel,3
;   retractWhileWiping,0
;   onlyWipeOutlines,1
;   avoidCrossingOutline,1
;   maxMovementDetourFactor,3
;   toolChangeRetractionDistance,12
;   toolChangeExtraRestartDistance,-0.5
;   toolChangeRetractionSpeed,600
;   externalThinWallType,0
;   internalThinWallType,2
;   thinWallAllowedOverlapPercentage,10
;   singleExtrusionMinLength,1
;   singleExtrusionMinPrintingWidthPercentage,50
;   singleExtrusionMaxPrintingWidthPercentage,200
;   singleExtrusionEndpointExtension,0.2
;   horizontalSizeCompensation,0
G90
M82
M106 S0
M140 S65
M190 S65
M104 S215 T4
M109 S215 T4
G28 ;Home
M572 D0 S0.4 ;Enable Pressure Advance
G29 S1 ;Load Heightmap and enable bed mesh leveling
;Prime the extruder
G92 E0 ; Zero Extruder
G1 X-1 Y-1 Z3; Move just outside origin and up 3mm
G1 E40 F500; Extrude 35mm filament
G1 Z0.25 X50; Squash blob
G92 E0; Reset Extruder position
; process Process1
; layer 1, Z = 0.500
T4
G92 E0.0000
G1 E-1.5000 F1800
; feature skirt
; tool H0.500 W1.380
G1 Z0.500 F1002
G1 X70.594 Y52.630 F4800
G1 E-0.1000 F1800
G92 E0.0000
G1 X70.803 Y52.382 E0.0930 F1080
G1 X72.842 Y50.167 E0.9567
G1 X73.071 Y49.938 E1.0497
G1 X75.295 Y47.908 E1.9134
G1 X75.544 Y47.700 E2.0064
G1 X77.935 Y45.872 E2.8701
G1 X78.201 Y45.686 E2.9631
G1 X80.743 Y44.072 E3.8268
G1 X81.024 Y43.910 E3.9198
G1 X83.696 Y42.523 E4.7835
G1 X83.990 Y42.386 E4.8765
G1 X86.773 Y41.237 E5.7402
G1 X87.077 Y41.126 E5.8332
G1 X89.949 Y40.223 E6.6969
G1 X90.263 Y40.140 E6.7899
G1 X93.202 Y39.490 E7.6536
G1 X93.522 Y39.433 E7.7466
G1 X96.507 Y39.041 E8.6103
G1 X96.830 Y39.013 E8.7033
G1 X99.838 Y38.882 E9.5670
G1 X100.162 Y38.882 E9.6600
G1 X103.170 Y39.013 E10.5237
G1 X103.493 Y39.041 E10.6167
G1 X106.478 Y39.433 E11.4803
G1 X106.797 Y39.490 E11.5734
G1 X109.737 Y40.140 E12.4370
G1 X110.050 Y40.223 E12.5301
G1 X112.922 Y41.126 E13.3937
G1 X113.227 Y41.237 E13.4868
G1 X116.010 Y42.386 E14.3504
G1 X116.304 Y42.523 E14.4435
G1 X118.976 Y43.910 E15.3071
G1 X119.257 Y44.072 E15.4002
G1 X121.799 Y45.686 E16.2638
G1 X122.065 Y45.871 E16.3569
G1 X124.456 Y47.700 E17.2205
G1 X124.705 Y47.908 E17.3136
G1 X126.893 Y49.906 E18.1636
G1 X127.120 Y50.131 E18.2551
G1 X129.192 Y52.376 E19.1316
G1 X129.404 Y52.628 E19.2262
G1 X131.238 Y55.007 E20.0878
G1 X131.414 Y55.256 E20.1753
G1 X132.033 Y56.211 E20.5018
G1 X132.179 Y56.456 E20.5838
G1 X132.719 Y57.448 E20.9075
G1 X132.846 Y57.704 E20.9895
G1 X133.308 Y58.734 E21.3133
G1 X133.414 Y58.999 E21.3952
G1 X133.796 Y60.061 E21.7190
G1 X133.882 Y60.333 E21.8009
G1 X134.182 Y61.421 E22.1247
G1 X134.247 Y61.699 E22.2066
G1 X134.462 Y62.807 E22.5304
G1 X134.505 Y63.090 E22.6123
G1 X134.635 Y64.211 E22.9361
G1 X134.657 Y64.496 E23.0180
G1 X134.697 Y65.552 E23.3213
G1 X134.700 Y65.695 E23.3623
G1 X134.700 Y80.705 E27.6682
G1 X130.336 Y85.069 E29.4387
G1 X122.164 Y85.069 E31.7830
G1 X117.800 Y80.705 E33.5534
G1 X117.800 Y65.329 E37.9643
G1 X117.145 Y64.373 E38.2967
G1 X116.003 Y62.973 E38.8150
G1 X114.746 Y61.675 E39.3333
G1 X113.385 Y60.487 E39.8517
G1 X111.928 Y59.419 E40.3699
G1 X110.386 Y58.476 E40.8883
G1 X108.771 Y57.667 E41.4066
G1 X107.093 Y56.998 E41.9249
G1 X105.364 Y56.472 E42.4432
G1 X103.597 Y56.093 E42.9615
G1 X101.805 Y55.865 E43.4799
G1 X100.000 Y55.789 E43.9981
G1 X98.195 Y55.865 E44.5164
G1 X96.402 Y56.093 E45.0348
G1 X94.635 Y56.472 E45.5531
G1 X92.907 Y56.998 E46.0714
G1 X91.229 Y57.667 E46.5897
G1 X89.613 Y58.476 E47.1080
G1 X88.072 Y59.419 E47.6263
G1 X86.615 Y60.487 E48.1446
G1 X85.254 Y61.675 E48.6630
G1 X83.997 Y62.973 E49.1813
G1 X82.855 Y64.373 E49.6996
G1 X82.200 Y65.329 E50.0320
G1 X82.200 Y80.706 E54.4430
G1 X77.836 Y85.070 E56.2134
G1 X69.664 Y85.070 E58.5577
G1 X65.300 Y80.706 E60.3282
G1 X65.300 Y65.695 E64.6342
G1 X65.303 Y65.552 E64.6752
G1 X65.343 Y64.496 E64.9785
G1 X65.365 Y64.211 E65.0604
G1 X65.495 Y63.090 E65.3842
G1 X65.538 Y62.808 E65.4661
G1 X65.753 Y61.700 E65.7899
G1 X65.818 Y61.421 E65.8718
G1 X66.118 Y60.333 E66.1956
G1 X66.204 Y60.061 E66.2775
G1 X66.585 Y58.999 E66.6013
G1 X66.692 Y58.734 E66.6832
G1 X67.154 Y57.704 E67.0070
G1 X67.281 Y57.448 E67.0890
G1 X67.820 Y56.457 E67.4128
G1 X67.966 Y56.211 E67.4947
G1 X68.585 Y55.256 E67.8212
G1 X68.762 Y55.007 E67.9087
G1 X70.594 Y52.630 E68.7696
G1 X71.669 Y53.497 F4800
G92 E0.0000
G1 X71.839 Y53.295 E0.0758 F1080
G1 X73.837 Y51.124 E0.9222
G1 X74.024 Y50.937 E0.9980
G1 X76.203 Y48.948 E1.8445
G1 X76.406 Y48.778 E1.9203
G1 X78.750 Y46.986 E2.7667
G1 X78.966 Y46.835 E2.8425
G1 X81.457 Y45.253 E3.6889
G1 X81.686 Y45.121 E3.7647
G1 X84.305 Y43.762 E4.6112
G1 X84.545 Y43.651 E4.6870
G1 X87.272 Y42.524 E5.5334
G1 X87.520 Y42.434 E5.6092
G1 X90.335 Y41.549 E6.4556
G1 X90.590 Y41.481 E6.5314
G1 X93.471 Y40.844 E7.3778
G1 X93.731 Y40.798 E7.4536
G1 X96.657 Y40.414 E8.3001
G1 X96.920 Y40.391 E8.3759
G1 X99.868 Y40.262 E9.2223
G1 X100.132 Y40.262 E9.2981
G1 X103.080 Y40.391 E10.1446
G1 X103.343 Y40.414 E10.2203
G1 X106.268 Y40.798 E11.0668
G1 X106.529 Y40.844 E11.1426
G1 X109.410 Y41.481 E11.9890
G1 X109.665 Y41.549 E12.0648
G1 X112.480 Y42.434 E12.9112
G1 X112.728 Y42.524 E12.9870
G1 X115.455 Y43.650 E13.8335
G1 X115.695 Y43.762 E13.9093
G1 X118.314 Y45.121 E14.7557
G1 X118.543 Y45.253 E14.8315
G1 X121.033 Y46.835 E15.6779
G1 X121.250 Y46.986 E15.7537
G1 X123.594 Y48.778 E16.6002
G1 X123.797 Y48.948 E16.6760
G1 X125.941 Y50.905 E17.5089
G1 X126.125 Y51.089 E17.5835
G1 X128.157 Y53.290 E18.4427
G1 X128.330 Y53.495 E18.5198
G1 X130.128 Y55.827 E19.3646
G1 X130.272 Y56.030 E19.4358
G1 X130.861 Y56.939 E19.7467
G1 X130.980 Y57.139 E19.8134
G1 X131.494 Y58.084 E20.1220
G1 X131.597 Y58.293 E20.1888
G1 X132.038 Y59.274 E20.4974
G1 X132.125 Y59.490 E20.5642
G1 X132.488 Y60.502 E20.8728
G1 X132.559 Y60.724 E20.9395
G1 X132.844 Y61.762 E21.2481
G1 X132.897 Y61.988 E21.3149
G1 X133.102 Y63.044 E21.6235
G1 X133.137 Y63.274 E21.6902
G1 X133.261 Y64.343 E21.9988
G1 X133.279 Y64.575 E22.0656
G1 X133.318 Y65.592 E22.3575
G1 X133.320 Y65.708 E22.3909
G1 X133.320 Y80.133 E26.5291
G1 X129.764 Y83.689 E27.9716
G1 X122.736 Y83.689 E29.9879
G1 X119.180 Y80.133 E31.4304
G1 X119.180 Y64.902 E35.7998
G1 X118.251 Y63.545 E36.2714
G1 X117.035 Y62.055 E36.8232
G1 X115.698 Y60.673 E37.3749
G1 X114.248 Y59.409 E37.9267
G1 X112.697 Y58.271 E38.4784
G1 X111.056 Y57.268 E39.0301
G1 X109.337 Y56.407 E39.5819
G1 X107.550 Y55.694 E40.1336
G1 X105.710 Y55.134 E40.6854
G1 X103.829 Y54.732 E41.2371
G1 X101.921 Y54.489 E41.7889
G1 X100.000 Y54.408 E42.3406
G1 X98.078 Y54.489 E42.8923
G1 X96.170 Y54.732 E43.4441
G1 X94.290 Y55.134 E43.9959
G1 X92.450 Y55.694 E44.5475
G1 X90.663 Y56.407 E45.0993
G1 X88.944 Y57.268 E45.6510
G1 X87.302 Y58.271 E46.2028
G1 X85.752 Y59.409 E46.7545
G1 X84.302 Y60.674 E47.3063
G1 X82.965 Y62.056 E47.8580
G1 X81.749 Y63.545 E48.4097
G1 X80.820 Y64.902 E48.8814
G1 X80.820 Y80.134 E53.2509
G1 X77.264 Y83.690 E54.6934
G1 X70.236 Y83.690 E56.7097
G1 X66.680 Y80.134 E58.1522
G1 X66.680 Y65.708 E62.2905
G1 X66.682 Y65.592 E62.3239
G1 X66.721 Y64.575 E62.6158
G1 X66.739 Y64.343 E62.6826
G1 X66.862 Y63.275 E62.9911
G1 X66.898 Y63.045 E63.0579
G1 X67.103 Y61.988 E63.3665
G1 X67.156 Y61.762 E63.4333
G1 X67.441 Y60.725 E63.7419
G1 X67.511 Y60.503 E63.8086
G1 X67.875 Y59.490 E64.1172
G1 X67.962 Y59.275 E64.1840
G1 X68.402 Y58.293 E64.4926
G1 X68.506 Y58.084 E64.5594
G1 X69.020 Y57.139 E64.8680
G1 X69.139 Y56.940 E64.9347
G1 X69.728 Y56.030 E65.2456
G1 X69.872 Y55.827 E65.3169
G1 X71.669 Y53.497 E66.1610
G1 X72.743 Y54.363 F4800
G92 E0.0000
G1 X72.875 Y54.207 E0.0586 F1080
G1 X74.832 Y52.080 E0.8878
G1 X74.977 Y51.936 E0.9463
G1 X77.111 Y49.987 E1.7755
G1 X77.268 Y49.856 E1.8341
G1 X79.564 Y48.100 E2.6633
G1 X79.731 Y47.984 E2.7219
G1 X82.172 Y46.434 E3.5511
G1 X82.348 Y46.332 E3.6096
G1 X84.914 Y45.001 E4.4388
G1 X85.099 Y44.915 E4.4974
G1 X87.771 Y43.811 E5.3266
G1 X87.963 Y43.741 E5.3852
G1 X90.720 Y42.874 E6.2144
G1 X90.917 Y42.822 E6.2729
G1 X93.740 Y42.197 E7.1021
G1 X93.941 Y42.162 E7.1607
G1 X96.807 Y41.786 E7.9899
G1 X97.010 Y41.768 E8.0485
G1 X99.898 Y41.642 E8.8777
G1 X100.102 Y41.642 E8.9362
G1 X102.990 Y41.768 E9.7654
G1 X103.193 Y41.786 E9.8240
G1 X106.059 Y42.162 E10.6532
G1 X106.260 Y42.197 E10.7118
G1 X109.082 Y42.821 E11.5410
G1 X109.280 Y42.874 E11.5995
G1 X112.037 Y43.741 E12.4287
G1 X112.229 Y43.811 E12.4873
G1 X114.901 Y44.914 E13.3165
G1 X115.086 Y45.000 E13.3751
G1 X117.651 Y46.332 E14.2043
G1 X117.828 Y46.434 E14.2628
G1 X120.268 Y47.983 E15.0920
G1 X120.436 Y48.100 E15.1506
G1 X122.732 Y49.856 E15.9798
G1 X122.888 Y49.987 E16.0384
G1 X124.989 Y51.905 E16.8542
G1 X125.131 Y52.046 E16.9118
G1 X127.122 Y54.203 E17.7538
G1 X127.256 Y54.362 E17.8134
G1 X129.018 Y56.647 E18.6413
G1 X129.129 Y56.804 E18.6964
G1 X129.688 Y57.668 E18.9915
G1 X129.780 Y57.822 E19.0431
G1 X130.269 Y58.721 E19.3366
G1 X130.349 Y58.882 E19.3881
G1 X130.768 Y59.815 E19.6816
G1 X130.835 Y59.982 E19.7331
G1 X131.181 Y60.944 E20.0266
G1 X131.235 Y61.116 E20.0781
G1 X131.506 Y62.102 E20.3716
G1 X131.547 Y62.277 E20.4231
G1 X131.742 Y63.281 E20.7166
G1 X131.770 Y63.459 E20.7682
G1 X131.887 Y64.475 E21.0616
G1 X131.901 Y64.654 E21.1132
G1 X131.938 Y65.631 E21.3937
G1 X131.940 Y65.721 E21.4195
G1 X131.940 Y79.562 E25.3899
G1 X129.193 Y82.309 E26.5045
G1 X123.307 Y82.309 E28.1928
G1 X120.560 Y79.562 E29.3074
G1 X120.560 Y64.750 E33.5564
G1 X120.541 Y64.516 E33.6237
G1 X120.527 Y64.459 E33.6405
G1 X120.460 Y64.328 E33.6828
G1 X119.357 Y62.718 E34.2427
G1 X118.067 Y61.138 E34.8278
G1 X116.649 Y59.672 E35.4130
G1 X115.111 Y58.331 E35.9982
G1 X113.467 Y57.124 E36.5833
G1 X111.726 Y56.060 E37.1685
G1 X109.902 Y55.147 E37.7537
G1 X108.008 Y54.391 E38.3389
G1 X106.056 Y53.797 E38.9241
G1 X104.062 Y53.370 E39.5092
G1 X102.038 Y53.112 E40.0944
G1 X100.000 Y53.026 E40.6796
G1 X97.962 Y53.112 E41.2647
G1 X95.938 Y53.370 E41.8499
G1 X93.944 Y53.797 E42.4351
G1 X91.992 Y54.391 E43.0202
G1 X90.098 Y55.147 E43.6054
G1 X88.274 Y56.061 E44.1906
G1 X86.533 Y57.124 E44.7758
G1 X84.888 Y58.331 E45.3609
G1 X83.351 Y59.672 E45.9461
G1 X81.933 Y61.138 E46.5313
G1 X80.643 Y62.718 E47.1165
G1 X79.513 Y64.369 E47.6904
G1 X79.470 Y64.471 E47.7221
G1 X79.459 Y64.516 E47.7356
G1 X79.440 Y64.750 E47.8029
G1 X79.440 Y79.562 E52.0520
G1 X76.693 Y82.310 E53.1666
G1 X70.807 Y82.310 E54.8549
G1 X68.060 Y79.562 E55.9695
G1 X68.060 Y65.722 E59.9400
G1 X68.062 Y65.632 E59.9657
G1 X68.099 Y64.654 E60.2463
G1 X68.113 Y64.475 E60.2979
G1 X68.230 Y63.459 E60.5913
G1 X68.258 Y63.281 E60.6429
G1 X68.453 Y62.277 E60.9363
G1 X68.494 Y62.102 E60.9879
G1 X68.765 Y61.116 E61.2813
G1 X68.819 Y60.945 E61.3329
G1 X69.165 Y59.982 E61.6263
G1 X69.232 Y59.815 E61.6779
G1 X69.651 Y58.882 E61.9713
G1 X69.731 Y58.721 E62.0229
G1 X70.219 Y57.822 E62.3163
G1 X70.311 Y57.668 E62.3679
G1 X70.871 Y56.804 E62.6631
G1 X70.982 Y56.648 E62.7181
G1 X72.743 Y54.363 E63.5456
G92 E0.0000
G1 E-1.5000 F1800
; feature outer perimeter
G1 X76.923 Y57.753 F4800
