;FLAVOR:RepRap
;TIME:1502
;Filament used: 0m, 0m, 2.81844m, 0m, 0m, 0m
;Layer height: 0.3
;MINX:91.835
;MINY:89.783
;MINZ:0.4
;MAXX:108.165
;MAXY:105.228
;MAXZ:79.9
;ARCWELDERPROCESSED
; Postprocessed by [ArcWelder](https://github.com/FormerLurker/ArcWelderLib)
; Copyright(C) 2020 - Brad Hochgesang
; resolution=0.05mm
; path_tolerance=1%
; max_radius=1000000.00mm
; firmware_compensation=True
; mm_per_arc_segment=1.00mm
; min_arc_segments=12
; default_xyz_precision=3
; default_e_precision=5

;Generated with Cura_SteamEngine 4.7.1
T0
M190 S65
M104 S185
M109 S185
M82 ;absolute extrusion mode
G28 ;Home
M572 D0 S0.4 ;Enable Pressure Advance
G29 S1 ;Load Heightmap and enable bed mesh leveling
;Prime the extruder
G92 E0 ; Zero Extruder
G1 X-1 Y-1 Z3; Move just outside origin, and up 3mm
G1 E30 F500; Extrude 35mm filament
G1 Z0.25 X25; Squash blob
G92 E0; Reset Extruder position
;G1 Z15.0 F6000 ;Move the platform down 15mm
M83 ;relative extrusion mode
G1 F2700 E-2.5
;LAYER_COUNT:266
;LAYER:0
M107
;MESH:Mini HDMI breakout board mount.STL
G0 F3600 X107.063 Y104.126 Z0.4
;TYPE:WALL-OUTER
G1 F1800 E2.37527
G1 F1350 X92.937 Y104.126 E2.05552
G1 X92.937 Y93.5 E1.54622
G1 X107.063 Y93.5 E2.05552
G1 X107.063 Y104.126 E1.54622
G0 F3600 X106.189 Y103.252
;TYPE:WALL-INNER
G1 F1350 X93.811 Y103.252 E1.80116
G1 X93.811 Y94.374 E1.29187
G1 X106.189 Y94.374 E1.80116
G1 X106.189 Y103.252 E1.29187
G0 F3600 X105.314 Y102.377
G1 F1350 X94.686 Y102.377 E1.54651
G1 X94.686 Y95.249 E1.03722
G1 X105.314 Y95.249 E1.54651
G1 X105.314 Y102.377 E1.03722
G0 F3600 X104.45 Y101.513
;TYPE:SKIN
G1 F1350 X95.55 Y101.513 E1.29507
G1 X95.55 Y96.113 E0.78577
G1 X104.45 Y96.113 E1.29507
G1 X104.45 Y101.513 E0.78577
G0 F3600 X104.082 Y96.657
G1 F1350 X103.904 Y96.479 E0.03663
G0 F3600 X102.666 Y96.479
G1 F1350 X104.082 Y97.895 E0.29139
G0 F3600 X104.082 Y99.132
G1 F1350 X101.429 Y96.479 E0.54595
G0 F3600 X100.192 Y96.479
G1 F1350 X104.082 Y100.37 E0.80061
G0 F3600 X103.62 Y101.145
G1 F1350 X98.954 Y96.479 E0.9602
G0 F3600 X97.717 Y96.479
G1 F1350 X102.382 Y101.145 E0.9601
G0 F3600 X101.145 Y101.145
G1 F1350 X96.479 Y96.479 E0.9602
G0 F3600 X95.916 Y97.154
G1 F1350 X99.907 Y101.145 E0.82129
G0 F3600 X98.67 Y101.145
G1 F1350 X95.916 Y98.391 E0.56674
G0 F3600 X95.916 Y99.629
G1 F1350 X97.432 Y101.145 E0.31197
G0 F3600 X96.195 Y101.145
G1 F1350 X95.916 Y100.866 E0.05741
G1 F2700 E-2.5
;MESH:NONMESH
G0 F600 X95.916 Y100.866 Z0.7
G0 F3600 X95.916 Y105.228
G0 X107.15 Y105.228
G0 X107.15 Y104.213
;TIME_ELAPSED:13.887298
;LAYER:1
M106 S153
;TYPE:WALL-OUTER
;MESH:Mini HDMI breakout board mount.STL
G1 F1800 E2.37527
G1 F1350 X92.85 Y104.213 E1.2485
G1 X92.85 Y93.413 E0.94292
G1 X107.15 Y93.413 E1.2485
G1 X107.15 Y104.213 E0.94292
G0 F5400 X106.45 Y103.513
;TYPE:WALL-INNER
G1 F2025 X93.55 Y103.513 E1.12627
G1 X93.55 Y94.113 E0.82069
G1 X106.45 Y94.113 E1.12627
G1 X106.45 Y103.513 E0.82069
G0 F5400 X105.75 Y102.813
G1 F2025 X94.25 Y102.813 E1.00404
G1 X94.25 Y94.813 E0.69846
G1 X105.75 Y94.813 E1.00404
G1 X105.75 Y102.813 E0.69846
G0 F5400 X105.06 Y102.123
;TYPE:SKIN
G1 F1350 X94.94 Y102.123 E0.88356
G1 X94.94 Y95.503 E0.57798
G1 X105.06 Y95.503 E0.88356
G1 X105.06 Y102.123 E0.57798
G0 F5400 X104.779 Y101.13
G1 F1350 X104.066 Y101.843 E0.08804
G0 F5400 X103.076 Y101.843
G1 F1350 X104.779 Y100.14 E0.21027
G0 F5400 X104.779 Y99.15
G1 F1350 X102.086 Y101.843 E0.33251
G0 F5400 X101.096 Y101.843
G1 F1350 X104.779 Y98.16 E0.45475
G0 F5400 X104.779 Y97.17
G1 F1350 X100.106 Y101.843 E0.57698
G0 F5400 X99.116 Y101.843
G1 F1350 X104.779 Y96.18 E0.69922
G0 F5400 X104.187 Y95.782
G1 F1350 X98.126 Y101.843 E0.74836
G0 F5400 X97.136 Y101.843
G1 F1350 X103.197 Y95.782 E0.74836
G0 F5400 X102.207 Y95.782
G1 F1350 X96.146 Y101.843 E0.74836
G0 F5400 X95.219 Y101.78
G1 F1350 X101.217 Y95.782 E0.74058
G0 F5400 X100.227 Y95.782
G1 F1350 X95.219 Y100.79 E0.61835
G0 F5400 X95.219 Y99.8
G1 F1350 X99.237 Y95.782 E0.49611
G0 F5400 X98.247 Y95.782
G1 F1350 X95.219 Y98.81 E0.37387
G0 F5400 X95.219 Y97.82
G1 F1350 X97.257 Y95.782 E0.25164
G0 F5400 X96.267 Y95.782
G1 F1350 X95.219 Y96.83 E0.1294
G1 X95.096 Y96.953
G1 F2700 E-2.5
;MESH:NONMESH
G0 F600 X95.096 Y96.953 Z1
G0 F5400 X91.835 Y96.953
G0 X91.847 Y105.216
G0 X107.15 Y105.228
G0 X107.15 Y104.213
;TIME_ELAPSED:24.886681
;LAYER:2
M106 S224.1
;TYPE:WALL-OUTER
;MESH:Mini HDMI breakout board mount.STL
G1 F1800 E2.37527
G1 F1350 X92.85 Y104.213 E1.2485
G1 X92.85 Y93.413 E0.94292
G1 X107.15 Y93.413 E1.2485
G1 X107.15 Y104.213 E0.94292
G0 F7200 X106.45 Y103.513
;TYPE:WALL-INNER
G1 F2700 X93.55 Y103.513 E1.12627
G1 X93.55 Y94.113 E0.82069
G1 X106.45 Y94.113 E1.12627
G1 X106.45 Y103.513 E0.82069
G0 F7200 X105.75 Y102.813
G1 F2700 X94.25 Y102.813 E1.00404
G1 X94.25 Y94.813 E0.69846
G1 X105.75 Y94.813 E1.00404
G1 X105.75 Y102.813 E0.69846
G0 F7200 X105.06 Y102.123
;TYPE:SKIN
G1 F1350 X94.94 Y102.123 E0.88356
G1 X94.94 Y95.503 E0.57798
G1 X105.06 Y95.503 E0.88356
G1 X105.06 Y102.123 E0.57798
G0 F7200 X104.779 Y96.859
G1 F1350 X103.702 Y95.783 E0.13292
G0 F7200 X102.712 Y95.783
G1 F1350 X104.779 Y97.849 E0.25515
G0 F7200 X104.779 Y98.839
G1 F1350 X101.722 Y95.783 E0.37739
G0 F7200 X100.733 Y95.783
G1 F1350 X104.779 Y99.829 E0.49957
G0 F7200 X104.779 Y100.819
G1 F1350 X99.743 Y95.783 E0.6218
G0 F7200 X98.753 Y95.783
G1 F1350 X104.779 Y101.809 E0.74404
G0 F7200 X103.822 Y101.842
G1 F1350 X97.763 Y95.783 E0.74812
G0 F7200 X96.773 Y95.783
G1 F1350 X102.832 Y101.842 E0.74812
G0 F7200 X101.842 Y101.842
G1 F1350 X95.783 Y95.783 E0.74812
G0 F7200 X95.219 Y96.209
G1 F1350 X100.852 Y101.842 E0.69552
G0 F7200 X99.862 Y101.842
G1 F1350 X95.219 Y97.199 E0.57328
G0 F7200 X95.219 Y98.189
G1 F1350 X98.872 Y101.842 E0.45104
G0 F7200 X97.882 Y101.842
G1 F1350 X95.219 Y99.179 E0.32881
G0 F7200 X95.219 Y100.169
G1 F1350 X96.892 Y101.842 E0.20657
G0 F7200 X95.902 Y101.842
G1 F1350 X95.219 Y101.159 E0.08433
;MESH:NONMESH
G0 F600 X95.219 Y101.159 Z1.3
G0 F7200 X94.535 Y96.674
;TIME_ELAPSED:34.960939
;LAYER:3
M106 S255
;TYPE:FILL
;MESH:Mini HDMI breakout board mount.STL
G1 F2682.3 X94.71 Y96.677 E0.0131
G1 X95.161 Y96.543 E0.03521
G2 X96.063 Y95.624 I-1.863 J-2.731 E0.09683 F2682
G1 X96.514 Y95.154 E0.04875
G1 X96.595 Y95.098 E0.00737
G0 F7200 X96.595 Y95.263
G0 X99.259 Y95.263
G0 X99.259 Y95.098
G2 X100.122 Y96.069 I6.762 J-5.141 E0.09729 F2682
G2 X101.024 Y96.571 I1.670 J-1.939 E0.07765
G2 X101.926 Y96.677 I0.712 J-2.165 E0.06830
G1 X102.377 Y96.543 E0.03521
G2 X103.279 Y95.624 I-1.863 J-2.731 E0.09683
G1 X103.73 Y95.154 E0.04875
G1 X103.811 Y95.098 E0.00737
G0 F7200 X103.811 Y95.263
G0 X105.3 Y98.714
G0 X105.465 Y98.714
G2 X104.632 Y98.260 I-1.523 J1.803 E0.07136 F2682
G2 X103.730 Y98.154 I-0.712 J2.165 E0.06830
G1 X103.279 Y98.288 E0.03521
G2 X102.377 Y99.207 I1.863 J2.731 E0.09683
G3 X101.475 Y99.988 I-2.355 J-1.808 E0.08975
G3 X100.573 Y100.278 I-1.228 J-2.271 E0.07120
G1 X100.122 Y100.285 E0.03375
G1 X99.671 Y100.151 E0.03521
G3 X98.769 Y99.232 I1.863 J-2.731 E0.09683
G2 X97.867 Y98.451 I-2.355 J1.808 E0.08975
G2 X96.965 Y98.161 I-1.228 J2.271 E0.07120
G1 X96.514 Y98.154 E0.03375
G1 X96.063 Y98.288 E0.03521
G2 X95.161 Y99.207 I1.863 J2.731 E0.09683
G3 X94.535 Y99.798 I-1.763 J-1.240 E0.06467
G0 F7200 X94.7 Y99.798
G0 X96.362 Y102.363
G0 X96.362 Y102.528
G3 X97.416 Y101.868 I1.765 J1.648 E0.09406 F2682
G3 X98.318 Y101.762 I0.712 J2.165 E0.06830
G1 X98.769 Y101.896 E0.03521
G3 X99.435 Y102.528 I-1.254 J1.988 E0.06902
G0 F7200 X99.435 Y102.363
G0 X103.578 Y102.363
G0 X103.578 Y102.528
G3 X104.632 Y101.868 I1.765 J1.648 E0.09406 F2682
G3 X105.465 Y101.763 I0.675 J1.998 E0.06314
G1 F2700 E-2.5
G0 F7200 X105.3 Y101.763
G0 X107.15 Y104.213
;TYPE:WALL-OUTER
G1 F1800 E2.37527
G1 F1341.2 X92.85 Y104.213 E1.2485
G1 X92.85 Y93.413 E0.94292
G1 X107.15 Y93.413 E1.2485
G1 X107.15 Y104.213 E0.94292
G0 F7200 X106.45 Y103.513
;TYPE:WALL-INNER
G1 F2682.3 X93.55 Y103.513 E1.12627
G1 X93.55 Y94.113 E0.82069
G1 X106.45 Y94.113 E1.12627
G1 X106.45 Y103.513 E0.82069
G0 F7200 X105.75 Y102.813
G1 F2682.3 X94.25 Y102.813 E1.00404
G1 X94.25 Y94.813 E0.69846
G1 X105.75 Y94.813 E1.00404
G1 X105.75 Y102.813 E0.69846
G0 F7200 X104.7 Y101.969
;MESH:NONMESH
G0 F600 X104.7 Y101.969 Z1.6
G0 F7200 X94.7 Y96.481
G0 X94.535 Y96.481
;TIME_ELAPSED:40.510184
;LAYER:4
;TYPE:FILL
;MESH:Mini HDMI breakout board mount.STL
G1 F2700 X94.71 Y96.446 E0.01336
G2 X95.612 Y95.819 I-0.776 J-2.078 E0.08285 F2700
G3 X96.407 Y95.098 I3.121 J2.643 E0.08048
G0 F7200 X96.407 Y95.263
G0 X98.872 Y95.263
G0 X98.872 Y95.098
G3 X99.671 Y95.859 I-5.143 J6.199 E0.08262 F2700
G2 X100.573 Y96.420 I1.710 J-1.744 E0.07997
G2 X101.475 Y96.535 I0.738 J-2.191 E0.06838
G1 X101.926 Y96.446 E0.0344
G2 X102.828 Y95.819 I-0.776 J-2.078 E0.08285
G3 X103.623 Y95.098 I3.121 J2.643 E0.08048
G0 F7200 X103.623 Y95.263
G0 X105.3 Y98.591
G0 X105.465 Y98.591
G2 X104.632 Y98.308 I-1.062 J1.758 E0.06622 F2700
G2 X103.730 Y98.385 I-0.280 J2.042 E0.06816
G2 X102.828 Y99.012 I0.776 J2.078 E0.08285
G3 X101.475 Y100.028 I-2.813 J-2.338 E0.12791
G3 X100.573 Y100.143 I-0.738 J-2.191 E0.06838
G1 X100.122 Y100.054 E0.0344
G3 X99.220 Y99.427 I0.776 J-2.078 E0.08285
G2 X97.867 Y98.411 I-2.813 J2.338 E0.12791
G2 X96.965 Y98.296 I-0.738 J2.191 E0.06838
G1 X96.514 Y98.385 E0.0344
G2 X95.612 Y99.012 I0.776 J2.078 E0.08285
G3 X94.535 Y99.898 I-2.882 J-2.405 E0.10508
G0 F7200 X94.7 Y99.898
G0 X96.13 Y102.363
G0 X96.13 Y102.528
G3 X96.965 Y102.019 I1.561 J1.622 E0.07362 F2700
G3 X97.867 Y101.904 I0.738 J2.191 E0.06838
G1 X98.318 Y101.993 E0.0344
G3 X99.115 Y102.528 I-0.645 J1.822 E0.07241
G0 F7200 X99.115 Y102.363
G0 X103.346 Y102.363
G0 X103.346 Y102.528
G3 X104.181 Y102.019 I1.561 J1.622 E0.07362 F2700
G3 X105.083 Y101.904 I0.738 J2.191 E0.06838
G1 X105.465 Y101.979 E0.02913
G1 F2700 E-2.5
G0 F7200 X105.3 Y101.979
G0 X107.15 Y104.213
;TYPE:WALL-OUTER
G1 F1800 E2.37527
G1 F1350 X92.85 Y104.213 E1.2485
G1 X92.85 Y93.413 E0.94292
G1 X107.15 Y93.413 E1.2485
G1 X107.15 Y104.213 E0.94292
G0 F7200 X106.45 Y103.513
;TYPE:WALL-INNER
G1 F2700 X93.55 Y103.513 E1.12627
G1 X93.55 Y94.113 E0.82069
G1 X106.45 Y94.113 E1.12627
G1 X106.45 Y103.513 E0.82069
G0 F7200 X105.75 Y102.813
G1 F2700 X94.25 Y102.813 E1.00404
G1 X94.25 Y94.813 E0.69846
G1 X105.75 Y94.813 E1.00404
G1 X105.75 Y102.813 E0.69846
G0 F7200 X104.7 Y101.969
;MESH:NONMESH
G0 F600 X104.7 Y101.969 Z1.9
G0 F7200 X94.7 Y96.334
G0 X94.535 Y96.334
;TIME_ELAPSED:46.003629
;LAYER:5
;TYPE:FILL
;MESH:Mini HDMI breakout board mount.STL
G2 X95.612 Y95.515 I-1.318 J-2.851 E0.10214 F2698
G1 X96.063 Y95.107 E0.04551
G1 X96.079 Y95.098 E0.00137
G0 F7200 X96.079 Y95.263
G0 X98.518 Y95.263
G0 X98.518 Y95.098
G3 X99.220 Y95.708 I-1.557 J2.501 E0.06979 F2698
G2 X100.122 Y96.376 I2.000 J-1.757 E0.08447
G2 X101.024 Y96.516 I0.764 J-1.947 E0.06872
G2 X101.926 Y96.265 I-0.122 J-2.186 E0.07047
G2 X102.828 Y95.515 I-1.908 J-3.212 E0.08806
G1 X103.279 Y95.107 E0.04551
G1 X103.295 Y95.098 E0.00137
G0 F7200 X103.295 Y95.263
G0 X105.3 Y98.436
G0 X105.465 Y98.436
G2 X104.632 Y98.315 I-0.689 J1.812 E0.06337 F2698
G2 X103.730 Y98.566 I0.122 J2.186 E0.07047
G2 X102.828 Y99.316 I1.908 J3.212 E0.08806
G3 X101.926 Y99.984 I-2.000 J-1.757 E0.08447
G3 X101.024 Y100.124 I-0.764 J-1.947 E0.06872
G3 X100.122 Y99.873 I0.122 J-2.186 E0.07047
G3 X99.220 Y99.123 I1.908 J-3.212 E0.08806
G2 X98.318 Y98.455 I-2.000 J1.757 E0.08447
G2 X97.416 Y98.315 I-0.764 J1.947 E0.06872
G2 X96.514 Y98.566 I0.122 J2.186 E0.07047
G2 X95.612 Y99.316 I1.908 J3.212 E0.08806
G3 X94.710 Y99.984 I-2.000 J-1.757 E0.08447
G1 X94.535 Y100.031 E0.01356
G0 F7200 X94.7 Y100.031
G0 X95.836 Y102.363
G0 X95.836 Y102.528
G3 X96.514 Y102.063 I1.422 J1.346 E0.06185 F2698
G3 X97.416 Y101.923 I0.764 J1.947 E0.06872
G3 X98.318 Y102.174 I-0.122 J2.186 E0.07047
G3 X98.809 Y102.528 I-0.830 J1.669 E0.04535
G0 F7200 X98.809 Y102.363
G0 X103.052 Y102.363
G0 X103.052 Y102.528
G3 X103.730 Y102.063 I1.422 J1.346 E0.06185 F2698
G3 X104.632 Y101.923 I0.764 J1.947 E0.06872
G3 X105.465 Y102.147 I-0.094 J2.010 E0.06493
G1 F2700 E-2.5
G0 F7200 X105.3 Y102.147
G0 X107.15 Y104.213
;TYPE:WALL-OUTER
G1 F1800 E2.37527
G1 F1348.8 X92.85 Y104.213 E1.2485
G1 X92.85 Y93.413 E0.94292
G1 X107.15 Y93.413 E1.2485
G1 X107.15 Y104.213 E0.94292
G0 F7200 X106.45 Y103.513
;TYPE:WALL-INNER
G1 F2697.6 X93.55 Y103.513 E1.12627
G1 X93.55 Y94.113 E0.82069
G1 X106.45 Y94.113 E1.12627
G1 X106.45 Y103.513 E0.82069
G0 F7200 X105.75 Y102.813
G1 F2697.6 X94.25 Y102.813 E1.00404
G1 X94.25 Y94.813 E0.69846
G1 X105.75 Y94.813 E1.00404
G1 X105.75 Y102.813 E0.69846
G0 F7200 X104.7 Y101.969
;MESH:NONMESH
G0 F600 X104.7 Y101.969 Z2.2
G0 F7200 X94.7 Y96.223
G0 X94.535 Y96.223
;TIME_ELAPSED:51.494854
;LAYER:6
;TYPE:FILL
;MESH:Mini HDMI breakout board mount.STL
G2 X95.721 Y95.098 I-4.133 J-5.545 E0.12287 F2700
G0 F7200 X95.721 Y95.263
G0 X98.305 Y95.263
G0 X98.305 Y95.098
G1 F2700 X98.318 Y95.106 E0.00114
G3 X99.220 Y96.033 I-4.584 J5.363 E0.09689 F2700
G1 X99.671 Y96.414 E0.04418
G1 X100.122 Y96.586 E0.03612
G2 X101.024 Y96.548 I0.364 J-2.074 E0.06796
G2 X101.926 Y96.117 I-0.573 J-2.359 E0.07521
G2 X102.937 Y95.098 I-7.066 J-8.021 E0.10756
G0 F7200 X102.937 Y95.263
G0 X105.3 Y98.24
G0 X105.465 Y98.24
G2 X104.632 Y98.283 I-0.318 J1.929 E0.06278 F2700
G2 X103.730 Y98.714 I0.573 J2.359 E0.07521
G2 X102.828 Y99.641 I4.584 J5.363 E0.09689
G1 X102.377 Y100.022 E0.04418
G1 X101.926 Y100.194 E0.03612
G3 X101.024 Y100.156 I-0.364 J-2.074 E0.06796
G3 X100.122 Y99.725 I0.573 J-2.359 E0.07521
G3 X99.220 Y98.798 I4.584 J-5.363 E0.09689
G1 X98.769 Y98.417 E0.04418
G1 X98.318 Y98.245 E0.03612
G2 X97.416 Y98.283 I-0.364 J2.074 E0.06796
G2 X96.514 Y98.714 I0.573 J2.359 E0.07521
G2 X95.612 Y99.641 I4.584 J5.363 E0.09689
G1 X95.161 Y100.022 E0.04418
G1 X94.71 Y100.194 E0.03612
G1 X94.535 Y100.206 E0.01313
G0 F7200 X94.7 Y100.206
G0 X95.503 Y102.363
G0 X95.503 Y102.528
G3 X96.063 Y102.025 I2.063 J1.733 E0.05642 F2700
G1 X96.514 Y101.853 E0.03612
G3 X97.416 Y101.891 I0.364 J2.074 E0.06796
G3 X98.318 Y102.322 I-0.573 J2.359 E0.07521
G1 X98.539 Y102.528 E0.02261
G0 F7200 X98.539 Y102.363
G0 X102.719 Y102.363
G0 X102.719 Y102.528
G3 X103.279 Y102.025 I2.063 J1.733 E0.05642 F2700
G1 X103.73 Y101.853 E0.03612
G3 X104.632 Y101.891 I0.364 J2.074 E0.06796
G3 X105.465 Y102.280 I-0.510 J2.179 E0.06917
G1 F2700 E-2.5
G0 F7200 X105.3 Y102.28
G0 X107.15 Y104.213
;TYPE:WALL-OUTER
G1 F1800 E2.37527
G1 F1350 X92.85 Y104.213 E1.2485
G1 X92.85 Y93.413 E0.94292
G1 X107.15 Y93.413 E1.2485
G1 X107.15 Y104.213 E0.94292
G0 F7200 X106.45 Y103.513
;TYPE:WALL-INNER
G1 F2700 X93.55 Y103.513 E1.12627
G1 X93.55 Y94.113 E0.82069
G1 X106.45 Y94.113 E1.12627
G1 X106.45 Y103.513 E0.82069
G0 F7200 X105.75 Y102.813
G1 F2700 X94.25 Y102.813 E1.00404
G1 X94.25 Y94.813 E0.69846
G1 X105.75 Y94.813 E1.00404
G1 X105.75 Y102.813 E0.69846
G0 F7200 X104.7 Y101.969
;MESH:NONMESH
G0 F600 X104.7 Y101.969 Z2.5
G0 F7200 X95.365 Y95.263
G0 X95.365 Y95.098
;TIME_ELAPSED:56.997627
;LAYER:7
;TYPE:FILL
;MESH:Mini HDMI breakout board mount.STL
G3 X94.535 Y96.140 I-5.122 J-3.228 E0.10011 F2700
G0 F7200 X94.7 Y96.14
G0 X98.161 Y95.263
G0 X98.161 Y95.098
G1 F2700 X98.318 Y95.233 E0.0155
G3 X99.220 Y96.491 I-9.964 J8.097 E0.11590 F2700
G1 X99.671 Y96.823 E0.04191
G1 X100.122 Y96.865 E0.0339
G2 X101.475 Y96.377 I-0.309 J-2.976 E0.10860
G2 X102.377 Y95.401 I-1.860 J-2.623 E0.09999
G1 X102.581 Y95.098 E0.02734
G0 F7200 X102.581 Y95.263
G0 X105.3 Y97.978
G0 X105.465 Y97.978
G2 X104.181 Y98.454 I0.349 J2.912 E0.10336 F2700
G2 X103.279 Y99.430 I1.860 J2.623 E0.09999
G1 X102.828 Y100.099 E0.06038
G1 X102.377 Y100.431 E0.04191
G1 X101.926 Y100.473 E0.0339
G3 X100.573 Y99.985 I0.309 J-2.976 E0.10860
G3 X99.671 Y99.009 I1.860 J-2.623 E0.09999
G1 X99.22 Y98.34 E0.06038
G1 X98.769 Y98.008 E0.04191
G1 X98.318 Y97.966 E0.0339
G2 X96.965 Y98.454 I0.309 J2.976 E0.10860
G2 X96.063 Y99.430 I1.860 J2.623 E0.09999
G1 X95.612 Y100.099 E0.06038
G1 X95.161 Y100.431 E0.04191
G1 X94.71 Y100.473 E0.0339
G1 X94.535 Y100.442 E0.0133
G0 F7200 X94.7 Y100.442
G0 X95.221 Y102.363
G0 X95.221 Y102.528
G1 F2700 X95.612 Y101.948 E0.05235
