; G-Code generated by Simplify3D(R) Version 4.1.0
; Jul 13, 2019 at 7:01:05 PM
; Settings Summary
;   processName,general PLA fine - 0.4
;   applyToModels,Drill jig, Kinematic coupling, top,Center mark jig, Kinematic coupling, top
;   profileName,BortBot (modified)
;   profileVersion,2018-03-11 18:52:45
;   baseProfile,Default
;   printMaterial,PLA
;   printQuality,Medium
;   printExtruders,
;   extruderName,Extruder 1
;   extruderToolheadNumber,0
;   extruderDiameter,0.4
;   extruderAutoWidth,1
;   extruderWidth,0.48
;   extrusionMultiplier,1
;   extruderUseRetract,1
;   extruderRetractionDistance,2.6
;   extruderExtraRestartDistance,0
;   extruderRetractionZLift,0
;   extruderRetractionSpeed,3600
;   extruderUseCoasting,0
;   extruderCoastingDistance,1.4
;   extruderUseWipe,0
;   extruderWipeDistance,2
;   primaryExtruder,0
;   layerHeight,0.32
;   topSolidLayers,4
;   bottomSolidLayers,4
;   perimeterOutlines,3
;   printPerimetersInsideOut,0
;   startPointOption,3
;   startPointOriginX,200
;   startPointOriginY,100
;   sequentialIslands,0
;   spiralVaseMode,0
;   firstLayerHeightPercentage,150
;   firstLayerWidthPercentage,115
;   firstLayerUnderspeed,0.65
;   useRaft,0
;   raftExtruder,0
;   raftTopLayers,2
;   raftBaseLayers,2
;   raftOffset,3
;   raftSeparationDistance,0.3
;   raftTopInfill,90
;   aboveRaftSpeedMultiplier,0.3
;   useSkirt,1
;   skirtExtruder,0
;   skirtLayers,1
;   skirtOutlines,2
;   skirtOffset,2
;   usePrimePillar,0
;   primePillarExtruder,999
;   primePillarWidth,12
;   primePillarLocation,7
;   primePillarSpeedMultiplier,1
;   useOozeShield,0
;   oozeShieldExtruder,999
;   oozeShieldOffset,2
;   oozeShieldOutlines,1
;   oozeShieldSidewallShape,1
;   oozeShieldSidewallAngle,30
;   oozeShieldSpeedMultiplier,1
;   infillExtruder,0
;   internalInfillPattern,Rectilinear
;   externalInfillPattern,Rectilinear
;   infillPercentage,20
;   outlineOverlapPercentage,65
;   infillExtrusionWidthPercentage,100
;   minInfillLength,5
;   infillLayerInterval,1
;   internalInfillAngles,45,-45
;   overlapInternalInfillAngles,0
;   externalInfillAngles,45,-45
;   generateSupport,1
;   supportExtruder,0
;   supportInfillPercentage,30
;   supportExtraInflation,1
;   supportBaseLayers,1
;   denseSupportExtruder,0
;   denseSupportLayers,2
;   denseSupportInfillPercentage,80
;   supportLayerInterval,1
;   supportHorizontalPartOffset,0.5
;   supportUpperSeparationLayers,1
;   supportLowerSeparationLayers,1
;   supportType,0
;   supportGridSpacing,1
;   maxOverhangAngle,46
;   supportAngles,90
;   temperatureName,Extruder 1,Heated Bed
;   temperatureNumber,0,1
;   temperatureSetpointCount,1,1
;   temperatureSetpointLayers,1,1
;   temperatureSetpointTemperatures,220,45
;   temperatureStabilizeAtStartup,1,1
;   temperatureHeatedBed,0,1
;   fanLayers,1,3
;   fanSpeeds,0,50
;   blipFanToFullPower,1
;   adjustSpeedForCooling,0
;   minSpeedLayerTime,15
;   minCoolingSpeedSlowdown,20
;   increaseFanForCooling,1
;   minFanLayerTime,45
;   maxCoolingFanSpeed,100
;   increaseFanForBridging,1
;   bridgingFanSpeed,100
;   use5D,1
;   relativeEdistances,0
;   allowEaxisZeroing,1
;   independentExtruderAxes,0
;   includeM10123,0
;   stickySupport,1
;   applyToolheadOffsets,0
;   gcodeXoffset,0
;   gcodeYoffset,0
;   gcodeZoffset,0
;   overrideMachineDefinition,0
;   machineTypeOverride,0
;   strokeXoverride,100
;   strokeYoverride,100
;   strokeZoverride,100
;   originOffsetXoverride,0
;   originOffsetYoverride,0
;   originOffsetZoverride,0
;   homeXdirOverride,-1
;   homeYdirOverride,-1
;   homeZdirOverride,-1
;   flipXoverride,1
;   flipYoverride,-1
;   flipZoverride,1
;   toolheadOffsets,0,0|0,0|0,0|0,0|0,0|0,0
;   overrideFirmwareConfiguration,0
;   firmwareTypeOverride,RepRap (Marlin/Repetier/Sprinter)
;   GPXconfigOverride,r2
;   baudRateOverride,115200
;   overridePrinterModels,0
;   printerModelsOverride
;   startingGcode,G11 S1; Unretract,;G28 XY ; HOME XY,;M561 ; Clear any bed transform,G1 X100 Y80 Z25; move to center of bed,G30 ;Do a single Z probe,G29 S1 ; Load bed compensating height map,;G1 Z10; ,M572 D0 S0.15
;   layerChangeGcode,
;   retractionGcode,
;   toolChangeGcode,
;   endingGcode,G10 S1; retract filament to relieve pressure,M104 S0 ; turn off extruder,M140 S0 ; turn off bed,G91 G1 Z10 ; Clearance from part,G90 G1 X0 Y0 ; Go to starting position (X0 Y0 Z300),M84 ; disable motor,M107; Turn off fan
;   exportFileFormat,gcode
;   celebration,0
;   celebrationSong,Random Song
;   postProcessing,
;   defaultSpeed,3600
;   outlineUnderspeed,0.8
;   solidInfillUnderspeed,1
;   supportUnderspeed,1
;   rapidXYspeed,3600
;   rapidZspeed,1800
;   minBridgingArea,10
;   bridgingExtraInflation,5
;   bridgingExtrusionMultiplier,0.9
;   bridgingSpeedMultiplier,0.6
;   useFixedBridgingAngle,0
;   fixedBridgingAngle,0
;   applyBridgingToPerimeters,1
;   filamentDiameters,1.75|1.75|1.75|1.75|1.75|1.75
;   filamentPricesPerKg,20|46|46|46|46|46
;   filamentDensities,1.22|1.25|1.25|1.25|1.25|1.25
;   useMinPrintHeight,0
;   minPrintHeight,23
;   useMaxPrintHeight,0
;   maxPrintHeight,60
;   useDiaphragm,0
;   diaphragmLayerInterval,20
;   robustSlicing,1
;   mergeAllIntoSolid,0
;   onlyRetractWhenCrossingOutline,0
;   retractBetweenLayers,0
;   useRetractionMinTravel,0
;   retractionMinTravel,3
;   retractWhileWiping,0
;   onlyWipeOutlines,1
;   avoidCrossingOutline,1
;   maxMovementDetourFactor,3
;   toolChangeRetractionDistance,12
;   toolChangeExtraRestartDistance,-0.5
;   toolChangeRetractionSpeed,600
;   externalThinWallType,1
;   internalThinWallType,1
;   thinWallAllowedOverlapPercentage,30
;   singleExtrusionMinLength,1
;   singleExtrusionMinPrintingWidthPercentage,50
;   singleExtrusionMaxPrintingWidthPercentage,200
;   singleExtrusionEndpointExtension,0.2
;   horizontalSizeCompensation,0
G90
M82
M106 S0
M140 S45
M190 S45
M104 S220 T0
M109 S220 T0
G11 S1; Unretract
;G28 XY ; HOME XY
;M561 ; Clear any bed transform
G1 X100 Y80 Z25; move to center of bed
G30 ;Do a single Z probe
G29 S1 ; Load bed compensating height map
;G1 Z10; 
M572 D0 S0.15
; process general PLA fine - 0.4
; layer 1, Z = 0.480
T0
; feature skirt
; tool H0.480 W0.552
G1 Z0.480 F1800
G1 X128.828 Y115.671 F3600
G92 E0.0000
G1 X127.171 Y117.328 E0.2581 F2340
G1 X101.329 Y117.328 E3.1049
G1 X100.000 Y115.999 E3.3118
G1 X98.671 Y117.328 E3.5188
G1 X72.829 Y117.328 E6.3656
G1 X71.172 Y115.671 E6.6237
G1 X71.172 Y64.329 E12.2795
G1 X72.829 Y62.672 E12.5375
G1 X98.671 Y62.672 E15.3843
G1 X100.000 Y64.001 E15.5913
G1 X101.329 Y62.672 E15.7983
G1 X127.171 Y62.672 E18.6451
G1 X128.828 Y64.329 E18.9031
G1 X128.828 Y115.671 E24.5589
G92 E0.0000
G1 E-2.6000 F3600
G1 X128.276 Y115.443 F3600
G1 E0.0000 F3600
G92 E0.0000
G1 X126.943 Y116.776 E0.2077 F2340
G1 X101.557 Y116.776 E3.0041
G1 X100.000 Y115.219 E3.2467
G1 X98.443 Y116.776 E3.4893
G1 X73.057 Y116.776 E6.2857
G1 X71.724 Y115.443 E6.4934
G1 X71.724 Y64.557 E12.0988
G1 X73.057 Y63.224 E12.3065
G1 X98.443 Y63.224 E15.1029
G1 X100.000 Y64.781 E15.3455
G1 X101.557 Y63.224 E15.5881
G1 X126.943 Y63.224 E18.3845
G1 X128.276 Y64.557 E18.5922
G1 X128.276 Y115.443 E24.1977
G92 E0.0000
G1 E-2.6000 F3600
; feature outer perimeter
G1 X97.224 Y114.224 F3600
G1 E0.0000 F3600
G92 E0.0000
G1 X74.276 Y114.224 E2.5279 F1872
G1 X74.276 Y65.776 E7.8648
G1 X97.224 Y65.776 E10.3927
G1 X97.224 Y114.224 E15.7296
G92 E0.0000
G1 E-2.6000 F3600
; feature inner perimeter
G1 X96.672 Y113.672 F3600
G1 E0.0000 F3600
G92 E0.0000
G1 X74.828 Y113.672 E2.4063 F2106
G1 X74.828 Y66.328 E7.6216
G1 X96.672 Y66.328 E10.0279
G1 X96.672 Y113.672 E15.2432
G92 E0.0000
G1 E-2.6000 F3600
G1 X96.120 Y113.120 F3600
G1 E0.0000 F3600
G92 E0.0000
G1 X75.380 Y113.120 E2.2847 F2106
G1 X75.380 Y66.880 E7.3784
G1 X96.120 Y66.880 E9.6630
G1 X96.120 Y113.120 E14.7567
G92 E0.0000
G1 E-2.6000 F3600
; feature outer perimeter
G1 X89.190 Y104.219 F3600
G1 E0.0000 F3600
G92 E0.0000
G1 X89.149 Y103.901 E0.0354 F1872
G1 X89.078 Y103.587 E0.0708
G1 X88.979 Y103.282 E0.1061
G1 X88.852 Y102.987 E0.1415
G1 X88.698 Y102.705 E0.1769
G1 X88.518 Y102.439 E0.2123
G1 X88.315 Y102.191 E0.2476
G1 X88.087 Y101.960 E0.2834
G1 X87.716 Y101.663 E0.3357
G1 X87.441 Y101.491 E0.3714
G1 X87.154 Y101.347 E0.4068
G1 X86.855 Y101.230 E0.4422
G1 X86.546 Y101.142 E0.4776
G1 X86.230 Y101.082 E0.5129
G1 X85.911 Y101.052 E0.5483
G1 X85.589 Y101.052 E0.5837
G1 X85.270 Y101.082 E0.6191
G1 X84.951 Y101.142 E0.6548
G1 X84.497 Y101.284 E0.7071
G1 X84.201 Y101.416 E0.7429
G1 X83.921 Y101.573 E0.7783
G1 X83.657 Y101.756 E0.8136
G1 X83.408 Y101.964 E0.8494
G1 X83.082 Y102.310 E0.9017
G1 X82.889 Y102.570 E0.9374
G1 X82.722 Y102.844 E0.9728
G1 X82.581 Y103.133 E1.0082
G1 X82.468 Y103.434 E1.0436
G1 X82.383 Y103.743 E1.0789
G1 X82.326 Y104.063 E1.1147
G1 X82.299 Y104.537 E1.1670
G1 X82.318 Y104.861 E1.2027
G1 X82.366 Y105.178 E1.2381
G1 X82.444 Y105.490 E1.2735
G1 X82.550 Y105.793 E1.3089
G1 X82.685 Y106.088 E1.3446
G1 X82.932 Y106.493 E1.3969
G1 X83.132 Y106.749 E1.4327
G1 X83.353 Y106.983 E1.4680
G1 X83.594 Y107.195 E1.5034
G1 X83.853 Y107.384 E1.5388
G1 X84.130 Y107.547 E1.5742
G1 X84.420 Y107.685 E1.6095
G1 X84.722 Y107.795 E1.6449
G1 X85.033 Y107.876 E1.6803
G1 X85.349 Y107.928 E1.7157
G1 X85.670 Y107.950 E1.7510
G1 X85.991 Y107.943 E1.7864
G1 X86.310 Y107.906 E1.8218
G1 X86.624 Y107.839 E1.8572
G1 X86.930 Y107.743 E1.8926
G1 X87.230 Y107.618 E1.9283
G1 X87.644 Y107.385 E1.9806
G1 X87.906 Y107.195 E2.0164
G1 X88.147 Y106.983 E2.0517
G1 X88.368 Y106.749 E2.0871
G1 X88.566 Y106.496 E2.1225
G1 X88.739 Y106.226 E2.1579
G1 X88.888 Y105.938 E2.1936
G1 X89.056 Y105.493 E2.2459
G1 X89.134 Y105.178 E2.2817
G1 X89.182 Y104.861 E2.3170
G1 X89.201 Y104.540 E2.3524
G1 X89.190 Y104.219 E2.3878
G92 E0.0000
G1 E-2.6000 F3600
; feature inner perimeter
G1 X89.741 Y104.174 F3600
G1 E0.0000 F3600
G92 E0.0000
G1 X89.693 Y103.805 E0.0410 F2106
G1 X89.611 Y103.441 E0.0821
G1 X89.496 Y103.087 E0.1231
G1 X89.349 Y102.745 E0.1642
G1 X89.170 Y102.418 E0.2052
G1 X88.962 Y102.109 E0.2462
G1 X88.725 Y101.821 E0.2873
G1 X88.457 Y101.549 E0.3294
G1 X88.036 Y101.212 E0.3888
G1 X87.711 Y101.009 E0.4309
G1 X87.379 Y100.842 E0.4720
G1 X87.032 Y100.707 E0.5130
G1 X86.673 Y100.604 E0.5540
G1 X86.307 Y100.535 E0.5951
G1 X85.936 Y100.500 E0.6361
G1 X85.564 Y100.500 E0.6772
G1 X85.193 Y100.535 E0.7182
G1 X84.817 Y100.606 E0.7603
G1 X84.302 Y100.767 E0.8197
G1 X83.953 Y100.922 E0.8618
G1 X83.628 Y101.105 E0.9029
G1 X83.322 Y101.316 E0.9439
G1 X83.029 Y101.562 E0.9860
G1 X82.659 Y101.954 E1.0454
G1 X82.431 Y102.261 E1.0876
G1 X82.237 Y102.579 E1.1286
G1 X82.074 Y102.914 E1.1696
G1 X81.942 Y103.263 E1.2107
G1 X81.844 Y103.622 E1.2517
G1 X81.777 Y103.999 E1.2938
G1 X81.746 Y104.537 E1.3532
G1 X81.768 Y104.918 E1.3953
G1 X81.824 Y105.287 E1.4364
G1 X81.914 Y105.648 E1.4774
G1 X82.038 Y106.000 E1.5185
G1 X82.197 Y106.347 E1.5606
G1 X82.478 Y106.808 E1.6200
G1 X82.713 Y107.109 E1.6621
G1 X82.969 Y107.380 E1.7031
G1 X83.248 Y107.626 E1.7442
G1 X83.550 Y107.845 E1.7852
G1 X83.870 Y108.035 E1.8263
G1 X84.207 Y108.195 E1.8673
G1 X84.557 Y108.322 E1.9083
G1 X84.918 Y108.416 E1.9494
G1 X85.285 Y108.477 E1.9904
G1 X85.657 Y108.503 E2.0315
G1 X86.029 Y108.494 E2.0725
G1 X86.399 Y108.451 E2.1135
G1 X86.764 Y108.373 E2.1546
G1 X87.119 Y108.262 E2.1956
G1 X87.472 Y108.115 E2.2377
G1 X87.942 Y107.851 E2.2971
G1 X88.252 Y107.626 E2.3393
G1 X88.531 Y107.380 E2.3803
G1 X88.787 Y107.109 E2.4213
G1 X89.016 Y106.815 E2.4624
G1 X89.217 Y106.502 E2.5034
G1 X89.393 Y106.162 E2.5455
G1 X89.583 Y105.658 E2.6049
G1 X89.676 Y105.287 E2.6471
G1 X89.732 Y104.919 E2.6881
G1 X89.754 Y104.547 E2.7291
G1 X89.741 Y104.174 E2.7702
G92 E0.0000
G1 E-2.6000 F3600
G1 X90.291 Y104.129 F3600
G1 E0.0000 F3600
G92 E0.0000
G1 X90.237 Y103.709 E0.0467 F2106
G1 X90.144 Y103.295 E0.0934
G1 X90.013 Y102.892 E0.1401
G1 X89.845 Y102.503 E0.1868
G1 X89.642 Y102.131 E0.2335
G1 X89.405 Y101.779 E0.2802
G1 X89.136 Y101.451 E0.3269
G1 X88.827 Y101.138 E0.3754
G1 X88.355 Y100.761 E0.4419
G1 X87.982 Y100.528 E0.4904
G1 X87.603 Y100.337 E0.5371
G1 X87.208 Y100.183 E0.5838
G1 X86.801 Y100.066 E0.6305
G1 X86.384 Y99.988 E0.6772
G1 X85.962 Y99.948 E0.7239
G1 X85.538 Y99.948 E0.7706
G1 X85.116 Y99.988 E0.8173
G1 X84.683 Y100.069 E0.8658
G1 X84.107 Y100.249 E0.9323
G1 X83.705 Y100.428 E0.9808
G1 X83.335 Y100.636 E1.0275
G1 X82.987 Y100.877 E1.0742
G1 X82.650 Y101.160 E1.1227
G1 X82.235 Y101.599 E1.1892
G1 X81.972 Y101.952 E1.2377
G1 X81.752 Y102.314 E1.2844
G1 X81.566 Y102.695 E1.3311
G1 X81.417 Y103.092 E1.3778
G1 X81.304 Y103.501 E1.4245
G1 X81.228 Y103.934 E1.4730
G1 X81.193 Y104.537 E1.5395
G1 X81.218 Y104.976 E1.5879
G1 X81.282 Y105.395 E1.6347
G1 X81.385 Y105.807 E1.6814
G1 X81.525 Y106.207 E1.7281
G1 X81.709 Y106.607 E1.7765
G1 X82.023 Y107.122 E1.8430
G1 X82.294 Y107.469 E1.8915
G1 X82.585 Y107.778 E1.9382
G1 X82.903 Y108.058 E1.9849
G1 X83.246 Y108.307 E2.0316
G1 X83.611 Y108.523 E2.0783
G1 X83.994 Y108.705 E2.1250
G1 X84.393 Y108.850 E2.1718
G1 X84.803 Y108.957 E2.2185
G1 X85.221 Y109.026 E2.2652
G1 X85.644 Y109.055 E2.3119
G1 X86.068 Y109.045 E2.3586
G1 X86.489 Y108.996 E2.4053
G1 X86.904 Y108.908 E2.4520
G1 X87.308 Y108.782 E2.4987
G1 X87.715 Y108.612 E2.5472
G1 X88.241 Y108.316 E2.6137
G1 X88.597 Y108.058 E2.6621
G1 X88.915 Y107.778 E2.7089
G1 X89.206 Y107.469 E2.7556
G1 X89.467 Y107.135 E2.8023
G1 X89.696 Y106.778 E2.8490
G1 X89.898 Y106.387 E2.8975
G1 X90.111 Y105.822 E2.9640
G1 X90.218 Y105.395 E3.0124
G1 X90.282 Y104.976 E3.0591
G1 X90.306 Y104.553 E3.1058
G1 X90.291 Y104.129 E3.1525
G92 E0.0000
G1 E-2.6000 F3600
; feature outer perimeter
G1 X88.801 Y92.678 F3600
G1 E0.0000 F3600
G92 E0.0000
G1 X88.804 Y92.393 E0.0313 F1872
G1 X88.781 Y92.110 E0.0627
G1 X88.732 Y91.830 E0.0940
G1 X88.657 Y91.556 E0.1253
G1 X88.556 Y91.289 E0.1567
G1 X88.432 Y91.034 E0.1880
G1 X88.284 Y90.791 E0.2193
G1 X88.114 Y90.563 E0.2506
G1 X87.924 Y90.351 E0.2820
G1 X87.715 Y90.159 E0.3133
G1 X87.486 Y89.984 E0.3450
G1 X87.125 Y89.770 E0.3912
G1 X86.862 Y89.653 E0.4229
G1 X86.592 Y89.562 E0.4542
G1 X86.313 Y89.496 E0.4859
G1 X85.895 Y89.447 E0.5322
G1 X85.608 Y89.447 E0.5639
G1 X85.325 Y89.473 E0.5952
G1 X85.042 Y89.527 E0.6269
G1 X84.641 Y89.652 E0.6732
G1 X84.378 Y89.769 E0.7048
G1 X84.130 Y89.908 E0.7362
G1 X83.897 Y90.070 E0.7675
G1 X83.679 Y90.253 E0.7988
G1 X83.479 Y90.455 E0.8301
G1 X83.298 Y90.675 E0.8615
G1 X83.138 Y90.913 E0.8932
G1 X82.945 Y91.286 E0.9394
G1 X82.843 Y91.556 E0.9711
G1 X82.768 Y91.830 E1.0024
G1 X82.718 Y92.113 E1.0341
G1 X82.694 Y92.532 E1.0804
G1 X82.710 Y92.819 E1.1121
G1 X82.753 Y93.101 E1.1434
G1 X82.822 Y93.377 E1.1747
G1 X82.916 Y93.645 E1.2061
G1 X83.035 Y93.903 E1.2374
G1 X83.177 Y94.150 E1.2687
G1 X83.342 Y94.382 E1.3000
G1 X83.527 Y94.597 E1.3313
G1 X83.732 Y94.795 E1.3627
G1 X83.954 Y94.973 E1.3940
G1 X84.191 Y95.129 E1.4253
G1 X84.442 Y95.262 E1.4567
G1 X84.705 Y95.372 E1.4880
G1 X84.976 Y95.457 E1.5193
G1 X85.258 Y95.517 E1.5510
G1 X85.676 Y95.556 E1.5973
G1 X85.963 Y95.549 E1.6290
G1 X86.246 Y95.516 E1.6603
G1 X86.524 Y95.457 E1.6916
G1 X86.795 Y95.372 E1.7229
G1 X87.058 Y95.262 E1.7543
G1 X87.309 Y95.129 E1.7856
G1 X87.546 Y94.973 E1.8169
G1 X87.769 Y94.795 E1.8483
G1 X87.973 Y94.597 E1.8796
G1 X88.158 Y94.382 E1.9109
G1 X88.325 Y94.147 E1.9426
G1 X88.526 Y93.778 E1.9889
G1 X88.634 Y93.512 E2.0205
G1 X88.715 Y93.239 E2.0519
G1 X88.771 Y92.960 E2.0832
G1 X88.801 Y92.678 E2.1145
G92 E0.0000
G1 E-2.6000 F3600
; feature inner perimeter
G1 X89.353 Y92.710 F3600
G1 E0.0000 F3600
G92 E0.0000
G1 X89.357 Y92.374 E0.0370 F2106
G1 X89.329 Y92.039 E0.0740
G1 X89.271 Y91.709 E0.1110
G1 X89.182 Y91.385 E0.1480
G1 X89.064 Y91.071 E0.1850
G1 X88.917 Y90.769 E0.2220
G1 X88.742 Y90.482 E0.2590
G1 X88.541 Y90.213 E0.2959
G1 X88.317 Y89.963 E0.3329
G1 X88.070 Y89.735 E0.3699
G1 X87.795 Y89.526 E0.4080
G1 X87.379 Y89.279 E0.4613
G1 X87.063 Y89.138 E0.4994
G1 X86.745 Y89.031 E0.5364
G1 X86.409 Y88.951 E0.5744
G1 X85.928 Y88.895 E0.6278
G1 X85.582 Y88.895 E0.6658
G1 X85.248 Y88.926 E0.7028
G1 X84.908 Y88.990 E0.7409
G1 X84.446 Y89.134 E0.7942
G1 X84.130 Y89.275 E0.8323
