; G-Code generated by Simplify3D(R) Version 4.1.0
; Jan 27, 2019 at 4:32:08 PM
; Settings Summary
;   processName,0.5mm nozzle!
;   applyToModels,Duet3D Maestro mount
;   profileName,BortBot (modified)
;   profileVersion,2018-03-11 18:52:45
;   baseProfile,Default
;   printMaterial,PLA
;   printQuality,Medium
;   printExtruders,
;   extruderName,Extruder 1
;   extruderToolheadNumber,0
;   extruderDiameter,0.5
;   extruderAutoWidth,1
;   extruderWidth,0.6
;   extrusionMultiplier,1.03
;   extruderUseRetract,1
;   extruderRetractionDistance,3
;   extruderExtraRestartDistance,0
;   extruderRetractionZLift,0
;   extruderRetractionSpeed,1500
;   extruderUseCoasting,0
;   extruderCoastingDistance,1.4
;   extruderUseWipe,1
;   extruderWipeDistance,2
;   primaryExtruder,0
;   layerHeight,0.25
;   topSolidLayers,2
;   bottomSolidLayers,4
;   perimeterOutlines,3
;   printPerimetersInsideOut,0
;   startPointOption,2
;   startPointOriginX,0
;   startPointOriginY,0
;   sequentialIslands,0
;   spiralVaseMode,0
;   firstLayerHeightPercentage,125
;   firstLayerWidthPercentage,100
;   firstLayerUnderspeed,0.75
;   useRaft,0
;   raftExtruder,0
;   raftTopLayers,2
;   raftBaseLayers,2
;   raftOffset,3
;   raftSeparationDistance,0.3
;   raftTopInfill,90
;   aboveRaftSpeedMultiplier,0.3
;   useSkirt,1
;   skirtExtruder,0
;   skirtLayers,1
;   skirtOutlines,2
;   skirtOffset,3
;   usePrimePillar,0
;   primePillarExtruder,999
;   primePillarWidth,12
;   primePillarLocation,7
;   primePillarSpeedMultiplier,1
;   useOozeShield,0
;   oozeShieldExtruder,999
;   oozeShieldOffset,2
;   oozeShieldOutlines,1
;   oozeShieldSidewallShape,1
;   oozeShieldSidewallAngle,30
;   oozeShieldSpeedMultiplier,1
;   infillExtruder,0
;   internalInfillPattern,Full Honeycomb
;   externalInfillPattern,Rectilinear
;   infillPercentage,32
;   outlineOverlapPercentage,35
;   infillExtrusionWidthPercentage,90
;   minInfillLength,5
;   infillLayerInterval,1
;   internalInfillAngles,0,120,-120
;   overlapInternalInfillAngles,0
;   externalInfillAngles,45,-45
;   generateSupport,1
;   supportExtruder,0
;   supportInfillPercentage,20
;   supportExtraInflation,0
;   supportBaseLayers,1
;   denseSupportExtruder,0
;   denseSupportLayers,4
;   denseSupportInfillPercentage,90
;   supportLayerInterval,1
;   supportHorizontalPartOffset,0.5
;   supportUpperSeparationLayers,1
;   supportLowerSeparationLayers,1
;   supportType,0
;   supportGridSpacing,1
;   maxOverhangAngle,46
;   supportAngles,45
;   temperatureName,Extruder 1,Heated Bed
;   temperatureNumber,0,1
;   temperatureSetpointCount,1,1
;   temperatureSetpointLayers,1,1
;   temperatureSetpointTemperatures,215,60
;   temperatureStabilizeAtStartup,1,1
;   temperatureHeatedBed,0,1
;   fanLayers,1,3
;   fanSpeeds,0,60
;   blipFanToFullPower,1
;   adjustSpeedForCooling,1
;   minSpeedLayerTime,15
;   minCoolingSpeedSlowdown,20
;   increaseFanForCooling,1
;   minFanLayerTime,45
;   maxCoolingFanSpeed,100
;   increaseFanForBridging,1
;   bridgingFanSpeed,100
;   use5D,1
;   relativeEdistances,0
;   allowEaxisZeroing,1
;   independentExtruderAxes,0
;   includeM10123,0
;   stickySupport,1
;   applyToolheadOffsets,0
;   gcodeXoffset,0
;   gcodeYoffset,0
;   gcodeZoffset,0
;   overrideMachineDefinition,0
;   machineTypeOverride,0
;   strokeXoverride,100
;   strokeYoverride,100
;   strokeZoverride,100
;   originOffsetXoverride,0
;   originOffsetYoverride,0
;   originOffsetZoverride,0
;   homeXdirOverride,-1
;   homeYdirOverride,-1
;   homeZdirOverride,-1
;   flipXoverride,1
;   flipYoverride,-1
;   flipZoverride,1
;   toolheadOffsets,0,0|0,0|0,0|0,0|0,0|0,0
;   overrideFirmwareConfiguration,0
;   firmwareTypeOverride,RepRap (Marlin/Repetier/Sprinter)
;   GPXconfigOverride,r2
;   baudRateOverride,115200
;   overridePrinterModels,0
;   printerModelsOverride
;   startingGcode,G28 XY ; HOME XY,M561 ; Clear any bed transform,G1 X80 Y80 Z25; move to center of bed,G30 ;Do a single Z probe,G29 S1 ; Load bed compensating height map,G1 X0 Y0 Z10 ; Return to origin
;   layerChangeGcode,
;   retractionGcode,
;   toolChangeGcode,
;   endingGcode,G10 S5; retract filament to relieve pressure,M104 S0 ; turn off extruder,M140 S0 ; turn off bed,G91 G1 Z10 ; Clearance from part,G90 G1 X200 Y170; Go to final position (X200 Y170),M84 ; disable motor,M107; Turn off fan
;   exportFileFormat,gcode
;   celebration,0
;   celebrationSong,Random Song
;   postProcessing,
;   defaultSpeed,3600
;   outlineUnderspeed,0.8
;   solidInfillUnderspeed,1
;   supportUnderspeed,1
;   rapidXYspeed,5100
;   rapidZspeed,1800
;   minBridgingArea,10
;   bridgingExtraInflation,5
;   bridgingExtrusionMultiplier,0.9
;   bridgingSpeedMultiplier,0.6
;   useFixedBridgingAngle,0
;   fixedBridgingAngle,0
;   applyBridgingToPerimeters,1
;   filamentDiameters,1.75|1.75|1.75|1.75|1.75|1.75
;   filamentPricesPerKg,20|46|46|46|46|46
;   filamentDensities,1.33|1.25|1.25|1.25|1.25|1.25
;   useMinPrintHeight,0
;   minPrintHeight,40
;   useMaxPrintHeight,0
;   maxPrintHeight,60
;   useDiaphragm,0
;   diaphragmLayerInterval,20
;   robustSlicing,1
;   mergeAllIntoSolid,0
;   onlyRetractWhenCrossingOutline,1
;   retractBetweenLayers,0
;   useRetractionMinTravel,0
;   retractionMinTravel,3
;   retractWhileWiping,1
;   onlyWipeOutlines,1
;   avoidCrossingOutline,0
;   maxMovementDetourFactor,3
;   toolChangeRetractionDistance,12
;   toolChangeExtraRestartDistance,-0.5
;   toolChangeRetractionSpeed,600
;   externalThinWallType,1
;   internalThinWallType,2
;   thinWallAllowedOverlapPercentage,20
;   singleExtrusionMinLength,1
;   singleExtrusionMinPrintingWidthPercentage,50
;   singleExtrusionMaxPrintingWidthPercentage,200
;   singleExtrusionEndpointExtension,0.2
;   horizontalSizeCompensation,0
G90
M82
M106 S0
M140 S60
M190 S60
M104 S215 T0
M109 S215 T0
G28 XY ; HOME XY
M561 ; Clear any bed transform
G1 X80 Y80 Z25; move to center of bed
G30 ;Do a single Z probe
G29 S1 ; Load bed compensating height map
G1 X0 Y0 Z10 ; Return to origin
; process 0.5mm nozzle!
; layer 1, Z = 0.313
T0
; feature skirt
; tool H0.313 W0.600
G1 Z0.313 F1800
G1 X36.214 Y31.713 F5100
G92 E0.0000
G1 X36.849 Y30.982 E0.0778 F2700
G1 X37.055 Y30.777 E0.1011
G1 X37.733 Y30.199 E0.1726
G1 X37.980 Y30.019 E0.1972
G1 X38.777 Y29.531 E0.2722
G1 X39.050 Y29.391 E0.2968
G1 X39.913 Y29.034 E0.3719
G1 X40.205 Y28.939 E0.3965
G1 X41.113 Y28.721 E0.4715
G1 X41.416 Y28.673 E0.4961
G1 X42.270 Y28.606 E0.5649
G1 X42.423 Y28.600 E0.5772
G1 X157.577 Y28.600 E9.8231
G1 X157.730 Y28.606 E9.8354
G1 X158.584 Y28.673 E9.9042
G1 X158.887 Y28.721 E9.9288
G1 X159.795 Y28.939 E10.0039
G1 X160.087 Y29.034 E10.0285
G1 X160.950 Y29.391 E10.1035
G1 X161.223 Y29.531 E10.1281
G1 X162.020 Y30.019 E10.2031
G1 X162.267 Y30.199 E10.2277
G1 X162.978 Y30.805 E10.3027
G1 X163.195 Y31.022 E10.3273
G1 X163.801 Y31.733 E10.4023
G1 X163.981 Y31.980 E10.4269
G1 X164.469 Y32.777 E10.5019
G1 X164.609 Y33.050 E10.5265
G1 X164.966 Y33.913 E10.6015
G1 X165.061 Y34.205 E10.6261
G1 X165.279 Y35.113 E10.7011
G1 X165.327 Y35.415 E10.7257
G1 X165.394 Y36.270 E10.7946
G1 X165.400 Y36.423 E10.8069
G1 X165.400 Y128.577 E18.2061
G1 X165.394 Y128.730 E18.2184
G1 X165.327 Y129.585 E18.2872
G1 X165.279 Y129.887 E18.3118
G1 X165.061 Y130.796 E18.3868
G1 X164.966 Y131.087 E18.4114
G1 X164.609 Y131.950 E18.4864
G1 X164.469 Y132.223 E18.5110
G1 X163.980 Y133.022 E18.5863
G1 X163.795 Y133.275 E18.6114
G1 X163.178 Y133.993 E18.6874
G1 X162.965 Y134.205 E18.7115
G1 X162.267 Y134.801 E18.7852
G1 X162.019 Y134.981 E18.8098
G1 X161.223 Y135.469 E18.8848
G1 X160.950 Y135.609 E18.9095
G1 X160.087 Y135.966 E18.9845
G1 X159.796 Y136.061 E19.0091
G1 X158.887 Y136.279 E19.0841
G1 X158.585 Y136.327 E19.1087
G1 X157.730 Y136.394 E19.1775
G1 X157.577 Y136.400 E19.1898
G1 X42.423 Y136.400 E28.4357
G1 X42.270 Y136.394 E28.4480
G1 X41.415 Y136.327 E28.5169
G1 X41.113 Y136.279 E28.5415
G1 X40.204 Y136.061 E28.6165
G1 X39.913 Y135.966 E28.6411
G1 X39.050 Y135.609 E28.7161
G1 X38.777 Y135.469 E28.7407
G1 X37.980 Y134.981 E28.8157
G1 X37.733 Y134.801 E28.8403
G1 X37.022 Y134.195 E28.9153
G1 X36.805 Y133.978 E28.9399
G1 X36.199 Y133.267 E29.0149
G1 X36.019 Y133.019 E29.0395
G1 X35.531 Y132.223 E29.1145
G1 X35.391 Y131.950 E29.1391
G1 X35.034 Y131.087 E29.2141
G1 X34.939 Y130.795 E29.2387
G1 X34.727 Y129.912 E29.3117
G1 X34.680 Y129.618 E29.3356
G1 X34.607 Y128.744 E29.4060
G1 X34.600 Y128.581 E29.4191
G1 X34.600 Y36.423 E36.8186
G1 X34.606 Y36.270 E36.8309
G1 X34.673 Y35.416 E36.8998
G1 X34.721 Y35.113 E36.9244
G1 X34.939 Y34.204 E36.9994
G1 X35.034 Y33.913 E37.0240
G1 X35.391 Y33.050 E37.0990
G1 X35.531 Y32.777 E37.1236
G1 X36.023 Y31.974 E37.1993
G1 X36.214 Y31.713 E37.2252
G92 E0.0000
G1 E-3.0000 F1500
G1 X36.683 Y32.088 F5100
G1 E0.0000 F1500
G92 E0.0000
G1 X37.287 Y31.392 E0.0740 F2700
G1 X37.462 Y31.219 E0.0937
G1 X38.104 Y30.670 E0.1616
G1 X38.314 Y30.518 E0.1824
G1 X39.070 Y30.055 E0.2536
G1 X39.301 Y29.937 E0.2744
G1 X40.121 Y29.597 E0.3457
G1 X40.368 Y29.517 E0.3665
G1 X41.230 Y29.310 E0.4377
G1 X41.486 Y29.270 E0.4585
G1 X42.306 Y29.205 E0.5245
G1 X42.435 Y29.200 E0.5349
G1 X157.565 Y29.200 E9.7789
G1 X157.694 Y29.205 E9.7893
G1 X158.514 Y29.270 E9.8553
G1 X158.770 Y29.310 E9.8762
G1 X159.632 Y29.517 E9.9474
G1 X159.879 Y29.597 E9.9682
G1 X160.699 Y29.937 E10.0394
G1 X160.930 Y30.055 E10.0602
G1 X161.686 Y30.518 E10.1314
G1 X161.896 Y30.670 E10.1523
G1 X162.570 Y31.247 E10.2235
G1 X162.754 Y31.430 E10.2443
G1 X163.330 Y32.104 E10.3155
G1 X163.482 Y32.314 E10.3364
G1 X163.946 Y33.070 E10.4076
G1 X164.063 Y33.301 E10.4284
G1 X164.403 Y34.121 E10.4996
G1 X164.483 Y34.368 E10.5204
G1 X164.690 Y35.230 E10.5916
G1 X164.730 Y35.486 E10.6125
G1 X164.795 Y36.306 E10.6785
G1 X164.800 Y36.435 E10.6889
G1 X164.800 Y128.565 E18.0862
G1 X164.795 Y128.694 E18.0966
G1 X164.730 Y129.514 E18.1626
G1 X164.690 Y129.770 E18.1834
G1 X164.483 Y130.632 E18.2546
G1 X164.403 Y130.879 E18.2754
G1 X164.063 Y131.699 E18.3467
G1 X163.946 Y131.930 E18.3675
G1 X163.481 Y132.688 E18.4389
G1 X163.325 Y132.902 E18.4601
G1 X162.738 Y133.585 E18.5324
G1 X162.558 Y133.764 E18.5528
G1 X161.896 Y134.330 E18.6228
G1 X161.686 Y134.482 E18.6436
G1 X160.930 Y134.946 E18.7148
G1 X160.699 Y135.063 E18.7356
G1 X159.879 Y135.403 E18.8068
G1 X159.632 Y135.483 E18.8277
G1 X158.770 Y135.690 E18.8989
G1 X158.514 Y135.730 E18.9197
G1 X157.694 Y135.795 E18.9857
G1 X157.565 Y135.800 E18.9961
G1 X42.435 Y135.800 E28.2401
G1 X42.306 Y135.795 E28.2505
G1 X41.486 Y135.730 E28.3165
G1 X41.230 Y135.690 E28.3373
G1 X40.367 Y135.483 E28.4086
G1 X40.121 Y135.403 E28.4294
G1 X39.301 Y135.063 E28.5006
G1 X39.070 Y134.946 E28.5214
G1 X38.314 Y134.482 E28.5926
G1 X38.104 Y134.330 E28.6135
G1 X37.430 Y133.754 E28.6847
G1 X37.246 Y133.570 E28.7055
G1 X36.670 Y132.896 E28.7767
G1 X36.518 Y132.686 E28.7975
G1 X36.054 Y131.930 E28.8688
G1 X35.937 Y131.699 E28.8896
G1 X35.597 Y130.879 E28.9608
G1 X35.517 Y130.632 E28.9816
G1 X35.316 Y129.794 E29.0509
G1 X35.276 Y129.546 E29.0710
G1 X35.206 Y128.707 E29.1387
G1 X35.200 Y128.569 E29.1497
G1 X35.200 Y36.435 E36.5473
G1 X35.205 Y36.306 E36.5577
G1 X35.270 Y35.486 E36.6237
G1 X35.310 Y35.230 E36.6446
G1 X35.517 Y34.367 E36.7158
G1 X35.597 Y34.121 E36.7366
G1 X35.937 Y33.301 E36.8078
G1 X36.054 Y33.070 E36.8286
G1 X36.522 Y32.308 E36.9004
G1 X36.683 Y32.088 E36.9223
G92 E0.0000
G1 E-3.0000 F1500
; feature outer perimeter
G1 X39.507 Y34.327 F5100
G1 E0.0000 F1500
G92 E0.0000
G1 X39.910 Y33.862 E0.0494 F2160
G1 X40.326 Y33.507 E0.0933
G1 X40.821 Y33.204 E0.1399
G1 X41.357 Y32.982 E0.1865
G1 X41.921 Y32.846 E0.2331
G1 X42.512 Y32.800 E0.2807
G1 X157.488 Y32.800 E9.5123
G1 X158.079 Y32.846 E9.5599
G1 X158.643 Y32.982 E9.6065
G1 X159.179 Y33.204 E9.6531
G1 X159.674 Y33.507 E9.6997
G1 X160.116 Y33.884 E9.7463
G1 X160.493 Y34.326 E9.7929
G1 X160.796 Y34.821 E9.8395
G1 X161.018 Y35.357 E9.8861
G1 X161.154 Y35.921 E9.9327
G1 X161.200 Y36.512 E9.9803
G1 X161.200 Y128.488 E17.3653
G1 X161.154 Y129.079 E17.4128
G1 X161.018 Y129.643 E17.4594
G1 X160.796 Y130.179 E17.5060
G1 X160.493 Y130.674 E17.5526
G1 X160.106 Y131.124 E17.6003
G1 X159.674 Y131.493 E17.6458
G1 X159.179 Y131.796 E17.6925
G1 X158.643 Y132.018 E17.7391
G1 X158.079 Y132.154 E17.7857
G1 X157.488 Y132.200 E17.8332
G1 X42.512 Y132.200 E27.0649
G1 X41.921 Y132.154 E27.1125
G1 X41.357 Y132.018 E27.1591
G1 X40.821 Y131.796 E27.2057
G1 X40.326 Y131.493 E27.2523
G1 X39.884 Y131.116 E27.2989
G1 X39.507 Y130.674 E27.3455
G1 X39.204 Y130.179 E27.3921
G1 X38.982 Y129.643 E27.4387
G1 X38.851 Y129.098 E27.4837
G1 X38.800 Y128.487 E27.5329
G1 X38.800 Y36.512 E34.9178
G1 X38.846 Y35.921 E34.9654
G1 X38.982 Y35.357 E35.0120
G1 X39.204 Y34.821 E35.0586
G1 X39.507 Y34.327 E35.1051
G1 X39.910 Y33.862 F2160
G1 X40.326 Y33.507
G1 X40.821 Y33.204
G1 X41.059 Y33.105
; feature inner perimeter
G1 X41.094 Y33.740 F5100
G92 E0.0000
G1 X41.543 Y33.554 E0.0390 F2430
G1 X42.015 Y33.441 E0.0780
G1 X42.535 Y33.400 E0.1199
G1 X157.465 Y33.400 E9.3478
G1 X157.985 Y33.441 E9.3897
G1 X158.457 Y33.554 E9.4287
G1 X158.906 Y33.740 E9.4677
G1 X159.321 Y33.994 E9.5068
G1 X159.690 Y34.310 E9.5458
G1 X160.006 Y34.680 E9.5848
G1 X160.260 Y35.094 E9.6238
G1 X160.446 Y35.543 E9.6628
G1 X160.559 Y36.016 E9.7019
G1 X160.600 Y36.535 E9.7437
G1 X160.600 Y128.465 E17.1249
G1 X160.559 Y128.984 E17.1668
G1 X160.446 Y129.457 E17.2058
G1 X160.260 Y129.906 E17.2448
G1 X160.006 Y130.319 E17.2838
G1 X159.681 Y130.698 E17.3238
G1 X159.320 Y131.006 E17.3619
G1 X158.906 Y131.260 E17.4009
G1 X158.457 Y131.446 E17.4400
G1 X157.984 Y131.559 E17.4790
G1 X157.465 Y131.600 E17.5208
G1 X42.535 Y131.600 E26.7487
G1 X42.016 Y131.559 E26.7906
G1 X41.543 Y131.446 E26.8296
G1 X41.094 Y131.260 E26.8687
G1 X40.680 Y131.006 E26.9077
G1 X40.310 Y130.690 E26.9467
G1 X39.994 Y130.321 E26.9857
G1 X39.740 Y129.906 E27.0248
G1 X39.554 Y129.457 E27.0638
G1 X39.445 Y129.002 E27.1013
G1 X39.400 Y128.462 E27.1448
G1 X39.400 Y36.535 E34.5258
G1 X39.441 Y36.015 E34.5677
G1 X39.554 Y35.543 E34.6067
G1 X39.740 Y35.094 E34.6458
G1 X39.992 Y34.683 E34.6845
G1 X40.334 Y34.290 E34.7263
G1 X40.679 Y33.994 E34.7628
G1 X41.094 Y33.740 E34.8018
G1 X44.522 Y34.000 F5100
G92 E0.0000
G1 X155.541 Y34.000 E8.9139 F2430
G1 X155.045 Y34.518 E8.9715
G1 X154.745 Y34.961 E9.0145
G1 X154.525 Y35.449 E9.0574
G1 X154.389 Y35.969 E9.1006
G1 X154.345 Y36.508 E9.1440
G1 X154.390 Y37.033 E9.1863
G1 X154.525 Y37.551 E9.2293
G1 X154.745 Y38.039 E9.2723
G1 X155.045 Y38.482 E9.3153
G1 X155.415 Y38.869 E9.3582
G1 X155.846 Y39.187 E9.4012
G1 X156.323 Y39.428 E9.4442
G1 X156.835 Y39.585 E9.4871
G1 X157.366 Y39.653 E9.5301
G1 X157.901 Y39.630 E9.5731
G1 X158.424 Y39.517 E9.6161
G1 X158.921 Y39.318 E9.6590
G1 X159.376 Y39.037 E9.7020
G1 X160.000 Y38.488 E9.7687
G1 X160.000 Y126.512 E16.8364
G1 X159.376 Y125.963 E16.9031
G1 X158.921 Y125.682 E16.9460
G1 X158.424 Y125.483 E16.9890
G1 X157.901 Y125.370 E17.0320
G1 X157.366 Y125.347 E17.0749
G1 X156.835 Y125.415 E17.1179
G1 X156.323 Y125.572 E17.1609
G1 X155.846 Y125.813 E17.2039
G1 X155.415 Y126.131 E17.2468
G1 X155.045 Y126.518 E17.2898
G1 X154.745 Y126.961 E17.3328
G1 X154.525 Y127.449 E17.3758
G1 X154.389 Y127.969 E17.4189
G1 X154.345 Y128.508 E17.4623
G1 X154.390 Y129.033 E17.5047
G1 X154.525 Y129.551 E17.5476
G1 X154.745 Y130.039 E17.5906
G1 X155.045 Y130.482 E17.6336
G1 X155.541 Y131.000 E17.6912
G1 X44.522 Y131.000 E26.6051
G1 X45.114 Y130.267 E26.6807
G1 X45.375 Y129.800 E26.7237
G1 X45.554 Y129.295 E26.7667
G1 X45.644 Y128.768 E26.8097
G1 X45.644 Y128.232 E26.8526
G1 X45.554 Y127.705 E26.8956
G1 X45.375 Y127.200 E26.9386
G1 X45.114 Y126.733 E26.9815
G1 X44.778 Y126.317 E27.0245
G1 X44.376 Y125.963 E27.0675
G1 X43.921 Y125.682 E27.1105
G1 X43.424 Y125.483 E27.1534
G1 X42.901 Y125.370 E27.1964
G1 X42.366 Y125.347 E27.2394
G1 X41.835 Y125.415 E27.2823
G1 X41.323 Y125.572 E27.3253
G1 X40.846 Y125.813 E27.3683
G1 X40.415 Y126.131 E27.4113
G1 X40.000 Y126.565 E27.4594
G1 X40.000 Y38.435 E34.5355
G1 X40.415 Y38.869 E34.5837
G1 X40.846 Y39.187 E34.6267
G1 X41.324 Y39.428 E34.6697
G1 X41.835 Y39.585 E34.7126
