; G-Code generated by Simplify3D(R) Version 4.1.0
; Jan 18, 2019 at 4:03:14 PM
; Settings Summary
;   processName,0.5mm nozzle!
;   applyToModels,Duet3D Maestro mount
;   profileName,BortBot (modified)
;   profileVersion,2018-03-11 18:52:45
;   baseProfile,Default
;   printMaterial,PLA
;   printQuality,Medium
;   printExtruders,
;   extruderName,Extruder 1
;   extruderToolheadNumber,0
;   extruderDiameter,0.5
;   extruderAutoWidth,1
;   extruderWidth,0.6
;   extrusionMultiplier,1.02
;   extruderUseRetract,1
;   extruderRetractionDistance,3
;   extruderExtraRestartDistance,0
;   extruderRetractionZLift,0
;   extruderRetractionSpeed,1500
;   extruderUseCoasting,0
;   extruderCoastingDistance,1.4
;   extruderUseWipe,0
;   extruderWipeDistance,2
;   primaryExtruder,0
;   layerHeight,0.4
;   topSolidLayers,3
;   bottomSolidLayers,2
;   perimeterOutlines,2
;   printPerimetersInsideOut,0
;   startPointOption,2
;   startPointOriginX,0
;   startPointOriginY,0
;   sequentialIslands,0
;   spiralVaseMode,0
;   firstLayerHeightPercentage,125
;   firstLayerWidthPercentage,100
;   firstLayerUnderspeed,0.75
;   useRaft,0
;   raftExtruder,0
;   raftTopLayers,2
;   raftBaseLayers,2
;   raftOffset,3
;   raftSeparationDistance,0.3
;   raftTopInfill,90
;   aboveRaftSpeedMultiplier,0.3
;   useSkirt,1
;   skirtExtruder,0
;   skirtLayers,1
;   skirtOutlines,2
;   skirtOffset,3
;   usePrimePillar,0
;   primePillarExtruder,999
;   primePillarWidth,12
;   primePillarLocation,7
;   primePillarSpeedMultiplier,1
;   useOozeShield,0
;   oozeShieldExtruder,999
;   oozeShieldOffset,2
;   oozeShieldOutlines,1
;   oozeShieldSidewallShape,1
;   oozeShieldSidewallAngle,30
;   oozeShieldSpeedMultiplier,1
;   infillExtruder,0
;   internalInfillPattern,Fast Honeycomb
;   externalInfillPattern,Rectilinear
;   infillPercentage,20
;   outlineOverlapPercentage,35
;   infillExtrusionWidthPercentage,90
;   minInfillLength,5
;   infillLayerInterval,1
;   internalInfillAngles,0
;   overlapInternalInfillAngles,0
;   externalInfillAngles,45,-45
;   generateSupport,0
;   supportExtruder,0
;   supportInfillPercentage,20
;   supportExtraInflation,0
;   supportBaseLayers,1
;   denseSupportExtruder,0
;   denseSupportLayers,4
;   denseSupportInfillPercentage,90
;   supportLayerInterval,1
;   supportHorizontalPartOffset,0.5
;   supportUpperSeparationLayers,1
;   supportLowerSeparationLayers,1
;   supportType,0
;   supportGridSpacing,1
;   maxOverhangAngle,46
;   supportAngles,0
;   temperatureName,Extruder 1,Heated Bed
;   temperatureNumber,0,1
;   temperatureSetpointCount,1,1
;   temperatureSetpointLayers,1,1
;   temperatureSetpointTemperatures,203,60
;   temperatureStabilizeAtStartup,1,1
;   temperatureHeatedBed,0,1
;   fanLayers,1,3
;   fanSpeeds,0,60
;   blipFanToFullPower,1
;   adjustSpeedForCooling,1
;   minSpeedLayerTime,15
;   minCoolingSpeedSlowdown,20
;   increaseFanForCooling,1
;   minFanLayerTime,45
;   maxCoolingFanSpeed,100
;   increaseFanForBridging,1
;   bridgingFanSpeed,100
;   use5D,1
;   relativeEdistances,0
;   allowEaxisZeroing,1
;   independentExtruderAxes,0
;   includeM10123,0
;   stickySupport,1
;   applyToolheadOffsets,0
;   gcodeXoffset,0
;   gcodeYoffset,0
;   gcodeZoffset,0
;   overrideMachineDefinition,0
;   machineTypeOverride,0
;   strokeXoverride,100
;   strokeYoverride,100
;   strokeZoverride,100
;   originOffsetXoverride,0
;   originOffsetYoverride,0
;   originOffsetZoverride,0
;   homeXdirOverride,-1
;   homeYdirOverride,-1
;   homeZdirOverride,-1
;   flipXoverride,1
;   flipYoverride,-1
;   flipZoverride,1
;   toolheadOffsets,0,0|0,0|0,0|0,0|0,0|0,0
;   overrideFirmwareConfiguration,0
;   firmwareTypeOverride,RepRap (Marlin/Repetier/Sprinter)
;   GPXconfigOverride,r2
;   baudRateOverride,115200
;   overridePrinterModels,0
;   printerModelsOverride
;   startingGcode,G28 XY ; HOME XY,M561 ; Clear any bed transform,G1 X80 Y80 Z25; move to center of bed,G30 ;Do a single Z probe,G29 S1 ; Load bed compensating height map,G1 X0 Y0 Z10 ; Return to origin
;   layerChangeGcode,
;   retractionGcode,
;   toolChangeGcode,
;   endingGcode,G10 S5; retract filament to relieve pressure,M104 S0 ; turn off extruder,M140 S0 ; turn off bed,G91 G1 Z10 ; Clearance from part,G90 G1 X0 Y0; Go to starting position (X0 Y0 Z 170),M84 ; disable motor,M107; Turn off fan
;   exportFileFormat,gcode
;   celebration,0
;   celebrationSong,Random Song
;   postProcessing,
;   defaultSpeed,3600
;   outlineUnderspeed,0.8
;   solidInfillUnderspeed,1
;   supportUnderspeed,1
;   rapidXYspeed,5100
;   rapidZspeed,1800
;   minBridgingArea,10
;   bridgingExtraInflation,5
;   bridgingExtrusionMultiplier,0.9
;   bridgingSpeedMultiplier,0.6
;   useFixedBridgingAngle,0
;   fixedBridgingAngle,0
;   applyBridgingToPerimeters,1
;   filamentDiameters,1.75|1.75|1.75|1.75|1.75|1.75
;   filamentPricesPerKg,20|46|46|46|46|46
;   filamentDensities,1.33|1.25|1.25|1.25|1.25|1.25
;   useMinPrintHeight,0
;   minPrintHeight,40
;   useMaxPrintHeight,0
;   maxPrintHeight,60
;   useDiaphragm,0
;   diaphragmLayerInterval,20
;   robustSlicing,1
;   mergeAllIntoSolid,0
;   onlyRetractWhenCrossingOutline,1
;   retractBetweenLayers,0
;   useRetractionMinTravel,0
;   retractionMinTravel,3
;   retractWhileWiping,1
;   onlyWipeOutlines,1
;   avoidCrossingOutline,0
;   maxMovementDetourFactor,3
;   toolChangeRetractionDistance,12
;   toolChangeExtraRestartDistance,-0.5
;   toolChangeRetractionSpeed,600
;   externalThinWallType,1
;   internalThinWallType,2
;   thinWallAllowedOverlapPercentage,20
;   singleExtrusionMinLength,1
;   singleExtrusionMinPrintingWidthPercentage,50
;   singleExtrusionMaxPrintingWidthPercentage,200
;   singleExtrusionEndpointExtension,0.2
;   horizontalSizeCompensation,0
G90
M82
M106 S0
M140 S60
M190 S60
M104 S203 T0
M109 S203 T0
G28 XY ; HOME XY
M561 ; Clear any bed transform
G1 X80 Y80 Z25; move to center of bed
G30 ;Do a single Z probe
G29 S1 ; Load bed compensating height map
G1 X0 Y0 Z10 ; Return to origin
; process 0.5mm nozzle!
; layer 1, Z = 0.500
T0
; feature skirt
; tool H0.500 W0.600
G1 Z0.500 F1800
G1 X46.891 Y21.551 F5100
G92 E0.0000
G1 X47.031 Y21.277 E0.0391 F2700
G1 X47.521 Y20.477 E0.1584
G1 X47.701 Y20.230 E0.1973
G1 X48.305 Y19.522 E0.3158
G1 X48.522 Y19.306 E0.3548
G1 X49.233 Y18.699 E0.4736
G1 X49.480 Y18.519 E0.5126
G1 X50.277 Y18.031 E0.6314
G1 X50.550 Y17.891 E0.6704
G1 X51.413 Y17.534 E0.7893
G1 X51.705 Y17.439 E0.8283
G1 X52.613 Y17.221 E0.9471
G1 X52.916 Y17.173 E0.9861
G1 X53.770 Y17.106 E1.0952
G1 X53.923 Y17.100 E1.1147
G1 X146.084 Y17.100 E12.8394
G1 X146.252 Y17.107 E12.8607
G1 X147.138 Y17.184 E12.9739
G1 X147.426 Y17.231 E13.0110
G1 X148.296 Y17.439 E13.1248
G1 X148.587 Y17.534 E13.1637
G1 X149.450 Y17.891 E13.2826
G1 X149.723 Y18.031 E13.3216
G1 X150.519 Y18.519 E13.4404
G1 X150.767 Y18.699 E13.4794
G1 X151.478 Y19.305 E13.5982
G1 X151.695 Y19.522 E13.6372
G1 X152.301 Y20.233 E13.7561
G1 X152.481 Y20.480 E13.7951
G1 X152.969 Y21.277 E13.9139
G1 X153.109 Y21.550 E13.9529
G1 X153.466 Y22.413 E14.0717
G1 X153.561 Y22.704 E14.1107
G1 X153.779 Y23.613 E14.2295
G1 X153.827 Y23.915 E14.2685
G1 X153.894 Y24.770 E14.3776
G1 X153.900 Y24.923 E14.3971
G1 X153.900 Y140.077 E29.0469
G1 X153.894 Y140.230 E29.0664
G1 X153.827 Y141.085 E29.1755
G1 X153.779 Y141.387 E29.2145
G1 X153.561 Y142.296 E29.3333
G1 X153.466 Y142.587 E29.3723
G1 X153.109 Y143.450 E29.4911
G1 X152.969 Y143.723 E29.5301
G1 X152.481 Y144.519 E29.6490
G1 X152.301 Y144.767 E29.6879
G1 X151.695 Y145.478 E29.8068
G1 X151.478 Y145.695 E29.8458
G1 X150.767 Y146.301 E29.9646
G1 X150.519 Y146.481 E30.0036
G1 X149.723 Y146.969 E30.1225
G1 X149.450 Y147.109 E30.1614
G1 X148.587 Y147.466 E30.2803
G1 X148.296 Y147.561 E30.3193
G1 X147.387 Y147.779 E30.4381
G1 X147.085 Y147.827 E30.4771
G1 X146.230 Y147.894 E30.5862
G1 X146.077 Y147.900 E30.6057
G1 X53.923 Y147.900 E42.3294
G1 X53.770 Y147.894 E42.3489
G1 X52.915 Y147.827 E42.4580
G1 X52.613 Y147.779 E42.4970
G1 X51.705 Y147.561 E42.6158
G1 X51.413 Y147.466 E42.6548
G1 X50.550 Y147.109 E42.7736
G1 X50.277 Y146.969 E42.8126
G1 X49.480 Y146.481 E42.9315
G1 X49.233 Y146.301 E42.9705
G1 X48.522 Y145.695 E43.0893
G1 X48.305 Y145.478 E43.1283
G1 X47.699 Y144.767 E43.2471
G1 X47.519 Y144.519 E43.2861
G1 X47.031 Y143.723 E43.4050
G1 X46.891 Y143.450 E43.4439
G1 X46.534 Y142.587 E43.5628
G1 X46.439 Y142.296 E43.6018
G1 X46.221 Y141.387 E43.7206
G1 X46.173 Y141.084 E43.7596
G1 X46.106 Y140.230 E43.8687
G1 X46.100 Y140.077 E43.8882
G1 X46.100 Y24.923 E58.5380
G1 X46.106 Y24.770 E58.5574
G1 X46.173 Y23.916 E58.6665
G1 X46.221 Y23.613 E58.7055
G1 X46.439 Y22.704 E58.8244
G1 X46.534 Y22.413 E58.8634
G1 X46.891 Y21.551 E58.9821
G92 E0.0000
G1 E-3.0000 F1500
G1 X47.436 Y21.802 F5100
G1 E0.0000 F1500
G92 E0.0000
G1 X47.554 Y21.571 E0.0330 F2700
G1 X48.020 Y20.811 E0.1464
G1 X48.172 Y20.602 E0.1793
G1 X48.746 Y19.930 E0.2918
G1 X48.930 Y19.746 E0.3248
G1 X49.604 Y19.170 E0.4376
G1 X49.814 Y19.018 E0.4706
G1 X50.570 Y18.555 E0.5835
G1 X50.801 Y18.437 E0.6165
G1 X51.621 Y18.097 E0.7293
G1 X51.868 Y18.017 E0.7623
G1 X52.730 Y17.810 E0.8751
G1 X52.986 Y17.770 E0.9081
G1 X53.806 Y17.705 E1.0127
G1 X53.935 Y17.700 E1.0292
G1 X146.071 Y17.700 E12.7507
G1 X146.213 Y17.706 E12.7688
G1 X147.064 Y17.780 E12.8775
G1 X147.308 Y17.819 E12.9089
G1 X148.133 Y18.017 E13.0168
G1 X148.379 Y18.097 E13.0498
G1 X149.199 Y18.437 E13.1626
G1 X149.430 Y18.554 E13.1956
G1 X150.186 Y19.018 E13.3084
G1 X150.396 Y19.170 E13.3414
G1 X151.070 Y19.746 E13.4543
G1 X151.254 Y19.930 E13.4873
G1 X151.830 Y20.604 E13.6001
G1 X151.982 Y20.814 E13.6331
G1 X152.446 Y21.570 E13.7460
G1 X152.563 Y21.801 E13.7789
G1 X152.903 Y22.621 E13.8918
G1 X152.983 Y22.867 E13.9248
G1 X153.190 Y23.730 E14.0376
G1 X153.230 Y23.986 E14.0706
G1 X153.295 Y24.806 E14.1752
G1 X153.300 Y24.935 E14.1917
G1 X153.300 Y140.065 E28.8385
G1 X153.295 Y140.194 E28.8550
G1 X153.230 Y141.014 E28.9596
G1 X153.190 Y141.270 E28.9925
G1 X152.983 Y142.132 E29.1054
G1 X152.903 Y142.379 E29.1384
G1 X152.563 Y143.199 E29.2512
G1 X152.446 Y143.430 E29.2842
G1 X151.982 Y144.186 E29.3970
G1 X151.830 Y144.396 E29.4300
G1 X151.254 Y145.070 E29.5429
G1 X151.070 Y145.254 E29.5759
G1 X150.396 Y145.830 E29.6887
G1 X150.186 Y145.982 E29.7217
G1 X149.430 Y146.446 E29.8346
G1 X149.199 Y146.563 E29.8675
G1 X148.379 Y146.903 E29.9804
G1 X148.132 Y146.983 E30.0134
G1 X147.270 Y147.190 E30.1262
G1 X147.014 Y147.230 E30.1592
G1 X146.194 Y147.295 E30.2638
G1 X146.065 Y147.300 E30.2803
G1 X53.935 Y147.300 E42.0010
G1 X53.806 Y147.295 E42.0175
G1 X52.986 Y147.230 E42.1221
G1 X52.730 Y147.190 E42.1551
G1 X51.868 Y146.983 E42.2679
G1 X51.621 Y146.903 E42.3009
G1 X50.801 Y146.563 E42.4138
G1 X50.570 Y146.445 E42.4468
G1 X49.814 Y145.982 E42.5596
G1 X49.604 Y145.830 E42.5926
G1 X48.930 Y145.253 E42.7054
G1 X48.746 Y145.070 E42.7384
G1 X48.170 Y144.396 E42.8513
G1 X48.018 Y144.186 E42.8842
G1 X47.554 Y143.430 E42.9971
G1 X47.437 Y143.199 E43.0301
G1 X47.097 Y142.379 E43.1429
G1 X47.017 Y142.133 E43.1759
G1 X46.810 Y141.270 E43.2888
G1 X46.770 Y141.014 E43.3217
G1 X46.705 Y140.194 E43.4263
G1 X46.700 Y140.065 E43.4428
G1 X46.700 Y24.935 E58.0896
G1 X46.705 Y24.806 E58.1061
G1 X46.770 Y23.986 E58.2107
G1 X46.810 Y23.730 E58.2437
G1 X47.017 Y22.867 E58.3565
G1 X47.097 Y22.621 E58.3895
G1 X47.436 Y21.802 E58.5022
G92 E0.0000
G1 E-3.0000 F1500
; feature outer perimeter
G1 X50.704 Y23.322 F5100
G1 E0.0000 F1500
G92 E0.0000
G1 X51.009 Y22.824 E0.0744 F2160
G1 X51.384 Y22.384 E0.1479
G1 X51.826 Y22.007 E0.2217
G1 X52.321 Y21.704 E0.2956
G1 X52.857 Y21.482 E0.3694
G1 X53.421 Y21.346 E0.4433
G1 X54.012 Y21.300 E0.5186
G1 X145.987 Y21.300 E12.2197
G1 X146.609 Y21.354 E12.2991
G1 X147.143 Y21.482 E12.3690
G1 X147.679 Y21.704 E12.4428
G1 X148.174 Y22.007 E12.5167
G1 X148.616 Y22.384 E12.5905
G1 X148.993 Y22.826 E12.6644
G1 X149.296 Y23.321 E12.7382
G1 X149.518 Y23.857 E12.8121
G1 X149.654 Y24.421 E12.8859
G1 X149.700 Y25.012 E12.9613
G1 X149.700 Y139.988 E27.5886
G1 X149.654 Y140.579 E27.6639
G1 X149.518 Y141.143 E27.7378
G1 X149.296 Y141.679 E27.8116
G1 X148.993 Y142.174 E27.8854
G1 X148.616 Y142.616 E27.9593
G1 X148.174 Y142.993 E28.0331
G1 X147.679 Y143.296 E28.1070
G1 X147.143 Y143.518 E28.1808
G1 X146.579 Y143.654 E28.2547
G1 X145.988 Y143.700 E28.3300
G1 X54.012 Y143.700 E40.0313
G1 X53.421 Y143.654 E40.1066
G1 X52.857 Y143.518 E40.1805
G1 X52.321 Y143.296 E40.2543
G1 X51.826 Y142.993 E40.3282
G1 X51.384 Y142.616 E40.4020
G1 X51.007 Y142.174 E40.4758
G1 X50.704 Y141.679 E40.5497
G1 X50.482 Y141.143 E40.6235
G1 X50.346 Y140.579 E40.6974
G1 X50.300 Y139.988 E40.7727
G1 X50.300 Y25.012 E55.4000
G1 X50.346 Y24.421 E55.4754
G1 X50.482 Y23.857 E55.5492
G1 X50.704 Y23.322 E55.6229
; feature inner perimeter
G1 X51.240 Y23.595 F5100
G92 E0.0000
G1 X51.496 Y23.177 E0.0624 F2430
G1 X51.810 Y22.810 E0.1239
G1 X52.179 Y22.494 E0.1857
G1 X52.594 Y22.240 E0.2475
G1 X53.043 Y22.054 E0.3094
G1 X53.515 Y21.941 E0.3712
G1 X54.035 Y21.900 E0.4375
G1 X145.961 Y21.900 E12.1323
G1 X146.513 Y21.948 E12.2028
G1 X146.957 Y22.054 E12.2609
G1 X147.406 Y22.240 E12.3227
G1 X147.821 Y22.494 E12.3846
G1 X148.190 Y22.810 E12.4464
G1 X148.506 Y23.180 E12.5082
G1 X148.760 Y23.594 E12.5700
G1 X148.946 Y24.043 E12.6319
G1 X149.059 Y24.516 E12.6937
G1 X149.100 Y25.035 E12.7600
G1 X149.100 Y139.965 E27.3814
G1 X149.059 Y140.484 E27.4477
G1 X148.946 Y140.957 E27.5095
G1 X148.760 Y141.406 E27.5714
G1 X148.506 Y141.821 E27.6332
G1 X148.190 Y142.190 E27.6950
G1 X147.821 Y142.506 E27.7568
G1 X147.406 Y142.760 E27.8187
G1 X146.957 Y142.946 E27.8805
G1 X146.484 Y143.059 E27.9423
G1 X145.965 Y143.100 E28.0087
G1 X54.035 Y143.100 E39.7039
G1 X53.516 Y143.059 E39.7703
G1 X53.043 Y142.946 E39.8321
G1 X52.594 Y142.760 E39.8939
G1 X52.179 Y142.506 E39.9558
G1 X51.810 Y142.190 E40.0176
G1 X51.494 Y141.821 E40.0794
G1 X51.240 Y141.406 E40.1413
G1 X51.054 Y140.957 E40.2031
G1 X50.941 Y140.485 E40.2649
G1 X50.900 Y139.965 E40.3313
G1 X50.900 Y25.035 E54.9526
G1 X50.941 Y24.515 E55.0189
G1 X51.054 Y24.043 E55.0807
G1 X51.240 Y23.595 E55.1424
; feature outer perimeter
G1 X52.339 Y23.977 F5100
G92 E0.0000
G1 X52.190 Y24.273 E0.0421 F2160
G1 X52.093 Y24.589 E0.0842
G1 X52.051 Y24.917 E0.1263
G1 X52.065 Y25.248 E0.1684
G1 X52.134 Y25.571 E0.2105
G1 X52.258 Y25.878 E0.2526
G1 X52.431 Y26.160 E0.2947
G1 X52.650 Y26.409 E0.3368
G1 X52.907 Y26.616 E0.3789
G1 X53.196 Y26.778 E0.4210
G1 X53.508 Y26.888 E0.4631
G1 X53.835 Y26.944 E0.5052
G1 X54.165 Y26.944 E0.5473
G1 X54.492 Y26.888 E0.5894
G1 X54.804 Y26.778 E0.6315
G1 X55.093 Y26.616 E0.6736
G1 X55.350 Y26.409 E0.7157
G1 X55.569 Y26.160 E0.7578
G1 X55.742 Y25.878 E0.7999
G1 X55.866 Y25.571 E0.8420
G1 X55.935 Y25.248 E0.8841
G1 X55.949 Y24.917 E0.9262
G1 X55.907 Y24.589 E0.9683
G1 X55.810 Y24.273 E1.0104
G1 X55.661 Y23.977 E1.0525
G1 X55.465 Y23.711 E1.0946
G1 X55.226 Y23.482 E1.1367
G1 X54.952 Y23.297 E1.1788
G1 X54.650 Y23.160 E1.2209
G1 X54.329 Y23.077 E1.2631
G1 X53.991 Y23.050 E1.3063
G1 X53.670 Y23.077 E1.3472
G1 X53.350 Y23.160 E1.3893
G1 X53.048 Y23.297 E1.4314
G1 X52.774 Y23.482 E1.4735
G1 X52.535 Y23.711 E1.5156
G1 X52.339 Y23.977 E1.5577
; feature inner perimeter
G1 X51.826 Y23.661 F5100
G92 E0.0000
G1 X51.631 Y24.048 E0.0551 F2430
G1 X51.504 Y24.462 E0.1102
G1 X51.449 Y24.892 E0.1653
G1 X51.467 Y25.324 E0.2204
G1 X51.559 Y25.748 E0.2755
G1 X51.720 Y26.149 E0.3306
G1 X51.947 Y26.518 E0.3857
G1 X52.233 Y26.843 E0.4407
G1 X52.570 Y27.115 E0.4958
G1 X52.948 Y27.327 E0.5509
G1 X53.357 Y27.471 E0.6060
G1 X53.783 Y27.544 E0.6611
G1 X54.217 Y27.544 E0.7162
G1 X54.643 Y27.471 E0.7713
G1 X55.052 Y27.327 E0.8264
G1 X55.430 Y27.115 E0.8815
G1 X55.767 Y26.843 E0.9366
G1 X56.053 Y26.518 E0.9917
G1 X56.280 Y26.149 E1.0468
G1 X56.441 Y25.748 E1.1019
G1 X56.533 Y25.324 E1.1570
G1 X56.551 Y24.892 E1.2121
G1 X56.496 Y24.462 E1.2672
G1 X56.369 Y24.048 E1.3223
G1 X56.174 Y23.661 E1.3774
G1 X55.917 Y23.313 E1.4324
G1 X55.604 Y23.013 E1.4875
G1 X55.245 Y22.771 E1.5426
G1 X54.851 Y22.593 E1.5977
G1 X54.429 Y22.483 E1.6531
G1 X53.989 Y22.448 E1.7093
G1 X53.568 Y22.483 E1.7630
