; G-Code generated by Simplify3D(R) Version 3.1.1
; Apr 15, 2017 at 5:50:13 PM
; Settings Summary
;   processName,normal (clear)
;   applyToModels,FilamentSensor
;   profileName,Default (modified)
;   profileVersion,2015-07-02 16:19:25
;   baseProfile,normal (modified)
;   printMaterial,PLA
;   printQuality,Fast
;   printExtruders,
;   extruderName,Extruder 1
;   extruderToolheadNumber,0
;   extruderDiameter,0.4
;   extruderAutoWidth,1
;   extruderWidth,0.48
;   extrusionMultiplier,1
;   extruderUseRetract,1
;   extruderRetractionDistance,3.1
;   extruderExtraRestartDistance,0
;   extruderRetractionZLift,0
;   extruderRetractionSpeed,1800
;   extruderUseCoasting,0
;   extruderCoastingDistance,0.2
;   extruderUseWipe,0
;   extruderWipeDistance,5
;   primaryExtruder,0
;   layerHeight,0.25
;   topSolidLayers,2
;   bottomSolidLayers,2
;   perimeterOutlines,3
;   printPerimetersInsideOut,1
;   startPointOption,2
;   startPointOriginX,0
;   startPointOriginY,0
;   startPointOriginZ,300
;   sequentialIslands,0
;   spiralVaseMode,0
;   firstLayerHeightPercentage,100
;   firstLayerWidthPercentage,105
;   firstLayerUnderspeed,0.4
;   useRaft,1
;   raftExtruder,0
;   raftLayers,1
;   raftOffset,0.6
;   raftSeparationDistance,0.24
;   raftInfill,75
;   disableRaftBaseLayers,0
;   useSkirt,1
;   skirtExtruder,0
;   skirtLayers,1
;   skirtOutlines,1
;   skirtOffset,5
;   usePrimePillar,0
;   primePillarExtruder,999
;   primePillarWidth,12
;   primePillarLocation,7
;   primePillarSpeedMultiplier,1
;   useOozeShield,0
;   oozeShieldExtruder,999
;   oozeShieldOffset,2
;   oozeShieldOutlines,1
;   oozeShieldSidewallShape,1
;   oozeShieldSidewallAngle,30
;   oozeShieldSpeedMultiplier,1
;   infillExtruder,0
;   internalInfillPattern,Grid
;   externalInfillPattern,Rectilinear
;   infillPercentage,50
;   outlineOverlapPercentage,15
;   infillExtrusionWidthPercentage,100
;   minInfillLength,5
;   infillLayerInterval,1
;   infillAngles,45,-45
;   overlapInfillAngles,1
;   generateSupport,0
;   supportExtruder,0
;   supportInfillPercentage,30
;   supportExtraInflation,0.2
;   denseSupportLayers,2
;   denseSupportInfillPercentage,80
;   supportLayerInterval,1
;   supportHorizontalPartOffset,0.3
;   supportUpperSeparationLayers,1
;   supportLowerSeparationLayers,1
;   supportType,0
;   supportGridSpacing,1.5
;   maxOverhangAngle,40
;   supportAngles,0
;   temperatureName,Extruder 1 Temperature
;   temperatureNumber,0
;   temperatureSetpointCount,1
;   temperatureSetpointLayers,1
;   temperatureSetpointTemperatures,205
;   temperatureStabilizeAtStartup,1
;   temperatureHeatedBed,0
;   temperatureRelayBetweenLayers,1
;   temperatureRelayBetweenLoops,0
;   fanLayers,1
;   fanSpeeds,0
;   blipFanToFullPower,0
;   adjustSpeedForCooling,1
;   minSpeedLayerTime,20
;   minCoolingSpeedSlowdown,20
;   increaseFanForCooling,0
;   minFanLayerTime,45
;   maxCoolingFanSpeed,100
;   increaseFanForBridging,0
;   bridgingFanSpeed,100
;   use5D,1
;   relativeEdistances,0
;   allowEaxisZeroing,1
;   independentExtruderAxes,0
;   includeM10123,0
;   stickySupport,1
;   applyToolheadOffsets,0
;   gcodeXoffset,0
;   gcodeYoffset,0
;   gcodeZoffset,0
;   overrideMachineDefinition,0
;   machineTypeOverride,0
;   strokeXoverride,113
;   strokeYoverride,187
;   strokeZoverride,100
;   originOffsetXoverride,0
;   originOffsetYoverride,0
;   originOffsetZoverride,0
;   homeXdirOverride,-1
;   homeYdirOverride,-1
;   homeZdirOverride,-1
;   flipXoverride,1
;   flipYoverride,-1
;   flipZoverride,1
;   toolheadOffsets,0,0|0,0|0,0|0,0|0,0|0,0
;   overrideFirmwareConfiguration,1
;   firmwareTypeOverride,RepRap (Marlin/Repetier/Sprinter)
;   GPXconfigOverride,r2
;   baudRateOverride,115200
;   overridePrinterModels,0
;   printerModelsOverride
;   startingGcode,G92 X0 Y0 ; zero X and Y axes,G28 Z; GO TO HOME ON Z
;   layerChangeGcode,
;   retractionGcode,
;   toolChangeGcode,
;   endingGcode,M104 S0 ; turn off extruder,M140 S0 ; turn off bed,G91 ; set to incrimental,G1 Z10 F5000 ; lift nozzle,G90 ; Absolute Positioning,G1 X0 ; move X to left,M84 ; disable motors
;   exportFileFormat,gcode
;   celebration,0
;   celebrationSong,Random Song
;   postProcessing,
;   defaultSpeed,4200
;   outlineUnderspeed,1
;   solidInfillUnderspeed,0.9
;   supportUnderspeed,0.75
;   rapidXYspeed,4800
;   rapidZspeed,1002
;   minBridgingArea,50
;   bridgingExtraInflation,0
;   bridgingExtrusionMultiplier,1
;   bridgingSpeedMultiplier,1
;   filamentDiameter,1.7
;   filamentPricePerKg,27
;   filamentDensity,1.25
;   useMinPrintHeight,0
;   minPrintHeight,0
;   useMaxPrintHeight,0
;   maxPrintHeight,10
;   useDiaphragm,0
;   diaphragmLayerInterval,20
;   robustSlicing,1
;   mergeAllIntoSolid,0
;   onlyRetractWhenCrossingOutline,1
;   retractBetweenLayers,0
;   useRetractionMinTravel,0
;   retractionMinTravel,3
;   retractWhileWiping,0
;   onlyWipeOutlines,1
;   avoidCrossingOutline,0
;   maxMovementDetourFactor,3
;   toolChangeRetractionDistance,12
;   toolChangeExtraRestartDistance,-0.5
;   toolChangeRetractionSpeed,600
;   allowThinWallGapFill,1
;   thinWallAllowedOverlapPercentage,15
;   horizontalSizeCompensation,0
G90
M82
M106 S0
M104 S205 T0
M109 S205 T0
G92 X0 Y0 ; zero X and Y axes
G28 Z; GO TO HOME ON Z
G92 E0
G1 E-3.1000 F1800
G1 Z0.500 F1002
; layer 1, Z = 0.5
M105
T0
; tool H0.500 W0.504
; skirt
G1 X40.035 Y60.659 F4800
G1 E0.0000 F540
G92 E0
G1 X40.056 Y60.648 E0.0026 F1680
G1 X41.943 Y59.866 E0.2294
G1 X41.966 Y59.859 E0.2320
G1 X42.955 Y59.662 E0.3440
G1 X42.979 Y59.660 E0.3466
G1 X67.220 Y59.660 E3.0380
G1 X67.267 Y59.669 E3.0432
G1 X69.148 Y60.449 E3.2693
G1 X69.187 Y60.475 E3.2746
G1 X72.150 Y63.438 E3.7398
G1 X72.176 Y63.477 E3.7450
G1 X72.956 Y65.358 E3.9711
G1 X72.965 Y65.405 E3.9764
G1 X72.965 Y89.595 E6.6621
G1 X72.956 Y89.642 E6.6673
G1 X72.176 Y91.523 E6.8934
G1 X72.150 Y91.562 E6.8986
G1 X69.187 Y94.525 E7.3639
G1 X69.148 Y94.551 E7.3691
G1 X67.267 Y95.331 E7.5952
G1 X67.220 Y95.340 E7.6004
G1 X42.979 Y95.340 E10.2918
G1 X42.955 Y95.338 E10.2944
G1 X41.966 Y95.141 E10.4064
G1 X41.943 Y95.134 E10.4090
G1 X40.056 Y94.352 E10.6358
G1 X40.035 Y94.341 E10.6384
G1 X39.197 Y93.781 E10.7504
G1 X39.179 Y93.766 E10.7530
G1 X33.734 Y88.321 E11.6079
G1 X33.719 Y88.303 E11.6105
G1 X33.159 Y87.465 E11.7225
G1 X33.148 Y87.444 E11.7251
G1 X32.366 Y85.557 E11.9519
G1 X32.359 Y85.534 E11.9545
G1 X32.162 Y84.545 E12.0665
G1 X32.160 Y84.521 E12.0691
G1 X32.160 Y70.479 E13.6282
G1 X32.162 Y70.455 E13.6308
G1 X32.359 Y69.466 E13.7427
G1 X32.366 Y69.443 E13.7454
G1 X33.148 Y67.556 E13.9722
G1 X33.159 Y67.535 E13.9748
G1 X33.719 Y66.697 E14.0867
G1 X33.734 Y66.679 E14.0894
G1 X39.179 Y61.234 E14.9442
G1 X39.197 Y61.219 E14.9468
G1 X40.035 Y60.659 E15.0588
; tool H0.500 W0.840
; raft
G1 X42.754 Y65.635 F4800
G92 E0
G1 X43.562 Y65.300 E0.1619 F420
G1 X66.036 Y65.300 E4.3205
G1 X67.325 Y66.589 E4.6577
G1 X67.325 Y88.411 E8.6957
G1 X66.036 Y89.700 E9.0330
G1 X43.562 Y89.700 E13.1915
G1 X42.754 Y89.365 E13.3534
G1 X38.135 Y84.746 E14.5621
G1 X37.800 Y83.938 E14.7241
G1 X37.800 Y71.062 E17.1065
G1 X38.135 Y70.254 E17.2684
G1 X42.754 Y65.635 E18.4771
G1 X41.163 Y68.357 F4800
G92 E0
G1 X66.525 Y68.357 E4.6929 F420
G1 X66.525 Y70.643 E5.1159
G1 X38.877 Y70.643 E10.2318
G1 X38.813 Y70.707 E10.2486
G1 X38.600 Y71.222 E10.3516
G1 X38.600 Y72.929 E10.6675
G1 X66.525 Y72.929 E15.8347
G1 X66.525 Y75.214 E16.2576
G1 X38.600 Y75.214 E21.4248
G1 X38.600 Y77.500 E21.8478
G1 X66.525 Y77.500 E27.0150
G1 X66.525 Y79.786 E27.4379
G1 X38.600 Y79.786 E32.6051
G1 X38.600 Y82.071 E33.0280
G1 X66.525 Y82.071 E38.1952
G1 X66.525 Y84.357 E38.6182
G1 X38.877 Y84.357 E43.7341
G1 X41.163 Y86.643 E44.3322
G1 X66.525 Y86.643 E49.0251
; layer 2, Z = 1
M105
; tool H0.500 W0.800
; raft
G1 X67.325 Y88.411 F4800
G1 Z1.000 F1002
G92 E0
G1 X66.036 Y89.700 E0.3212 F1050
G1 X43.562 Y89.700 E4.2817
G1 X42.754 Y89.365 E4.4359
G1 X38.135 Y84.746 E5.5870
G1 X37.800 Y83.938 E5.7413
G1 X37.800 Y71.062 E8.0102
G1 X38.135 Y70.254 E8.1645
G1 X42.754 Y65.635 E9.3156
G1 X43.562 Y65.300 E9.4698
G1 X66.036 Y65.300 E13.4303
G1 X67.325 Y66.589 E13.7515
G1 X67.325 Y88.411 E17.5972
G1 X66.525 Y86.643 F4800
G92 E0
G1 X41.163 Y86.643 E4.4695 F1050
G1 X38.877 Y84.357 E5.0391
G1 X66.525 Y84.357 E9.9114
G1 X66.525 Y82.071 E10.3142
G1 X38.600 Y82.071 E15.2353
G1 X38.600 Y79.786 E15.6381
G1 X66.525 Y79.786 E20.5593
G1 X66.525 Y77.500 E20.9621
G1 X38.600 Y77.500 E25.8832
G1 X38.600 Y75.214 E26.2860
G1 X66.525 Y75.214 E31.2072
G1 X66.525 Y72.929 E31.6100
G1 X38.600 Y72.929 E36.5311
G1 X38.600 Y71.222 E36.8319
G1 X38.813 Y70.707 E36.9301
G1 X38.877 Y70.643 E36.9460
G1 X66.525 Y70.643 E41.8183
G1 X66.525 Y68.357 E42.2211
G1 X41.163 Y68.357 E46.6906
; layer 3, Z = 1.37647
M105
; tool H0.376 W0.640
; raft
G1 X38.580 Y85.304 F4800
G1 Z1.376 F1002
G92 E0
G1 X38.580 Y69.696 E1.6569 F2100
G1 X39.860 Y68.416 E1.8490
G1 X39.860 Y86.584 E3.7777
G1 X41.140 Y87.864 E3.9698
G1 X41.140 Y67.136 E6.1702
G1 X42.420 Y65.856 E6.3624
G1 X42.420 Y89.144 E8.8345
G1 X42.708 Y89.433 E8.8778
G1 X43.546 Y89.780 E8.9741
G1 X43.700 Y89.780 E8.9904
G1 X43.700 Y65.220 E11.5975
G1 X44.980 Y65.220 E11.7333
G1 X44.980 Y89.780 E14.3404
G1 X46.260 Y89.780 E14.4763
G1 X46.260 Y65.220 E17.0833
G1 X47.540 Y65.220 E17.2192
G1 X47.540 Y89.780 E19.8263
G1 X48.820 Y89.780 E19.9621
G1 X48.820 Y65.220 E22.5692
G1 X50.100 Y65.220 E22.7051
G1 X50.100 Y89.780 E25.3121
G1 X51.380 Y89.780 E25.4480
G1 X51.380 Y65.220 E28.0551
G1 X52.660 Y65.220 E28.1910
G1 X52.660 Y89.780 E30.7980
G1 X53.940 Y89.780 E30.9339
G1 X53.940 Y65.220 E33.5410
G1 X55.220 Y65.220 E33.6768
G1 X55.220 Y89.780 E36.2839
G1 X56.500 Y89.780 E36.4198
G1 X56.500 Y65.220 E39.0268
G1 X57.780 Y65.220 E39.1627
G1 X57.780 Y89.780 E41.7698
G1 X59.060 Y89.780 E41.9056
G1 X59.060 Y65.220 E44.5127
G1 X60.340 Y65.220 E44.6486
G1 X60.340 Y89.780 E47.2556
G1 X61.620 Y89.780 E47.3915
G1 X61.620 Y65.220 E49.9986
G1 X62.900 Y65.220 E50.1345
G1 X62.900 Y89.780 E52.7415
G1 X64.180 Y89.780 E52.8774
G1 X64.180 Y65.220 E55.4845
G1 X65.460 Y65.220 E55.6203
G1 X65.460 Y89.780 E58.2274
G1 X66.069 Y89.780 E58.2921
G1 X66.740 Y89.109 E58.3927
G1 X66.740 Y65.891 E60.8574
; layer 4, Z = 1.59869
M105
; tool H0.222 W0.400
; raft
G1 X65.081 Y87.900 F4800
G1 Z1.599 F1002
G92 E0
G1 X65.367 Y87.823 E0.0116 F2100
G1 X65.525 Y87.666 E0.0203
G1 X65.525 Y87.229 E0.0374
G1 X63.021 Y87.900 E0.1389
G1 X60.960 Y87.900 E0.2196
G1 X65.525 Y86.677 E0.4047
G1 X65.525 Y86.125 E0.4263
G1 X58.900 Y87.900 E0.6950
G1 X56.839 Y87.900 E0.7757
G1 X65.525 Y85.573 E1.1278
G1 X65.525 Y85.020 E1.1494
G1 X54.778 Y87.900 E1.5851
G1 X52.718 Y87.900 E1.6658
G1 X65.525 Y84.468 E2.1851
G1 X65.525 Y83.916 E2.2067
G1 X50.657 Y87.900 E2.8095
G1 X48.596 Y87.900 E2.8902
G1 X65.525 Y83.364 E3.5765
G1 X65.525 Y82.812 E3.5982
G1 X46.536 Y87.900 E4.3680
G1 X44.475 Y87.900 E4.4487
G1 X65.525 Y82.260 E5.3022
G1 X65.525 Y81.708 E5.3238
G1 X43.534 Y87.600 E6.2154
G1 X43.099 Y87.164 E6.2395
G1 X65.525 Y81.155 E7.1487
G1 X65.525 Y80.603 E7.1703
G1 X42.663 Y86.729 E8.0972
G1 X42.228 Y86.294 E8.1213
G1 X65.525 Y80.051 E9.0659
G1 X65.525 Y79.499 E9.0875
G1 X41.792 Y85.858 E10.0497
G1 X41.357 Y85.423 E10.0738
G1 X65.525 Y78.947 E11.0536
G1 X65.525 Y78.395 E11.0753
G1 X40.921 Y84.987 E12.0728
G1 X40.486 Y84.552 E12.0969
G1 X65.525 Y77.843 E13.1120
G1 X65.525 Y77.290 E13.1337
G1 X40.051 Y84.116 E14.1665
G1 X39.661 Y83.727 E14.1880
G1 X39.639 Y83.674 E14.1903
G1 X65.525 Y76.738 E15.2397
G1 X65.525 Y76.186 E15.2614
G1 X39.600 Y83.133 E16.3124
G1 X39.600 Y82.581 E16.3341
G1 X65.525 Y75.634 E17.3852
G1 X65.525 Y75.082 E17.4068
G1 X39.600 Y82.028 E18.4579
G1 X39.600 Y81.476 E18.4795
G1 X65.525 Y74.530 E19.5306
G1 X65.525 Y73.977 E19.5522
G1 X39.600 Y80.924 E20.6033
G1 X39.600 Y80.372 E20.6249
G1 X65.525 Y73.425 E21.6760
G1 X65.525 Y72.873 E21.6976
G1 X39.600 Y79.820 E22.7487
G1 X39.600 Y79.268 E22.7703
G1 X65.525 Y72.321 E23.8214
G1 X65.525 Y71.769 E23.8430
G1 X39.600 Y78.715 E24.8941
G1 X39.600 Y78.163 E24.9157
G1 X65.525 Y71.217 E25.9668
G1 X65.525 Y70.665 E25.9884
G1 X39.600 Y77.611 E27.0395
G1 X39.600 Y77.059 E27.0611
G1 X65.525 Y70.112 E28.1122
G1 X65.525 Y69.560 E28.1338
G1 X39.600 Y76.507 E29.1849
G1 X39.600 Y75.955 E29.2065
G1 X65.525 Y69.008 E30.2576
G1 X65.525 Y68.456 E30.2792
G1 X39.600 Y75.403 E31.3303
G1 X39.600 Y74.850 E31.3519
G1 X65.525 Y67.904 E32.4030
G1 X65.525 Y67.352 E32.4246
G1 X39.600 Y74.298 E33.4757
G1 X39.600 Y73.746 E33.4973
G1 X64.404 Y67.100 E34.5029
G1 X62.343 Y67.100 E34.5836
G1 X39.600 Y73.194 E35.5057
G1 X39.600 Y72.642 E35.5273
G1 X60.282 Y67.100 E36.3658
G1 X58.222 Y67.100 E36.4465
G1 X39.600 Y72.090 E37.2015
G1 X39.600 Y71.538 E37.2231
G1 X56.161 Y67.100 E37.8946
G1 X54.101 Y67.100 E37.9753
G1 X40.077 Y70.858 E38.5438
G1 X40.831 Y70.103 E38.5856
G1 X52.040 Y67.100 E39.0401
G1 X49.979 Y67.100 E39.1208
G1 X41.585 Y69.349 E39.4611
G1 X42.339 Y68.595 E39.5029
G1 X47.919 Y67.100 E39.7291
G1 X45.858 Y67.100 E39.8097
G1 X43.094 Y67.841 E39.9218
G92 E0
G1 E-3.1000 F1800
; layer 5, Z = 2.10049
M105
; tool H0.262 W0.480
; inner perimeter
G1 X44.497 Y68.700 F4800
G1 Z2.100 F1002
G1 E0.0000 F1800
G92 E0
G1 X63.925 Y68.700 E1.0756 F4200
G1 X63.925 Y86.300 E2.0500
G1 X44.497 Y86.300 E3.1256
G1 X41.200 Y83.003 E3.3837
G1 X41.200 Y71.997 E3.9931
G1 X44.497 Y68.700 E4.2512
; inner perimeter
G1 X44.298 Y68.220 F4800
G92 E0
G1 X64.405 Y68.220 E1.1132 F4200
G1 X64.405 Y86.780 E2.1407
G1 X44.298 Y86.780 E3.2539
G1 X40.720 Y83.202 E3.5341
G1 X40.720 Y71.798 E4.1654
G1 X44.298 Y68.220 E4.4456
; outer perimeter
G1 X44.099 Y67.740 F4800
G92 E0
G1 X64.885 Y67.740 E1.1508 F4200
G1 X64.885 Y87.260 E2.2315
G1 X44.099 Y87.260 E3.3822
G1 X40.240 Y83.401 E3.6844
G1 X40.240 Y71.599 E4.3377
G1 X44.099 Y67.740 E4.6399
; solid layer
G1 X41.608 Y82.294 F4800
G92 E0
G1 X45.206 Y85.892 E0.2817 F3780
G1 X45.885 Y85.892 E0.3193
G1 X41.608 Y81.615 E0.6542
G1 X41.608 Y80.936 E0.6918
G1 X46.564 Y85.892 E1.0798
G1 X47.243 Y85.892 E1.1174
G1 X41.608 Y80.257 E1.5585
G1 X41.608 Y79.579 E1.5961
G1 X47.921 Y85.892 E2.0904
G1 X48.600 Y85.892 E2.1280
G1 X41.608 Y78.900 E2.6755
G1 X41.608 Y78.221 E2.7130
G1 X49.279 Y85.892 E3.3137
G1 X49.958 Y85.892 E3.3512
G1 X41.608 Y77.542 E4.0050
G1 X41.608 Y76.863 E4.0426
G1 X50.637 Y85.892 E4.7495
G1 X51.316 Y85.892 E4.7871
G1 X41.608 Y76.184 E5.5471
G1 X41.608 Y75.506 E5.5847
G1 X51.994 Y85.892 E6.3979
G1 X52.673 Y85.892 E6.4355
G1 X41.608 Y74.827 E7.3019
G1 X41.608 Y74.148 E7.3394
G1 X53.352 Y85.892 E8.2589
G1 X54.031 Y85.892 E8.2965
G1 X41.608 Y73.469 E9.2692
G1 X41.608 Y72.790 E9.3068
G1 X54.710 Y85.892 E10.3326
G1 X55.388 Y85.892 E10.3702
G1 X41.635 Y72.139 E11.4470
G1 X41.975 Y71.799 E11.4735
G1 X56.067 Y85.892 E12.5769
G1 X56.746 Y85.892 E12.6145
G1 X42.314 Y71.460 E13.7445
G1 X42.654 Y71.121 E13.7711
G1 X57.425 Y85.892 E14.9276
G1 X58.104 Y85.892 E14.9652
G1 X42.993 Y70.781 E16.1483
G1 X43.332 Y70.442 E16.1749
G1 X58.783 Y85.892 E17.3845
G1 X59.461 Y85.892 E17.4221
G1 X43.672 Y70.102 E18.6584
G1 X44.011 Y69.763 E18.6850
G1 X60.140 Y85.892 E19.9478
G1 X60.819 Y85.892 E19.9854
G1 X44.351 Y69.423 E21.2748
G1 X44.666 Y69.108 E21.2995
G1 X44.714 Y69.108 E21.3021
G1 X61.498 Y85.892 E22.6163
G1 X62.177 Y85.892 E22.6538
G1 X45.393 Y69.108 E23.9680
G1 X46.072 Y69.108 E24.0055
G1 X62.856 Y85.892 E25.3196
G1 X63.517 Y85.892 E25.3563
G1 X63.517 Y85.875 E25.3572
G1 X46.750 Y69.108 E26.6700
G1 X47.429 Y69.108 E26.7076
G1 X63.517 Y85.196 E27.9672
G1 X63.517 Y84.517 E28.0048
G1 X48.108 Y69.108 E29.2112
G1 X48.787 Y69.108 E29.2488
G1 X63.517 Y83.838 E30.4021
G1 X63.517 Y83.159 E30.4397
G1 X49.466 Y69.108 E31.5398
G1 X50.144 Y69.108 E31.5774
G1 X63.517 Y82.481 E32.6244
G1 X63.517 Y81.802 E32.6620
G1 X50.823 Y69.108 E33.6559
G1 X51.502 Y69.108 E33.6934
G1 X63.517 Y81.123 E34.6342
G1 X63.517 Y80.444 E34.6717
G1 X52.181 Y69.108 E35.5593
G1 X52.860 Y69.108 E35.5969
G1 X63.517 Y79.765 E36.4313
G1 X63.517 Y79.086 E36.4689
G1 X53.539 Y69.108 E37.2501
G1 X54.217 Y69.108 E37.2877
G1 X63.517 Y78.408 E38.0158
G1 X63.517 Y77.729 E38.0534
G1 X54.896 Y69.108 E38.7284
G1 X55.575 Y69.108 E38.7660
