; G-Code generated by Simplify3D(R) Version 4.1.0
; Jan 15, 2019 at 6:53:38 PM
; Settings Summary
;   processName,Optimal(1)
;   applyToModels,Filament holder,Filament holder(2)
;   profileName,BortBot (modified)
;   profileVersion,2018-03-11 18:52:45
;   baseProfile,Default
;   printMaterial,PLA
;   printQuality,Medium
;   printExtruders,
;   extruderName,Extruder 1
;   extruderToolheadNumber,0
;   extruderDiameter,0.4
;   extruderAutoWidth,1
;   extruderWidth,0.48
;   extrusionMultiplier,1.04
;   extruderUseRetract,1
;   extruderRetractionDistance,3
;   extruderExtraRestartDistance,0
;   extruderRetractionZLift,0
;   extruderRetractionSpeed,1500
;   extruderUseCoasting,0
;   extruderCoastingDistance,1.4
;   extruderUseWipe,1
;   extruderWipeDistance,2
;   primaryExtruder,0
;   layerHeight,0.25
;   topSolidLayers,2
;   bottomSolidLayers,2
;   perimeterOutlines,3
;   printPerimetersInsideOut,0
;   startPointOption,2
;   startPointOriginX,0
;   startPointOriginY,0
;   sequentialIslands,0
;   spiralVaseMode,0
;   firstLayerHeightPercentage,125
;   firstLayerWidthPercentage,100
;   firstLayerUnderspeed,0.75
;   useRaft,0
;   raftExtruder,0
;   raftTopLayers,2
;   raftBaseLayers,2
;   raftOffset,3
;   raftSeparationDistance,0.3
;   raftTopInfill,90
;   aboveRaftSpeedMultiplier,0.3
;   useSkirt,1
;   skirtExtruder,0
;   skirtLayers,1
;   skirtOutlines,2
;   skirtOffset,2
;   usePrimePillar,0
;   primePillarExtruder,999
;   primePillarWidth,12
;   primePillarLocation,7
;   primePillarSpeedMultiplier,1
;   useOozeShield,0
;   oozeShieldExtruder,999
;   oozeShieldOffset,2
;   oozeShieldOutlines,1
;   oozeShieldSidewallShape,1
;   oozeShieldSidewallAngle,30
;   oozeShieldSpeedMultiplier,1
;   infillExtruder,0
;   internalInfillPattern,Full Honeycomb
;   externalInfillPattern,Rectilinear
;   infillPercentage,50
;   outlineOverlapPercentage,35
;   infillExtrusionWidthPercentage,90
;   minInfillLength,5
;   infillLayerInterval,1
;   internalInfillAngles,0,120,-120
;   overlapInternalInfillAngles,0
;   externalInfillAngles,45,-45
;   generateSupport,0
;   supportExtruder,0
;   supportInfillPercentage,50
;   supportExtraInflation,0
;   supportBaseLayers,1
;   denseSupportExtruder,0
;   denseSupportLayers,4
;   denseSupportInfillPercentage,90
;   supportLayerInterval,1
;   supportHorizontalPartOffset,0.5
;   supportUpperSeparationLayers,1
;   supportLowerSeparationLayers,1
;   supportType,0
;   supportGridSpacing,1
;   maxOverhangAngle,46
;   supportAngles,45
;   temperatureName,Extruder 1,Heated Bed
;   temperatureNumber,0,1
;   temperatureSetpointCount,1,1
;   temperatureSetpointLayers,1,1
;   temperatureSetpointTemperatures,203,60
;   temperatureStabilizeAtStartup,1,1
;   temperatureHeatedBed,0,1
;   fanLayers,1,3
;   fanSpeeds,0,60
;   blipFanToFullPower,1
;   adjustSpeedForCooling,0
;   minSpeedLayerTime,15
;   minCoolingSpeedSlowdown,20
;   increaseFanForCooling,1
;   minFanLayerTime,45
;   maxCoolingFanSpeed,100
;   increaseFanForBridging,1
;   bridgingFanSpeed,100
;   use5D,1
;   relativeEdistances,0
;   allowEaxisZeroing,1
;   independentExtruderAxes,0
;   includeM10123,0
;   stickySupport,1
;   applyToolheadOffsets,0
;   gcodeXoffset,0
;   gcodeYoffset,0
;   gcodeZoffset,0
;   overrideMachineDefinition,0
;   machineTypeOverride,0
;   strokeXoverride,100
;   strokeYoverride,100
;   strokeZoverride,100
;   originOffsetXoverride,0
;   originOffsetYoverride,0
;   originOffsetZoverride,0
;   homeXdirOverride,-1
;   homeYdirOverride,-1
;   homeZdirOverride,-1
;   flipXoverride,1
;   flipYoverride,-1
;   flipZoverride,1
;   toolheadOffsets,0,0|0,0|0,0|0,0|0,0|0,0
;   overrideFirmwareConfiguration,0
;   firmwareTypeOverride,RepRap (Marlin/Repetier/Sprinter)
;   GPXconfigOverride,r2
;   baudRateOverride,115200
;   overridePrinterModels,0
;   printerModelsOverride
;   startingGcode,G28 XY ; HOME XY,M561 ; Clear any bed transform,G1 X100 Y80 Z25; move to center of bed,G30 ;Do a single Z probe,G29 S1 ; Load bed compensating height map,G1 Z10; ,G28 XY;
;   layerChangeGcode,
;   retractionGcode,
;   toolChangeGcode,
;   endingGcode,G10 S5; retract filament to relieve pressure,M104 S0 ; turn off extruder,M140 S0 ; turn off bed,G91 G1 Z10 ; Clearance from part,G90 G1 X0 Y0 ; Go to starting position (X0 Y0 Z300),M84 ; disable motor,M107; Turn off fan
;   exportFileFormat,gcode
;   celebration,0
;   celebrationSong,Random Song
;   postProcessing,
;   defaultSpeed,3600
;   outlineUnderspeed,0.8
;   solidInfillUnderspeed,1
;   supportUnderspeed,1
;   rapidXYspeed,3600
;   rapidZspeed,1800
;   minBridgingArea,10
;   bridgingExtraInflation,5
;   bridgingExtrusionMultiplier,0.9
;   bridgingSpeedMultiplier,0.6
;   useFixedBridgingAngle,0
;   fixedBridgingAngle,0
;   applyBridgingToPerimeters,1
;   filamentDiameters,1.75|1.75|1.75|1.75|1.75|1.75
;   filamentPricesPerKg,20|46|46|46|46|46
;   filamentDensities,1.33|1.25|1.25|1.25|1.25|1.25
;   useMinPrintHeight,0
;   minPrintHeight,40
;   useMaxPrintHeight,0
;   maxPrintHeight,60
;   useDiaphragm,0
;   diaphragmLayerInterval,20
;   robustSlicing,1
;   mergeAllIntoSolid,0
;   onlyRetractWhenCrossingOutline,1
;   retractBetweenLayers,0
;   useRetractionMinTravel,0
;   retractionMinTravel,3
;   retractWhileWiping,1
;   onlyWipeOutlines,1
;   avoidCrossingOutline,0
;   maxMovementDetourFactor,3
;   toolChangeRetractionDistance,12
;   toolChangeExtraRestartDistance,-0.5
;   toolChangeRetractionSpeed,600
;   externalThinWallType,1
;   internalThinWallType,2
;   thinWallAllowedOverlapPercentage,20
;   singleExtrusionMinLength,1
;   singleExtrusionMinPrintingWidthPercentage,50
;   singleExtrusionMaxPrintingWidthPercentage,200
;   singleExtrusionEndpointExtension,0.2
;   horizontalSizeCompensation,0
G90
M82
M106 S0
M140 S60
M190 S60
M104 S203 T0
M109 S203 T0
G28 XY ; HOME XY
M561 ; Clear any bed transform
G1 X100 Y80 Z25; move to center of bed
G30 ;Do a single Z probe
G29 S1 ; Load bed compensating height map
G1 Z10; 
G28 XY;
; process Optimal(1)
; layer 1, Z = 0.313
T0
; feature skirt
; tool H0.313 W0.480
G1 Z0.313 F1800
G1 X61.365 Y34.943 F3600
G92 E0.0000
G1 X62.959 Y33.350 E0.1461 F2700
G1 X80.365 Y33.350 E1.2751
G1 X80.365 Y19.943 E2.1446
G1 X81.959 Y18.350 E2.2908
G1 X114.212 Y18.350 E4.3826
G1 X114.613 Y18.750 E4.4194
G1 X145.224 Y18.750 E6.4048
G1 X146.818 Y20.343 E6.5509
G1 X146.818 Y32.597 E7.3456
G1 X145.224 Y34.190 E7.4918
G1 X127.818 Y34.190 E8.6207
G1 X127.818 Y113.750 E13.7808
G1 X145.224 Y113.750 E14.9097
G1 X146.818 Y115.343 E15.0558
G1 X146.818 Y127.597 E15.8506
G1 X145.224 Y129.190 E15.9967
G1 X127.818 Y129.190 E17.1257
G1 X127.818 Y142.597 E17.9952
G1 X126.224 Y144.190 E18.1413
G1 X93.971 Y144.190 E20.2332
G1 X93.570 Y143.790 E20.2699
G1 X62.959 Y143.790 E22.2553
G1 X61.365 Y142.196 E22.4015
G1 X61.365 Y129.943 E23.1962
G1 X62.959 Y128.350 E23.3423
G1 X80.365 Y128.350 E24.4713
G1 X80.365 Y48.790 E29.6313
G1 X62.959 Y48.790 E30.7603
G1 X61.365 Y47.196 E30.9064
G1 X61.365 Y34.943 E31.7011
G92 E0.0000
G1 E-3.0000 F1500
G1 X61.845 Y35.142 F3600
G1 E0.0000 F1500
G92 E0.0000
G1 X63.157 Y33.830 E0.1204 F2700
G1 X80.845 Y33.830 E1.2675
G1 X80.845 Y20.142 E2.1553
G1 X82.157 Y18.830 E2.2756
G1 X114.013 Y18.830 E4.3417
G1 X114.414 Y19.230 E4.3785
G1 X145.026 Y19.230 E6.3639
G1 X146.338 Y20.542 E6.4842
G1 X146.338 Y32.398 E7.2531
G1 X145.026 Y33.710 E7.3735
G1 X127.338 Y33.710 E8.5207
G1 X127.338 Y114.230 E13.7430
G1 X145.026 Y114.230 E14.8902
G1 X146.338 Y115.542 E15.0105
G1 X146.338 Y127.398 E15.7795
G1 X145.026 Y128.710 E15.8998
G1 X127.338 Y128.710 E17.0470
G1 X127.338 Y142.398 E17.9347
G1 X126.026 Y143.710 E18.0551
G1 X94.170 Y143.710 E20.1212
G1 X93.769 Y143.310 E20.1579
G1 X63.157 Y143.310 E22.1433
G1 X61.845 Y141.997 E22.2637
G1 X61.845 Y130.142 E23.0326
G1 X63.157 Y128.830 E23.1530
G1 X80.845 Y128.830 E24.3001
G1 X80.845 Y48.310 E29.5224
G1 X63.157 Y48.310 E30.6696
G1 X61.845 Y46.997 E30.7900
G1 X61.845 Y35.142 E31.5589
G92 E0.0000
G1 E-3.0000 F1500
; feature outer perimeter
G1 X64.325 Y36.310 F3600
G1 E0.0000 F1500
G92 E0.0000
G1 X83.325 Y36.310 E1.2323 F2160
G1 X83.325 Y21.310 E2.2051
G1 X112.845 Y21.310 E4.1197
G1 X112.845 Y30.830 E4.7372
G1 X93.845 Y30.830 E5.9695
G1 X93.845 Y116.310 E11.5135
G1 X112.845 Y116.310 E12.7457
G1 X112.845 Y125.830 E13.3632
G1 X93.845 Y125.830 E14.5955
G1 X93.845 Y140.830 E15.5683
G1 X64.325 Y140.830 E17.4829
G1 X64.325 Y131.310 E18.1004
G1 X83.325 Y131.310 E19.3327
G1 X83.325 Y45.830 E24.8766
G1 X64.325 Y45.830 E26.1089
G1 X64.325 Y36.310 E26.7264
G1 X66.325 Y36.310 F2160
; feature inner perimeter
G1 X64.805 Y36.790 F3600
G92 E0.0000
G1 X83.805 Y36.790 E1.2323 F2430
G1 X83.805 Y21.790 E2.2051
G1 X112.365 Y21.790 E4.0575
G1 X112.365 Y30.350 E4.6126
G1 X93.365 Y30.350 E5.8449
G1 X93.365 Y116.790 E11.4512
G1 X112.365 Y116.790 E12.6835
G1 X112.365 Y125.350 E13.2387
G1 X93.365 Y125.350 E14.4710
G1 X93.365 Y140.350 E15.4438
G1 X64.805 Y140.350 E17.2961
G1 X64.805 Y131.790 E17.8513
G1 X83.805 Y131.790 E19.0836
G1 X83.805 Y45.350 E24.6899
G1 X64.805 Y45.350 E25.9221
G1 X64.805 Y36.790 E26.4773
G1 X65.285 Y37.270 F3600
G92 E0.0000
G1 X68.811 Y37.270 E0.2287 F2430
G1 X68.827 Y37.637 E0.2525
G1 X68.502 Y37.665 E0.2737
G1 X67.934 Y37.813 E0.3117
G1 X67.401 Y38.054 E0.3497
G1 X66.915 Y38.382 E0.3877
G1 X66.492 Y38.787 E0.4257
G1 X66.144 Y39.258 E0.4637
G1 X65.880 Y39.782 E0.5017
G1 X65.709 Y40.342 E0.5397
G1 X65.645 Y40.839 E0.5722
G1 X65.285 Y40.816 E0.5956
G1 X65.285 Y37.270 E0.8256
G1 X69.354 Y37.270 F3600
G92 E0.0000
G1 X84.285 Y37.270 E0.9684 F2430
G1 X84.285 Y22.270 E1.9412
G1 X107.811 Y22.270 E3.4670
G1 X107.826 Y22.637 E3.4909
G1 X107.502 Y22.665 E3.5121
G1 X106.934 Y22.813 E3.5501
G1 X106.401 Y23.054 E3.5881
G1 X105.915 Y23.382 E3.6261
G1 X105.492 Y23.787 E3.6641
G1 X105.144 Y24.258 E3.7021
G1 X104.880 Y24.782 E3.7401
G1 X104.709 Y25.342 E3.7781
G1 X104.634 Y25.923 E3.8161
G1 X104.659 Y26.508 E3.8541
G1 X104.782 Y27.081 E3.8921
G1 X105.001 Y27.625 E3.9301
G1 X105.308 Y28.124 E3.9681
G1 X105.695 Y28.563 E4.0061
G1 X106.151 Y28.931 E4.0441
G1 X106.662 Y29.217 E4.0821
G1 X107.215 Y29.412 E4.1201
G1 X107.831 Y29.518 E4.1606
G1 X107.801 Y29.870 E4.1835
G1 X92.885 Y29.870 E5.1509
G1 X92.885 Y117.270 E10.8194
G1 X107.811 Y117.270 E11.7874
G1 X107.826 Y117.637 E11.8113
G1 X107.502 Y117.665 E11.8324
G1 X106.934 Y117.813 E11.8704
G1 X106.401 Y118.054 E11.9084
G1 X105.915 Y118.382 E11.9464
G1 X105.492 Y118.787 E11.9844
G1 X105.144 Y119.258 E12.0224
G1 X104.880 Y119.782 E12.0604
G1 X104.709 Y120.342 E12.0984
G1 X104.634 Y120.923 E12.1364
G1 X104.659 Y121.508 E12.1744
G1 X104.782 Y122.081 E12.2124
G1 X105.001 Y122.625 E12.2504
G1 X105.308 Y123.124 E12.2884
G1 X105.695 Y123.563 E12.3264
G1 X106.151 Y123.931 E12.3644
G1 X106.662 Y124.217 E12.4024
G1 X107.215 Y124.412 E12.4404
G1 X107.831 Y124.518 E12.4810
G1 X107.801 Y124.870 E12.5039
G1 X92.885 Y124.870 E13.4713
G1 X92.885 Y139.870 E14.4441
G1 X69.369 Y139.870 E15.9693
G1 X69.339 Y139.518 E15.9922
G1 X69.956 Y139.412 E16.0327
G1 X70.508 Y139.217 E16.0707
G1 X71.020 Y138.931 E16.1087
G1 X71.475 Y138.563 E16.1467
G1 X71.863 Y138.124 E16.1847
G1 X72.170 Y137.625 E16.2227
G1 X72.388 Y137.081 E16.2607
G1 X72.512 Y136.508 E16.2987
G1 X72.537 Y135.923 E16.3367
G1 X72.462 Y135.342 E16.3747
G1 X72.291 Y134.782 E16.4127
G1 X72.027 Y134.258 E16.4507
G1 X71.678 Y133.787 E16.4887
G1 X71.255 Y133.382 E16.5267
G1 X70.770 Y133.054 E16.5647
G1 X70.236 Y132.813 E16.6027
G1 X69.663 Y132.663 E16.6411
G1 X69.341 Y132.639 E16.6621
G1 X69.354 Y132.270 E16.6861
G1 X84.285 Y132.270 E17.6545
G1 X84.285 Y44.870 E23.3230
G1 X69.369 Y44.870 E24.2904
G1 X69.339 Y44.518 E24.3133
G1 X69.956 Y44.412 E24.3539
G1 X70.508 Y44.217 E24.3919
G1 X71.020 Y43.931 E24.4299
G1 X71.475 Y43.563 E24.4679
G1 X71.863 Y43.124 E24.5059
G1 X72.170 Y42.625 E24.5439
G1 X72.388 Y42.081 E24.5819
G1 X72.512 Y41.508 E24.6198
G1 X72.537 Y40.923 E24.6579
G1 X72.462 Y40.342 E24.6958
G1 X72.291 Y39.782 E24.7339
G1 X72.027 Y39.258 E24.7718
G1 X71.678 Y38.787 E24.8099
G1 X71.255 Y38.382 E24.8478
G1 X70.770 Y38.054 E24.8859
G1 X70.236 Y37.813 E24.9238
G1 X69.663 Y37.663 E24.9622
G1 X69.340 Y37.639 E24.9832
G1 X69.354 Y37.270 E25.0072
G1 X65.629 Y41.368 F3600
G92 E0.0000
G1 X65.782 Y42.081 E0.0473 F2430
G1 X66.001 Y42.625 E0.0853
G1 X66.308 Y43.124 E0.1233
G1 X66.695 Y43.563 E0.1613
G1 X67.151 Y43.931 E0.1993
G1 X67.662 Y44.217 E0.2373
G1 X68.215 Y44.412 E0.2753
G1 X68.831 Y44.518 E0.3159
G1 X68.801 Y44.870 E0.3388
G1 X65.285 Y44.870 E0.5668
G1 X65.285 Y41.404 E0.7916
G1 X65.629 Y41.368 E0.8140
G92 E0.0000
G1 E-3.0000 F1500
G1 X108.369 Y29.870 F3600
G1 E0.0000 F1500
G92 E0.0000
G1 X108.339 Y29.518 E0.0229 F2430
G1 X108.956 Y29.412 E0.0634
G1 X109.508 Y29.217 E0.1014
G1 X110.020 Y28.931 E0.1394
G1 X110.476 Y28.563 E0.1774
G1 X110.863 Y28.124 E0.2154
G1 X111.170 Y27.625 E0.2534
G1 X111.388 Y27.081 E0.2914
G1 X111.542 Y26.368 E0.3388
G1 X111.885 Y26.404 E0.3612
G1 X111.885 Y29.870 E0.5859
G1 X108.369 Y29.870 E0.8140
G1 X111.526 Y25.839 F3600
G92 E0.0000
G1 X111.462 Y25.342 E0.0325 F2430
G1 X111.291 Y24.782 E0.0705
G1 X111.027 Y24.258 E0.1085
G1 X110.678 Y23.787 E0.1465
G1 X110.255 Y23.382 E0.1845
G1 X109.770 Y23.054 E0.2225
G1 X109.236 Y22.813 E0.2605
G1 X108.663 Y22.663 E0.2989
G1 X108.341 Y22.639 E0.3199
G1 X108.354 Y22.270 E0.3439
G1 X111.885 Y22.270 E0.5729
G1 X111.885 Y25.816 E0.8029
G1 X111.526 Y25.839 E0.8262
G92 E0.0000
G1 E-3.0000 F1500
G1 X111.885 Y117.270 F3600
G1 E0.0000 F1500
G92 E0.0000
G1 X111.885 Y120.816 E0.2300 F2430
G1 X111.526 Y120.839 E0.2534
G1 X111.462 Y120.342 E0.2859
G1 X111.291 Y119.782 E0.3239
G1 X111.027 Y119.258 E0.3619
G1 X110.678 Y118.787 E0.3999
G1 X110.255 Y118.382 E0.4379
G1 X109.770 Y118.054 E0.4759
G1 X109.236 Y117.813 E0.5139
G1 X108.663 Y117.663 E0.5523
G1 X108.341 Y117.639 E0.5732
G1 X108.355 Y117.270 E0.5972
G1 X111.885 Y117.270 E0.8262
G1 X111.542 Y121.368 F3600
G92 E0.0000
G1 X111.885 Y121.404 E0.0224 F2430
G1 X111.885 Y124.870 E0.2471
G1 X108.369 Y124.870 E0.4752
G1 X108.339 Y124.518 E0.4981
G1 X108.956 Y124.412 E0.5386
G1 X109.508 Y124.217 E0.5766
G1 X110.020 Y123.932 E0.6146
G1 X110.475 Y123.563 E0.6526
G1 X110.863 Y123.124 E0.6906
G1 X111.170 Y122.625 E0.7286
G1 X111.388 Y122.081 E0.7666
G1 X111.542 Y121.368 E0.8140
G92 E0.0000
G1 E-3.0000 F1500
G1 X68.811 Y132.270 F3600
G1 E0.0000 F1500
G92 E0.0000
G1 X68.826 Y132.637 E0.0239 F2430
G1 X68.502 Y132.665 E0.0450
G1 X67.934 Y132.813 E0.0830
G1 X67.401 Y133.054 E0.1210
G1 X66.915 Y133.382 E0.1590
G1 X66.492 Y133.787 E0.1970
G1 X66.144 Y134.258 E0.2350
G1 X65.880 Y134.782 E0.2730
G1 X65.709 Y135.342 E0.3110
G1 X65.645 Y135.839 E0.3435
G1 X65.285 Y135.816 E0.3669
G1 X65.285 Y132.270 E0.5969
G1 X68.811 Y132.270 E0.8255
G1 X65.629 Y136.368 F3600
G92 E0.0000
G1 X65.782 Y137.081 E0.0473 F2430
G1 X66.001 Y137.625 E0.0853
G1 X66.308 Y138.124 E0.1233
G1 X66.695 Y138.563 E0.1613
G1 X67.151 Y138.931 E0.1993
G1 X67.662 Y139.217 E0.2373
G1 X68.215 Y139.412 E0.2753
G1 X68.831 Y139.518 E0.3159
G1 X68.801 Y139.870 E0.3388
G1 X65.285 Y139.870 E0.5668
G1 X65.285 Y136.404 E0.7915
G1 X65.629 Y136.368 E0.8139
; feature outer perimeter
G1 X66.615 Y136.386 F3600
G92 E0.0000
G1 X66.704 Y136.799 E0.0274 F2160
G1 X66.861 Y137.191 E0.0548
G1 X67.083 Y137.551 E0.0822
G1 X67.362 Y137.868 E0.1096
G1 X67.691 Y138.133 E0.1370
G1 X68.059 Y138.339 E0.1644
G1 X68.458 Y138.480 E0.1918
G1 X68.874 Y138.551 E0.2192
G1 X69.297 Y138.551 E0.2466
G1 X69.713 Y138.480 E0.2740
G1 X70.111 Y138.339 E0.3014
G1 X70.480 Y138.133 E0.3288
G1 X70.809 Y137.868 E0.3562
G1 X71.088 Y137.551 E0.3836
G1 X71.309 Y137.191 E0.4110
G1 X71.467 Y136.799 E0.4384
G1 X71.556 Y136.386 E0.4658
G1 X71.574 Y135.964 E0.4932
G1 X71.520 Y135.545 E0.5206
G1 X71.397 Y135.141 E0.5480
G1 X71.206 Y134.764 E0.5754
G1 X70.955 Y134.424 E0.6028
G1 X70.650 Y134.132 E0.6302
G1 X70.300 Y133.895 E0.6576
G1 X69.915 Y133.721 E0.6850
G1 X69.505 Y133.614 E0.7125
G1 X69.060 Y133.581 E0.7414
G1 X68.664 Y133.614 E0.7672
G1 X68.255 Y133.721 E0.7946
G1 X67.871 Y133.895 E0.8220
G1 X67.520 Y134.132 E0.8494
G1 X67.215 Y134.424 E0.8768
G1 X66.964 Y134.764 E0.9042
