; G-Code generated by Simplify3D(R) Version 4.1.2
; Oct 23, 2021 at 8:47:08 PM
; Settings Summary
;   processName,Process1
;   applyToModels,gantry holder 4
;   profileName,Volcano - Fine (modified)
;   profileVersion,2021-06-13 11:20:06
;   baseProfile,Default
;   printMaterial,PLA
;   printQuality,Medium
;   printExtruders,
;   extruderName,Volcano
;   extruderToolheadNumber,1
;   extruderDiameter,0.4
;   extruderAutoWidth,1
;   extruderWidth,0.48
;   extrusionMultiplier,1
;   extruderUseRetract,1
;   extruderRetractionDistance,1.5
;   extruderExtraRestartDistance,-0.1
;   extruderRetractionZLift,0
;   extruderRetractionSpeed,1800
;   extruderUseCoasting,1
;   extruderCoastingDistance,0.15
;   extruderUseWipe,1
;   extruderWipeDistance,0.3
;   primaryExtruder,0
;   layerHeight,0.25
;   topSolidLayers,4
;   bottomSolidLayers,3
;   perimeterOutlines,2
;   printPerimetersInsideOut,1
;   startPointOption,2
;   startPointOriginX,0
;   startPointOriginY,0
;   sequentialIslands,0
;   spiralVaseMode,0
;   firstLayerHeightPercentage,100
;   firstLayerWidthPercentage,115
;   firstLayerUnderspeed,0.5
;   useRaft,0
;   raftExtruder,0
;   raftTopLayers,3
;   raftBaseLayers,2
;   raftOffset,3
;   raftSeparationDistance,0.14
;   raftTopInfill,100
;   aboveRaftSpeedMultiplier,0.3
;   useSkirt,1
;   skirtExtruder,0
;   skirtLayers,1
;   skirtOutlines,3
;   skirtOffset,4
;   usePrimePillar,0
;   primePillarExtruder,999
;   primePillarWidth,12
;   primePillarLocation,7
;   primePillarSpeedMultiplier,1
;   useOozeShield,0
;   oozeShieldExtruder,999
;   oozeShieldOffset,2
;   oozeShieldOutlines,1
;   oozeShieldSidewallShape,1
;   oozeShieldSidewallAngle,30
;   oozeShieldSpeedMultiplier,1
;   infillExtruder,0
;   internalInfillPattern,Triangular
;   externalInfillPattern,Rectilinear
;   infillPercentage,30
;   outlineOverlapPercentage,25
;   infillExtrusionWidthPercentage,100
;   minInfillLength,3
;   infillLayerInterval,1
;   internalInfillAngles,0,60,-60
;   overlapInternalInfillAngles,1
;   externalInfillAngles,45,-45
;   generateSupport,1
;   supportExtruder,0
;   supportInfillPercentage,50
;   supportExtraInflation,0.6
;   supportBaseLayers,0
;   denseSupportExtruder,0
;   denseSupportLayers,1
;   denseSupportInfillPercentage,70
;   supportLayerInterval,1
;   supportHorizontalPartOffset,0.3
;   supportUpperSeparationLayers,1
;   supportLowerSeparationLayers,1
;   supportType,0
;   supportGridSpacing,4
;   maxOverhangAngle,45
;   supportAngles,0
;   temperatureName,Primary Extruder,Heated Bed
;   temperatureNumber,1,1
;   temperatureSetpointCount,2,1
;   temperatureSetpointLayers,1,2,1
;   temperatureSetpointTemperatures,230,225,65
;   temperatureStabilizeAtStartup,1,1
;   temperatureHeatedBed,0,1
;   fanLayers,1,2
;   fanSpeeds,0,60
;   blipFanToFullPower,0
;   adjustSpeedForCooling,1
;   minSpeedLayerTime,15
;   minCoolingSpeedSlowdown,20
;   increaseFanForCooling,0
;   minFanLayerTime,45
;   maxCoolingFanSpeed,100
;   increaseFanForBridging,0
;   bridgingFanSpeed,100
;   use5D,1
;   relativeEdistances,0
;   allowEaxisZeroing,1
;   independentExtruderAxes,0
;   includeM10123,0
;   stickySupport,1
;   applyToolheadOffsets,0
;   gcodeXoffset,0
;   gcodeYoffset,0
;   gcodeZoffset,0
;   overrideMachineDefinition,0
;   machineTypeOverride,0
;   strokeXoverride,200
;   strokeYoverride,200
;   strokeZoverride,200
;   originOffsetXoverride,0
;   originOffsetYoverride,0
;   originOffsetZoverride,0
;   homeXdirOverride,-1
;   homeYdirOverride,-1
;   homeZdirOverride,-1
;   flipXoverride,1
;   flipYoverride,-1
;   flipZoverride,1
;   toolheadOffsets,0,0|0,0|0,0|0,0|0,0|0,0
;   overrideFirmwareConfiguration,0
;   firmwareTypeOverride,RepRap (Marlin/Repetier/Sprinter)
;   GPXconfigOverride,r2
;   baudRateOverride,115200
;   overridePrinterModels,0
;   printerModelsOverride
;   startingGcode,G28 ;Home,M572 D0 S0.4 ;Enable Pressure Advance,G29 S1 ;Load Heightmap and enable bed mesh leveling,;Prime the extruder,G92 E0 ; Zero Extruder,G1 X-1 Y-1 Z3; Move just outside origin and up 3mm,G1 E40 F500; Extrude 35mm filament,G1 Z0.25 X50; Squash blob,G92 E0; Reset Extruder position
;   layerChangeGcode,
;   retractionGcode,
;   toolChangeGcode,
;   endingGcode,;Retract the filament,G92 E1,G1 E-20 F300,G28 X0 Y0,M104 S0,;Retraction,M140 S0,M84,M106 S0
;   exportFileFormat,gcode
;   celebration,0
;   celebrationSong,Random Song
;   postProcessing,
;   defaultSpeed,2160
;   outlineUnderspeed,0.5
;   solidInfillUnderspeed,0.8
;   supportUnderspeed,0.8
;   rapidXYspeed,4800
;   rapidZspeed,1002
;   minBridgingArea,50
;   bridgingExtraInflation,0
;   bridgingExtrusionMultiplier,1
;   bridgingSpeedMultiplier,1
;   useFixedBridgingAngle,0
;   fixedBridgingAngle,0
;   applyBridgingToPerimeters,0
;   filamentDiameters,1.75|1.75|1.75|1.75|1.75|1.75
;   filamentPricesPerKg,46|46|46|46|46|46
;   filamentDensities,1.25|1.25|1.25|1.25|1.25|1.25
;   useMinPrintHeight,0
;   minPrintHeight,0
;   useMaxPrintHeight,0
;   maxPrintHeight,0
;   useDiaphragm,0
;   diaphragmLayerInterval,20
;   robustSlicing,1
;   mergeAllIntoSolid,0
;   onlyRetractWhenCrossingOutline,1
;   retractBetweenLayers,0
;   useRetractionMinTravel,1
;   retractionMinTravel,3
;   retractWhileWiping,1
;   onlyWipeOutlines,1
;   avoidCrossingOutline,1
;   maxMovementDetourFactor,3
;   toolChangeRetractionDistance,12
;   toolChangeExtraRestartDistance,-0.5
;   toolChangeRetractionSpeed,600
;   externalThinWallType,0
;   internalThinWallType,2
;   thinWallAllowedOverlapPercentage,10
;   singleExtrusionMinLength,1
;   singleExtrusionMinPrintingWidthPercentage,50
;   singleExtrusionMaxPrintingWidthPercentage,200
;   singleExtrusionEndpointExtension,0.2
;   horizontalSizeCompensation,0
G90
M82
M106 S0
M140 S65
M190 S65
M104 S230 T1
M109 S230 T1
G28 ;Home
M572 D0 S0.4 ;Enable Pressure Advance
G29 S1 ;Load Heightmap and enable bed mesh leveling
;Prime the extruder
G92 E0 ; Zero Extruder
G1 X-1 Y-1 Z3; Move just outside origin and up 3mm
G1 E40 F500; Extrude 35mm filament
G1 Z0.25 X50; Squash blob
G92 E0; Reset Extruder position
; process Process1
; layer 1, Z = 0.250
T1
G92 E0.0000
G1 E-1.5000 F1800
; feature skirt
; tool H0.250 W0.552
G1 Z0.250 F1002
G1 X75.272 Y84.120 F4800
G1 E-0.1000 F1800
G92 E0.0000
G1 X84.728 Y84.120 E0.5426 F1080
G1 X85.158 Y84.550 E0.5774
G1 X87.118 Y84.548 E0.6899
G1 X87.120 Y83.376 E0.7572
G1 X87.130 Y83.146 E0.7704
G1 X87.207 Y82.276 E0.8205
G1 X87.288 Y81.813 E0.8474
G1 X87.545 Y80.855 E0.9044
G1 X87.706 Y80.413 E0.9313
G1 X88.125 Y79.513 E0.9883
G1 X88.360 Y79.107 E1.0152
G1 X88.930 Y78.293 E1.0722
G1 X89.232 Y77.933 E1.0992
G1 X89.933 Y77.232 E1.1561
G1 X90.293 Y76.930 E1.1831
G1 X91.107 Y76.360 E1.2400
G1 X91.513 Y76.125 E1.2670
G1 X92.413 Y75.706 E1.3239
G1 X92.855 Y75.545 E1.3509
G1 X93.813 Y75.288 E1.4078
G1 X94.276 Y75.207 E1.4348
G1 X95.148 Y75.130 E1.4850
G1 X95.383 Y75.120 E1.4985
G1 X104.617 Y75.120 E2.0283
G1 X104.852 Y75.130 E2.0418
G1 X105.724 Y75.207 E2.0920
G1 X106.187 Y75.288 E2.1190
G1 X107.145 Y75.545 E2.1759
G1 X107.587 Y75.706 E2.2029
G1 X108.487 Y76.125 E2.2598
G1 X108.893 Y76.360 E2.2868
G1 X109.707 Y76.930 E2.3437
G1 X110.066 Y77.232 E2.3707
G1 X110.768 Y77.933 E2.4276
G1 X111.070 Y78.293 E2.4546
G1 X111.640 Y79.107 E2.5116
G1 X111.875 Y79.513 E2.5385
G1 X112.294 Y80.413 E2.5955
G1 X112.455 Y80.855 E2.6224
G1 X112.712 Y81.813 E2.6794
G1 X112.793 Y82.276 E2.7063
G1 X112.870 Y83.148 E2.7565
G1 X112.880 Y83.383 E2.7700
G1 X112.880 Y84.548 E2.8369
G1 X124.730 Y84.552 E3.5167
G1 X127.880 Y87.703 E3.7724
G1 X127.880 Y90.132 E3.9117
G1 X128.200 Y90.452 E3.9377
G1 X128.200 Y108.548 E4.9760
G1 X127.880 Y108.868 E5.0019
G1 X127.880 Y111.297 E5.1413
G1 X124.728 Y114.449 E5.3970
G1 X106.380 Y114.449 E6.4497
G1 X106.380 Y116.728 E6.5805
G1 X103.228 Y119.880 E6.8362
G1 X96.772 Y119.880 E7.2067
G1 X93.620 Y116.728 E7.4624
G1 X93.620 Y114.449 E7.5932
G1 X75.272 Y114.449 E8.6459
G1 X72.120 Y111.297 E8.9016
G1 X72.120 Y108.868 E9.0410
G1 X71.800 Y108.548 E9.0669
G1 X71.800 Y90.452 E10.1052
G1 X72.120 Y90.132 E10.1312
G1 X72.120 Y87.272 E10.2953
G1 X75.272 Y84.120 E10.5510
G1 X75.500 Y84.672 F4800
G92 E0.0000
G1 X84.500 Y84.672 E0.5163 F1080
G1 X84.930 Y85.102 E0.5512
G1 X87.669 Y85.100 E0.7084
G1 X87.672 Y83.389 E0.8066
G1 X87.681 Y83.182 E0.8185
G1 X87.754 Y82.348 E0.8665
G1 X87.828 Y81.933 E0.8907
G1 X88.072 Y81.021 E0.9449
G1 X88.216 Y80.625 E0.9691
G1 X88.615 Y79.769 E1.0232
G1 X88.826 Y79.403 E1.0474
G1 X89.368 Y78.630 E1.1016
G1 X89.639 Y78.307 E1.1258
G1 X90.307 Y77.639 E1.1800
G1 X90.630 Y77.368 E1.2042
G1 X91.403 Y76.826 E1.2584
G1 X91.769 Y76.615 E1.2826
G1 X92.625 Y76.216 E1.3368
G1 X93.021 Y76.072 E1.3609
G1 X93.933 Y75.828 E1.4151
G1 X94.348 Y75.754 E1.4393
G1 X95.184 Y75.681 E1.4875
G1 X95.395 Y75.672 E1.4996
G1 X104.605 Y75.672 E2.0280
G1 X104.816 Y75.681 E2.0401
G1 X105.652 Y75.754 E2.0882
G1 X106.067 Y75.828 E2.1124
G1 X106.979 Y76.072 E2.1666
G1 X107.375 Y76.216 E2.1908
G1 X108.231 Y76.615 E2.2450
G1 X108.597 Y76.826 E2.2692
G1 X109.370 Y77.368 E2.3234
G1 X109.693 Y77.639 E2.3476
G1 X110.361 Y78.307 E2.4018
G1 X110.632 Y78.630 E2.4259
G1 X111.174 Y79.403 E2.4801
G1 X111.385 Y79.769 E2.5043
G1 X111.784 Y80.625 E2.5585
G1 X111.928 Y81.021 E2.5827
G1 X112.172 Y81.933 E2.6369
G1 X112.246 Y82.348 E2.6611
G1 X112.319 Y83.184 E2.7092
G1 X112.328 Y83.395 E2.7213
G1 X112.328 Y85.100 E2.8191
G1 X124.501 Y85.104 E3.5175
G1 X127.328 Y87.932 E3.7470
G1 X127.328 Y90.360 E3.8863
G1 X127.648 Y90.680 E3.9122
G1 X127.648 Y108.320 E4.9243
G1 X127.328 Y108.640 E4.9503
G1 X127.328 Y111.069 E5.0896
G1 X124.500 Y113.897 E5.3191
G1 X105.828 Y113.897 E6.3904
G1 X105.828 Y116.500 E6.5397
G1 X103.000 Y119.328 E6.7692
G1 X97.000 Y119.328 E7.1134
G1 X94.172 Y116.500 E7.3429
G1 X94.172 Y113.897 E7.4922
G1 X75.500 Y113.897 E8.5635
G1 X72.672 Y111.069 E8.7930
G1 X72.672 Y108.640 E8.9323
G1 X72.352 Y108.320 E8.9583
G1 X72.352 Y90.680 E9.9703
G1 X72.672 Y90.360 E9.9963
G1 X72.672 Y87.500 E10.1604
G1 X75.500 Y84.672 E10.3899
G1 X75.729 Y85.224 F4800
G92 E0.0000
G1 X84.271 Y85.224 E0.4901 F1080
G1 X84.701 Y85.654 E0.5250
G1 X88.221 Y85.652 E0.7269
G1 X88.224 Y83.402 E0.8560
G1 X88.232 Y83.219 E0.8665
G1 X88.302 Y82.420 E0.9125
G1 X88.367 Y82.053 E0.9339
G1 X88.599 Y81.187 E0.9853
G1 X88.727 Y80.836 E1.0068
G1 X89.105 Y80.024 E1.0582
G1 X89.292 Y79.700 E1.0796
G1 X89.806 Y78.966 E1.1310
G1 X90.046 Y78.680 E1.1525
G1 X90.680 Y78.046 E1.2039
G1 X90.966 Y77.806 E1.2253
G1 X91.700 Y77.292 E1.2767
G1 X92.024 Y77.105 E1.2982
G1 X92.836 Y76.727 E1.3496
G1 X93.187 Y76.599 E1.3710
G1 X94.053 Y76.367 E1.4224
G1 X94.420 Y76.302 E1.4439
G1 X95.220 Y76.232 E1.4899
G1 X95.407 Y76.224 E1.5006
G1 X104.593 Y76.224 E2.0277
G1 X104.780 Y76.232 E2.0384
G1 X105.580 Y76.302 E2.0845
G1 X105.947 Y76.367 E2.1059
G1 X106.813 Y76.599 E2.1573
G1 X107.164 Y76.727 E2.1787
G1 X107.976 Y77.105 E2.2302
G1 X108.300 Y77.292 E2.2516
G1 X109.034 Y77.806 E2.3030
G1 X109.320 Y78.046 E2.3244
G1 X109.954 Y78.680 E2.3759
G1 X110.194 Y78.966 E2.3973
G1 X110.708 Y79.700 E2.4487
G1 X110.895 Y80.024 E2.4701
G1 X111.273 Y80.836 E2.5216
G1 X111.401 Y81.187 E2.5430
G1 X111.633 Y82.053 E2.5944
G1 X111.698 Y82.420 E2.6158
G1 X111.768 Y83.220 E2.6619
G1 X111.776 Y83.407 E2.6726
G1 X111.776 Y85.651 E2.8014
G1 X124.272 Y85.656 E3.5184
G1 X126.776 Y88.160 E3.7215
G1 X126.776 Y90.589 E3.8609
G1 X127.096 Y90.909 E3.8868
G1 X127.096 Y108.091 E4.8726
G1 X126.776 Y108.411 E4.8986
G1 X126.776 Y110.840 E5.0380
G1 X124.271 Y113.345 E5.2412
G1 X105.276 Y113.345 E6.3310
G1 X105.276 Y116.271 E6.4989
G1 X102.771 Y118.776 E6.7022
G1 X97.229 Y118.776 E7.0201
G1 X94.724 Y116.271 E7.2234
G1 X94.724 Y113.345 E7.3913
G1 X75.729 Y113.345 E8.4811
G1 X73.224 Y110.840 E8.6843
G1 X73.224 Y108.411 E8.8237
G1 X72.904 Y108.091 E8.8497
G1 X72.904 Y90.909 E9.8355
G1 X73.224 Y90.589 E9.8614
G1 X73.224 Y87.729 E10.0255
G1 X75.729 Y85.224 E10.2288
G92 E0.0000
G1 E-1.5000 F1800
; feature inner perimeter
G1 X77.776 Y89.776 F4800
G1 X78.047 Y89.776
G1 X78.328 Y90.328
G1 E-0.1000 F1800
G92 E0.0000
G1 X81.672 Y90.328 E0.1919 F810
G1 X81.672 Y90.893 E0.2243
G1 X78.328 Y90.893 E0.4161
G1 X78.328 Y90.478 E0.4399
G1 X78.328 Y90.328 F810
G1 X90.853 Y90.513 F4800
G92 E0.0000
G1 X91.431 Y90.216 E0.0372 F810
G1 X91.799 Y89.962 E0.0629
G1 X92.182 Y89.619 E0.0924
G1 X92.444 Y89.331 E0.1148
G1 X92.626 Y89.082 E0.1324
G1 X92.888 Y88.649 E0.1615
G1 X93.099 Y88.159 E0.1921
G1 X93.176 Y87.906 E0.2073
G1 X93.274 Y87.490 E0.2318
G1 X93.323 Y86.946 E0.2631
G1 X93.328 Y83.537 E0.4587
G1 X93.364 Y83.123 E0.4825
G1 X93.462 Y82.758 E0.5042
G1 X93.622 Y82.416 E0.5259
G1 X93.839 Y82.106 E0.5476
G1 X94.106 Y81.839 E0.5693
G1 X94.416 Y81.622 E0.5910
G1 X94.758 Y81.462 E0.6127
G1 X95.123 Y81.364 E0.6344
G1 X95.536 Y81.328 E0.6581
G1 X104.464 Y81.328 E1.1704
G1 X104.877 Y81.364 E1.1941
G1 X105.242 Y81.462 E1.2158
G1 X105.584 Y81.622 E1.2375
G1 X105.894 Y81.839 E1.2592
G1 X106.161 Y82.106 E1.2809
G1 X106.378 Y82.416 E1.3026
G1 X106.538 Y82.758 E1.3243
G1 X106.636 Y83.123 E1.3460
G1 X106.672 Y83.536 E1.3697
G1 X106.672 Y86.853 E1.5600
G1 X106.713 Y87.402 E1.5916
G1 X106.823 Y87.902 E1.6210
G1 X106.902 Y88.162 E1.6366
G1 X107.098 Y88.619 E1.6651
G1 X107.283 Y88.946 E1.6867
G1 X107.500 Y89.260 E1.7086
G1 X107.751 Y89.551 E1.7306
G1 X108.035 Y89.829 E1.7534
G1 X108.571 Y90.220 E1.7915
G1 X109.164 Y90.508 E1.8293
G1 X109.075 Y90.893 E1.8520
G1 X90.945 Y90.893 E2.8921
G1 X90.889 Y90.659 E2.9060
G1 X90.853 Y90.513 F810
; feature outer perimeter
G1 X90.758 Y89.941 F4800
G92 E0.0000
G1 X91.147 Y89.742 E0.0250 F540
G1 X91.457 Y89.528 E0.0466
G1 X91.792 Y89.226 E0.0725
G1 X92.016 Y88.981 E0.0916
G1 X92.166 Y88.776 E0.1062
G1 X92.396 Y88.395 E0.1317
G1 X92.580 Y87.969 E0.1583
G1 X92.642 Y87.763 E0.1707
G1 X92.728 Y87.402 E0.1920
G1 X92.771 Y86.921 E0.2197
G1 X92.776 Y83.512 E0.4152
G1 X92.818 Y83.027 E0.4432
G1 X92.941 Y82.569 E0.4704
G1 X93.142 Y82.139 E0.4976
G1 X93.414 Y81.750 E0.5249
G1 X93.750 Y81.414 E0.5521
G1 X94.139 Y81.142 E0.5793
G1 X94.569 Y80.941 E0.6066
G1 X95.027 Y80.818 E0.6338
G1 X95.512 Y80.776 E0.6617
G1 X104.488 Y80.776 E1.1767
G1 X104.973 Y80.818 E1.2046
G1 X105.431 Y80.941 E1.2319
G1 X105.861 Y81.142 E1.2591
G1 X106.250 Y81.414 E1.2863
G1 X106.586 Y81.750 E1.3135
G1 X106.858 Y82.139 E1.3408
G1 X107.059 Y82.569 E1.3680
G1 X107.182 Y83.027 E1.3952
G1 X107.224 Y83.512 E1.4232
G1 X107.224 Y86.832 E1.6137
G1 X107.260 Y87.321 E1.6418
G1 X107.358 Y87.762 E1.6677
G1 X107.421 Y87.973 E1.6803
G1 X107.594 Y88.374 E1.7053
G1 X107.751 Y88.653 E1.7237
G1 X107.938 Y88.922 E1.7425
G1 X108.154 Y89.173 E1.7615
G1 X108.393 Y89.406 E1.7807
G1 X108.857 Y89.745 E1.8137
G1 X109.371 Y89.995 E1.8464
G1 X109.641 Y90.082 E1.8628
G1 X110.064 Y90.173 E1.8875
G1 X110.490 Y90.203 E1.9121
G1 X122.224 Y90.207 E2.5853
G1 X122.224 Y91.445 E2.6563
G1 X77.776 Y91.445 E5.2065
G1 X77.776 Y89.776 E5.3022
G1 X82.224 Y89.776 E5.5574
G1 X82.224 Y90.207 E5.5822
G1 X89.513 Y90.203 E6.0003
G1 X90.067 Y90.152 E6.0323
G1 X90.434 Y90.061 E6.0540
G1 X90.618 Y89.993 E6.0652
G1 X90.758 Y89.941 F540
G1 X91.025 Y89.804 F540
; feature inner perimeter
G1 X97.481 Y87.417 F4800
G92 E0.0000
G1 X97.678 Y87.841 E0.0268 F810
G1 X97.946 Y88.223 E0.0536
G1 X98.277 Y88.554 E0.0804
G1 X98.659 Y88.822 E0.1073
G1 X99.083 Y89.019 E0.1341
G1 X99.534 Y89.140 E0.1609
G1 X100.000 Y89.181 E0.1877
G1 X100.466 Y89.140 E0.2145
G1 X100.917 Y89.019 E0.2413
G1 X101.341 Y88.822 E0.2681
G1 X101.723 Y88.554 E0.2950
G1 X102.054 Y88.223 E0.3218
G1 X102.322 Y87.841 E0.3486
G1 X102.519 Y87.417 E0.3754
G1 X102.640 Y86.966 E0.4022
G1 X102.681 Y86.500 E0.4290
G1 X102.640 Y86.034 E0.4558
G1 X102.519 Y85.583 E0.4827
G1 X102.322 Y85.159 E0.5095
G1 X102.054 Y84.777 E0.5363
G1 X101.723 Y84.446 E0.5631
G1 X101.341 Y84.178 E0.5899
G1 X100.917 Y83.981 E0.6167
G1 X100.466 Y83.860 E0.6435
G1 X100.000 Y83.819 E0.6704
G1 X99.534 Y83.860 E0.6972
G1 X99.083 Y83.981 E0.7240
G1 X98.659 Y84.178 E0.7508
G1 X98.277 Y84.446 E0.7776
G1 X97.946 Y84.777 E0.8044
G1 X97.678 Y85.159 E0.8312
G1 X97.481 Y85.583 E0.8580
G1 X97.359 Y86.036 E0.8849
G1 X97.320 Y86.508 E0.9121
