; G-Code generated by Simplify3D(R) Version 4.1.0
; Dec 8, 2018 at 11:57:56 AM
; Settings Summary
;   processName,Optimal(1)
;   applyToModels,hole sizer
;   profileName,BortBot (modified)
;   profileVersion,2018-03-11 18:52:45
;   baseProfile,Default
;   printMaterial,PLA
;   printQuality,Medium
;   printExtruders,
;   extruderName,Extruder 1
;   extruderToolheadNumber,0
;   extruderDiameter,0.4
;   extruderAutoWidth,1
;   extruderWidth,0.48
;   extrusionMultiplier,1.04
;   extruderUseRetract,1
;   extruderRetractionDistance,3
;   extruderExtraRestartDistance,0
;   extruderRetractionZLift,0
;   extruderRetractionSpeed,1500
;   extruderUseCoasting,0
;   extruderCoastingDistance,1.4
;   extruderUseWipe,0
;   extruderWipeDistance,2
;   primaryExtruder,0
;   layerHeight,0.2
;   topSolidLayers,3
;   bottomSolidLayers,2
;   perimeterOutlines,4
;   printPerimetersInsideOut,0
;   startPointOption,2
;   startPointOriginX,0
;   startPointOriginY,0
;   sequentialIslands,0
;   spiralVaseMode,0
;   firstLayerHeightPercentage,125
;   firstLayerWidthPercentage,100
;   firstLayerUnderspeed,0.75
;   useRaft,0
;   raftExtruder,0
;   raftTopLayers,2
;   raftBaseLayers,2
;   raftOffset,3
;   raftSeparationDistance,0.3
;   raftTopInfill,90
;   aboveRaftSpeedMultiplier,0.3
;   useSkirt,1
;   skirtExtruder,0
;   skirtLayers,1
;   skirtOutlines,2
;   skirtOffset,3
;   usePrimePillar,0
;   primePillarExtruder,999
;   primePillarWidth,12
;   primePillarLocation,7
;   primePillarSpeedMultiplier,1
;   useOozeShield,0
;   oozeShieldExtruder,999
;   oozeShieldOffset,2
;   oozeShieldOutlines,1
;   oozeShieldSidewallShape,1
;   oozeShieldSidewallAngle,30
;   oozeShieldSpeedMultiplier,1
;   infillExtruder,0
;   internalInfillPattern,Full Honeycomb
;   externalInfillPattern,Rectilinear
;   infillPercentage,40
;   outlineOverlapPercentage,35
;   infillExtrusionWidthPercentage,90
;   minInfillLength,5
;   infillLayerInterval,1
;   internalInfillAngles,0,120,-120
;   overlapInternalInfillAngles,0
;   externalInfillAngles,45,-45
;   generateSupport,0
;   supportExtruder,0
;   supportInfillPercentage,50
;   supportExtraInflation,0
;   supportBaseLayers,1
;   denseSupportExtruder,0
;   denseSupportLayers,4
;   denseSupportInfillPercentage,90
;   supportLayerInterval,1
;   supportHorizontalPartOffset,0.5
;   supportUpperSeparationLayers,1
;   supportLowerSeparationLayers,1
;   supportType,0
;   supportGridSpacing,1
;   maxOverhangAngle,46
;   supportAngles,0
;   temperatureName,Extruder 1,Heated Bed
;   temperatureNumber,0,1
;   temperatureSetpointCount,1,1
;   temperatureSetpointLayers,1,1
;   temperatureSetpointTemperatures,203,60
;   temperatureStabilizeAtStartup,1,1
;   temperatureHeatedBed,0,1
;   fanLayers,1,3
;   fanSpeeds,0,60
;   blipFanToFullPower,1
;   adjustSpeedForCooling,1
;   minSpeedLayerTime,15
;   minCoolingSpeedSlowdown,20
;   increaseFanForCooling,1
;   minFanLayerTime,45
;   maxCoolingFanSpeed,100
;   increaseFanForBridging,1
;   bridgingFanSpeed,100
;   use5D,1
;   relativeEdistances,0
;   allowEaxisZeroing,1
;   independentExtruderAxes,0
;   includeM10123,0
;   stickySupport,1
;   applyToolheadOffsets,0
;   gcodeXoffset,0
;   gcodeYoffset,0
;   gcodeZoffset,0
;   overrideMachineDefinition,0
;   machineTypeOverride,0
;   strokeXoverride,100
;   strokeYoverride,100
;   strokeZoverride,100
;   originOffsetXoverride,0
;   originOffsetYoverride,0
;   originOffsetZoverride,0
;   homeXdirOverride,-1
;   homeYdirOverride,-1
;   homeZdirOverride,-1
;   flipXoverride,1
;   flipYoverride,-1
;   flipZoverride,1
;   toolheadOffsets,0,0|0,0|0,0|0,0|0,0|0,0
;   overrideFirmwareConfiguration,0
;   firmwareTypeOverride,RepRap (Marlin/Repetier/Sprinter)
;   GPXconfigOverride,r2
;   baudRateOverride,115200
;   overridePrinterModels,0
;   printerModelsOverride
;   startingGcode,G28 XY ; HOME XY,M561 ; Clear any bed transform,G1 X80 Y80 Z25; move to center of bed,G30 ;Do a single Z probe,G29 S1 ; Load bed compensating height map,G1 X0 Y0 Z10 ; Return to origin
;   layerChangeGcode,
;   retractionGcode,
;   toolChangeGcode,
;   endingGcode,G10 S5; retract filament to relieve pressure,M104 S0 ; turn off extruder,M140 S0 ; turn off bed,G91 G1 Z10 ; Clearance from part,G90 G1 X0 Y0 Z170 ; Go to starting position (X0 Y0 Z 170),M84 ; disable motor,M107; Turn off fan
;   exportFileFormat,gcode
;   celebration,0
;   celebrationSong,Random Song
;   postProcessing,
;   defaultSpeed,3600
;   outlineUnderspeed,0.8
;   solidInfillUnderspeed,1
;   supportUnderspeed,1
;   rapidXYspeed,3600
;   rapidZspeed,1800
;   minBridgingArea,10
;   bridgingExtraInflation,5
;   bridgingExtrusionMultiplier,0.9
;   bridgingSpeedMultiplier,0.6
;   useFixedBridgingAngle,0
;   fixedBridgingAngle,0
;   applyBridgingToPerimeters,1
;   filamentDiameters,1.75|1.75|1.75|1.75|1.75|1.75
;   filamentPricesPerKg,20|46|46|46|46|46
;   filamentDensities,1.33|1.25|1.25|1.25|1.25|1.25
;   useMinPrintHeight,0
;   minPrintHeight,40
;   useMaxPrintHeight,0
;   maxPrintHeight,60
;   useDiaphragm,0
;   diaphragmLayerInterval,20
;   robustSlicing,1
;   mergeAllIntoSolid,0
;   onlyRetractWhenCrossingOutline,1
;   retractBetweenLayers,0
;   useRetractionMinTravel,0
;   retractionMinTravel,3
;   retractWhileWiping,1
;   onlyWipeOutlines,1
;   avoidCrossingOutline,0
;   maxMovementDetourFactor,3
;   toolChangeRetractionDistance,12
;   toolChangeExtraRestartDistance,-0.5
;   toolChangeRetractionSpeed,600
;   externalThinWallType,1
;   internalThinWallType,2
;   thinWallAllowedOverlapPercentage,20
;   singleExtrusionMinLength,1
;   singleExtrusionMinPrintingWidthPercentage,50
;   singleExtrusionMaxPrintingWidthPercentage,200
;   singleExtrusionEndpointExtension,0.2
;   horizontalSizeCompensation,0
G90
M82
M106 S255
G4 P500
M106 S78
M140 S60
M190 S60
M104 S203 T0
M109 S203 T0
G28 XY ; HOME XY
M561 ; Clear any bed transform
G1 X80 Y80 Z25; move to center of bed
G30 ;Do a single Z probe
G29 S1 ; Load bed compensating height map
G1 X0 Y0 Z10 ; Return to origin
; process Optimal(1)
; layer 1, Z = 0.250
T0
; feature skirt
; tool H0.250 W0.480
G1 Z0.250 F1800
G1 X48.493 Y73.859 F3600
G92 E0.0000
G1 X49.411 Y73.297 E0.0559 F2700
G1 X49.671 Y73.164 E0.0710
G1 X50.666 Y72.752 E0.1269
G1 X50.944 Y72.662 E0.1421
G1 X51.992 Y72.410 E0.1980
G1 X52.280 Y72.365 E0.2131
G1 X53.281 Y72.286 E0.2652
G1 X53.427 Y72.280 E0.2728
G1 X123.041 Y72.280 E3.8848
G1 X125.220 Y74.459 E4.0447
G1 X125.220 Y90.541 E4.8791
G1 X123.041 Y92.720 E5.0390
G1 X53.427 Y92.720 E8.6510
G1 X53.281 Y92.714 E8.6585
G1 X52.280 Y92.635 E8.7106
G1 X51.992 Y92.590 E8.7258
G1 X50.944 Y92.338 E8.7817
G1 X50.666 Y92.248 E8.7968
G1 X49.671 Y91.836 E8.8527
G1 X49.411 Y91.703 E8.8679
G1 X48.493 Y91.141 E8.9238
G1 X48.256 Y90.969 E8.9389
G1 X47.437 Y90.269 E8.9948
G1 X47.231 Y90.063 E9.0100
G1 X46.531 Y89.244 E9.0658
G1 X46.359 Y89.007 E9.0810
G1 X45.797 Y88.089 E9.1369
G1 X45.664 Y87.829 E9.1521
G1 X45.252 Y86.834 E9.2079
G1 X45.162 Y86.556 E9.2231
G1 X44.910 Y85.508 E9.2790
G1 X44.864 Y85.220 E9.2941
G1 X44.786 Y84.219 E9.3462
G1 X44.780 Y84.073 E9.3538
G1 X44.780 Y80.927 E9.5170
G1 X44.786 Y80.781 E9.5246
G1 X44.863 Y79.803 E9.5755
G1 X44.907 Y79.522 E9.5903
G1 X45.159 Y78.455 E9.6472
G1 X45.251 Y78.170 E9.6627
G1 X45.664 Y77.171 E9.7188
G1 X45.797 Y76.911 E9.7339
G1 X46.359 Y75.993 E9.7898
G1 X46.531 Y75.756 E9.8050
G1 X47.231 Y74.937 E9.8609
G1 X47.437 Y74.731 E9.8760
G1 X48.256 Y74.031 E9.9319
G1 X48.493 Y73.859 E9.9471
G92 E0.0000
G1 E-3.0000 F1500
G1 X48.760 Y74.259 F3600
G1 E0.0000 F1500
G92 E0.0000
G1 X49.646 Y73.716 E0.0539 F2700
G1 X49.873 Y73.600 E0.0671
G1 X50.833 Y73.203 E0.1210
G1 X51.075 Y73.124 E0.1343
G1 X52.085 Y72.881 E0.1882
G1 X52.337 Y72.842 E0.2014
G1 X53.309 Y72.765 E0.2520
G1 X53.436 Y72.760 E0.2586
G1 X122.842 Y72.760 E3.8598
G1 X124.740 Y74.658 E3.9990
G1 X124.740 Y90.342 E4.8128
G1 X122.842 Y92.240 E4.9521
G1 X53.436 Y92.240 E8.5533
G1 X53.309 Y92.235 E8.5599
G1 X52.337 Y92.158 E8.6105
G1 X52.085 Y92.119 E8.6237
G1 X51.075 Y91.876 E8.6776
G1 X50.833 Y91.797 E8.6908
G1 X49.873 Y91.400 E8.7447
G1 X49.646 Y91.284 E8.7580
G1 X48.760 Y90.741 E8.8119
G1 X48.554 Y90.592 E8.8251
G1 X47.763 Y89.917 E8.8790
G1 X47.583 Y89.737 E8.8922
G1 X46.908 Y88.946 E8.9461
G1 X46.759 Y88.740 E8.9593
G1 X46.216 Y87.854 E9.0133
G1 X46.100 Y87.627 E9.0265
G1 X45.703 Y86.667 E9.0804
G1 X45.624 Y86.425 E9.0936
G1 X45.381 Y85.415 E9.1475
G1 X45.342 Y85.163 E9.1607
G1 X45.265 Y84.191 E9.2113
G1 X45.260 Y84.064 E9.2179
G1 X45.260 Y80.936 E9.3802
G1 X45.265 Y80.809 E9.3868
G1 X45.340 Y79.859 E9.4362
G1 X45.378 Y79.614 E9.4491
G1 X45.621 Y78.584 E9.5041
G1 X45.701 Y78.336 E9.5176
G1 X46.100 Y77.372 E9.5717
G1 X46.216 Y77.146 E9.5849
G1 X46.759 Y76.260 E9.6388
G1 X46.908 Y76.054 E9.6520
G1 X47.583 Y75.263 E9.7059
G1 X47.763 Y75.083 E9.7191
G1 X48.554 Y74.408 E9.7731
G1 X48.760 Y74.259 E9.7863
G92 E0.0000
G1 E-3.0000 F1500
; feature outer perimeter
G1 X50.703 Y77.150 F3600
G1 E0.0000 F1500
G92 E0.0000
G1 X51.339 Y76.759 E0.0387 F2160
G1 X52.029 Y76.474 E0.0775
G1 X52.755 Y76.299 E0.1162
G1 X53.509 Y76.240 E0.1555
G1 X121.260 Y76.240 E3.6708
G1 X121.260 Y88.760 E4.3204
G1 X53.509 Y88.760 E7.8357
G1 X52.755 Y88.701 E7.8749
G1 X52.029 Y88.526 E7.9137
G1 X51.339 Y88.241 E7.9524
G1 X50.703 Y87.850 E7.9912
G1 X50.135 Y87.365 E8.0299
G1 X49.650 Y86.797 E8.0687
G1 X49.259 Y86.161 E8.1074
G1 X48.974 Y85.471 E8.1462
G1 X48.799 Y84.745 E8.1849
G1 X48.740 Y83.991 E8.2242
G1 X48.740 Y81.009 E8.3788
G1 X48.798 Y80.275 E8.4171
G1 X48.974 Y79.529 E8.4568
G1 X49.259 Y78.839 E8.4956
G1 X49.650 Y78.203 E8.5343
G1 X50.135 Y77.635 E8.5731
G1 X50.703 Y77.150 E8.6118
; feature inner perimeter
G1 X50.986 Y77.539 F3600
G92 E0.0000
G1 X51.558 Y77.188 E0.0348 F2430
G1 X52.178 Y76.932 E0.0697
G1 X52.831 Y76.775 E0.1045
G1 X53.528 Y76.720 E0.1408
G1 X120.780 Y76.720 E3.6302
G1 X120.780 Y88.280 E4.2300
G1 X53.528 Y88.280 E7.7194
G1 X52.831 Y88.225 E7.7557
G1 X52.178 Y88.068 E7.7905
G1 X51.558 Y87.812 E7.8254
G1 X50.986 Y87.461 E7.8602
G1 X50.475 Y87.025 E7.8950
G1 X50.039 Y86.514 E7.9299
G1 X49.688 Y85.942 E7.9647
G1 X49.432 Y85.322 E7.9995
G1 X49.275 Y84.669 E8.0343
G1 X49.220 Y83.972 E8.0706
G1 X49.220 Y81.028 E8.2234
G1 X49.273 Y80.349 E8.2587
G1 X49.432 Y79.677 E8.2946
G1 X49.688 Y79.058 E8.3293
G1 X50.039 Y78.486 E8.3641
G1 X50.475 Y77.975 E8.3990
G1 X50.986 Y77.539 E8.4338
G1 X51.269 Y77.929 F3600
G92 E0.0000
G1 X51.777 Y77.617 E0.0309 F2430
G1 X52.327 Y77.390 E0.0618
G1 X52.906 Y77.250 E0.0927
G1 X53.547 Y77.200 E0.1261
G1 X53.840 Y77.200 E0.1413
G1 X53.883 Y77.535 E0.1588
G1 X53.300 Y77.687 E0.1901
G1 X52.511 Y78.044 E0.2351
G1 X51.793 Y78.529 E0.2800
G1 X51.168 Y79.128 E0.3249
G1 X50.654 Y79.824 E0.3698
G1 X50.264 Y80.597 E0.4147
G1 X50.027 Y81.369 E0.4567
G1 X49.700 Y81.320 E0.4738
G1 X49.700 Y81.047 E0.4880
G1 X49.749 Y80.423 E0.5205
G1 X49.890 Y79.825 E0.5524
G1 X50.117 Y79.277 E0.5832
G1 X50.429 Y78.769 E0.6141
G1 X50.816 Y78.316 E0.6450
G1 X51.269 Y77.929 E0.6759
G1 X56.117 Y77.535 F3600
G92 E0.0000
G1 X56.160 Y77.200 E0.0175 F2430
G1 X63.643 Y77.200 E0.4058
G1 X63.686 Y77.535 E0.4233
G1 X63.283 Y77.640 E0.4449
G1 X62.486 Y78.000 E0.4903
G1 X61.762 Y78.490 E0.5356
G1 X61.131 Y79.095 E0.5810
G1 X60.611 Y79.798 E0.6264
G1 X60.217 Y80.578 E0.6717
G1 X60.116 Y80.909 E0.6897
G1 X59.832 Y80.909 E0.7044
G1 X59.736 Y80.597 E0.7214
G1 X59.346 Y79.824 E0.7663
G1 X58.832 Y79.128 E0.8112
G1 X58.207 Y78.529 E0.8561
G1 X57.489 Y78.044 E0.9011
G1 X56.700 Y77.687 E0.9460
G1 X56.117 Y77.535 E0.9773
G92 E0.0000
G1 E-3.0000 F1500
G1 X59.973 Y83.764 F3600
G1 E0.0000 F1500
G92 E0.0000
G1 X60.398 Y84.820 E0.0591 F2430
G1 X60.856 Y85.565 E0.1044
G1 X61.434 Y86.221 E0.1498
G1 X62.114 Y86.770 E0.1951
G1 X62.877 Y87.197 E0.2405
G1 X63.681 Y87.481 E0.2848
G1 X63.626 Y87.800 E0.3016
G1 X56.224 Y87.800 E0.6856
G1 X56.169 Y87.481 E0.7024
G1 X57.102 Y87.151 E0.7538
G1 X57.858 Y86.729 E0.7987
G1 X58.532 Y86.185 E0.8436
G1 X59.104 Y85.535 E0.8885
G1 X59.558 Y84.798 E0.9335
G1 X59.973 Y83.764 E0.9913
G92 E0.0000
G1 E-3.0000 F1500
G1 X53.831 Y87.481 F3600
G1 E0.0000 F1500
G92 E0.0000
G1 X53.776 Y87.800 E0.0168 F2430
G1 X53.547 Y87.800 E0.0287
G1 X52.906 Y87.750 E0.0620
G1 X52.327 Y87.610 E0.0929
G1 X51.777 Y87.383 E0.1238
G1 X51.269 Y87.071 E0.1548
G1 X50.816 Y86.684 E0.1857
G1 X50.429 Y86.231 E0.2166
G1 X50.117 Y85.723 E0.2475
G1 X49.890 Y85.173 E0.2784
G1 X49.750 Y84.594 E0.3093
G1 X49.700 Y83.953 E0.3427
G1 X49.700 Y83.678 E0.3569
G1 X50.043 Y83.642 E0.3748
G1 X50.119 Y83.995 E0.3936
G1 X50.442 Y84.798 E0.4385
G1 X50.896 Y85.535 E0.4834
G1 X51.468 Y86.185 E0.5283
G1 X52.142 Y86.729 E0.5732
G1 X52.898 Y87.151 E0.6182
G1 X53.831 Y87.481 E0.6695
G1 X66.319 Y87.481 F3600
G92 E0.0000
G1 X67.123 Y87.197 E0.0443 F2430
G1 X67.886 Y86.770 E0.0896
G1 X68.566 Y86.221 E0.1350
G1 X69.144 Y85.565 E0.1803
G1 X69.602 Y84.820 E0.2257
G1 X69.973 Y83.898 E0.2773
G1 X70.353 Y84.843 E0.3301
G1 X70.816 Y85.595 E0.3759
G1 X71.399 Y86.257 E0.4217
G1 X72.086 Y86.812 E0.4675
G1 X72.856 Y87.242 E0.5133
G1 X73.532 Y87.481 E0.5505
G1 X73.477 Y87.800 E0.5673
G1 X66.374 Y87.800 E0.9358
G1 X66.319 Y87.481 E0.9526
G92 E0.0000
G1 E-3.0000 F1500
G1 X69.832 Y80.739 F3600
G1 E0.0000 F1500
G92 E0.0000
G1 X69.783 Y80.578 E0.0087 F2430
G1 X69.389 Y79.798 E0.0541
G1 X68.869 Y79.095 E0.0995
G1 X68.238 Y78.490 E0.1448
G1 X67.514 Y78.000 E0.1902
G1 X66.717 Y77.640 E0.2355
G1 X66.314 Y77.535 E0.2571
G1 X66.357 Y77.200 E0.2747
G1 X73.445 Y77.200 E0.6424
G1 X73.488 Y77.535 E0.6599
G1 X73.266 Y77.593 E0.6718
G1 X72.462 Y77.957 E0.7176
G1 X71.730 Y78.451 E0.7634
G1 X71.093 Y79.062 E0.8092
G1 X70.568 Y79.771 E0.8550
G1 X70.171 Y80.560 E0.9008
G1 X70.116 Y80.739 E0.9106
G1 X69.832 Y80.739 E0.9253
G92 E0.0000
G1 E-3.0000 F1500
G1 X76.512 Y77.535 F3600
G1 E0.0000 F1500
G92 E0.0000
G1 X76.555 Y77.200 E0.0175 F2430
G1 X83.279 Y77.200 E0.3664
G1 X83.344 Y77.503 E0.3825
G1 X82.438 Y77.913 E0.4341
G1 X81.699 Y78.412 E0.4803
G1 X81.056 Y79.029 E0.5266
G1 X80.526 Y79.745 E0.5728
G1 X79.972 Y80.843 E0.6366
G1 X79.432 Y79.771 E0.6989
G1 X78.907 Y79.062 E0.7447
G1 X78.269 Y78.451 E0.7905
G1 X77.538 Y77.957 E0.8363
G1 X76.734 Y77.593 E0.8821
G1 X76.512 Y77.535 E0.8940
G92 E0.0000
G1 E-3.0000 F1500
G1 X79.973 Y84.032 F3600
G1 E0.0000 F1500
G92 E0.0000
G1 X80.308 Y84.866 E0.0466 F2430
G1 X80.776 Y85.624 E0.0929
G1 X81.364 Y86.293 E0.1391
G1 X82.058 Y86.853 E0.1854
G1 X82.836 Y87.288 E0.2316
G1 X83.382 Y87.481 E0.2617
G1 X83.327 Y87.800 E0.2785
G1 X76.523 Y87.800 E0.6315
G1 X76.468 Y87.481 E0.6483
G1 X77.144 Y87.242 E0.6854
G1 X77.914 Y86.812 E0.7312
G1 X78.601 Y86.257 E0.7770
G1 X79.184 Y85.595 E0.8228
G1 X79.647 Y84.843 E0.8686
G1 X79.973 Y84.032 E0.9140
G92 E0.0000
G1 E-3.0000 F1500
G1 X86.618 Y87.481 F3600
G1 E0.0000 F1500
G92 E0.0000
G1 X87.164 Y87.288 E0.0301 F2430
G1 X87.942 Y86.853 E0.0763
G1 X88.636 Y86.293 E0.1225
G1 X89.224 Y85.624 E0.1688
G1 X89.692 Y84.866 E0.2150
G1 X89.973 Y84.165 E0.2542
G1 X90.264 Y84.888 E0.2946
G1 X90.735 Y85.654 E0.3413
G1 X91.330 Y86.329 E0.3880
G1 X92.030 Y86.895 E0.4346
G1 X92.815 Y87.333 E0.4813
G1 X93.232 Y87.481 E0.5043
G1 X93.178 Y87.800 E0.5211
G1 X86.673 Y87.800 E0.8586
G1 X86.618 Y87.481 E0.8754
G92 E0.0000
G1 E-3.0000 F1500
G1 X89.972 Y80.733 F3600
G1 E0.0000 F1500
G92 E0.0000
G1 X89.474 Y79.745 E0.0574 F2430
G1 X88.944 Y79.029 E0.1036
G1 X88.301 Y78.412 E0.1499
G1 X87.562 Y77.913 E0.1961
G1 X86.656 Y77.503 E0.2477
G1 X86.721 Y77.200 E0.2638
G1 X93.158 Y77.200 E0.5978
G1 X93.223 Y77.503 E0.6139
G1 X92.413 Y77.869 E0.6600
G1 X91.668 Y78.373 E0.7067
G1 X91.018 Y78.996 E0.7533
G1 X90.483 Y79.719 E0.8000
G1 X89.972 Y80.733 E0.8589
G92 E0.0000
G1 E-3.0000 F1500
G1 X96.777 Y77.503 F3600
G1 E0.0000 F1500
G92 E0.0000
G1 X96.842 Y77.200 E0.0161 F2430
G1 X103.037 Y77.200 E0.3375
G1 X103.102 Y77.503 E0.3536
G1 X102.389 Y77.826 E0.3942
G1 X101.636 Y78.334 E0.4413
G1 X100.981 Y78.962 E0.4884
G1 X100.441 Y79.693 E0.5356
G1 X99.972 Y80.622 E0.5896
G1 X99.517 Y79.719 E0.6420
G1 X98.982 Y78.996 E0.6887
G1 X98.332 Y78.373 E0.7354
G1 X97.587 Y77.869 E0.7821
G1 X96.777 Y77.503 E0.8282
G92 E0.0000
G1 E-3.0000 F1500
