; G-Code generated by Simplify3D(R) Version 4.1.0
; Apr 17, 2019 at 5:06:33 PM
; Settings Summary
;   processName,general PLA
;   applyToModels,NEMA17 motor mount plate
;   profileName,BortBot (modified)
;   profileVersion,2018-03-11 18:52:45
;   baseProfile,Default
;   printMaterial,PLA
;   printQuality,Medium
;   printExtruders,
;   extruderName,Extruder 1
;   extruderToolheadNumber,0
;   extruderDiameter,0.4
;   extruderAutoWidth,1
;   extruderWidth,0.48
;   extrusionMultiplier,1.03
;   extruderUseRetract,1
;   extruderRetractionDistance,1.8
;   extruderExtraRestartDistance,0
;   extruderRetractionZLift,0
;   extruderRetractionSpeed,3000
;   extruderUseCoasting,0
;   extruderCoastingDistance,1.4
;   extruderUseWipe,0
;   extruderWipeDistance,2
;   primaryExtruder,0
;   layerHeight,0.28
;   topSolidLayers,4
;   bottomSolidLayers,4
;   perimeterOutlines,3
;   printPerimetersInsideOut,1
;   startPointOption,3
;   startPointOriginX,200
;   startPointOriginY,100
;   sequentialIslands,0
;   spiralVaseMode,0
;   firstLayerHeightPercentage,200
;   firstLayerWidthPercentage,100
;   firstLayerUnderspeed,0.65
;   useRaft,0
;   raftExtruder,0
;   raftTopLayers,2
;   raftBaseLayers,2
;   raftOffset,3
;   raftSeparationDistance,0.3
;   raftTopInfill,90
;   aboveRaftSpeedMultiplier,0.3
;   useSkirt,1
;   skirtExtruder,0
;   skirtLayers,1
;   skirtOutlines,2
;   skirtOffset,2
;   usePrimePillar,0
;   primePillarExtruder,999
;   primePillarWidth,12
;   primePillarLocation,7
;   primePillarSpeedMultiplier,1
;   useOozeShield,0
;   oozeShieldExtruder,999
;   oozeShieldOffset,2
;   oozeShieldOutlines,1
;   oozeShieldSidewallShape,1
;   oozeShieldSidewallAngle,30
;   oozeShieldSpeedMultiplier,1
;   infillExtruder,0
;   internalInfillPattern,Fast Honeycomb
;   externalInfillPattern,Rectilinear
;   infillPercentage,40
;   outlineOverlapPercentage,50
;   infillExtrusionWidthPercentage,100
;   minInfillLength,5
;   infillLayerInterval,1
;   internalInfillAngles,0
;   overlapInternalInfillAngles,0
;   externalInfillAngles,45,-45
;   generateSupport,0
;   supportExtruder,0
;   supportInfillPercentage,15
;   supportExtraInflation,0
;   supportBaseLayers,1
;   denseSupportExtruder,0
;   denseSupportLayers,2
;   denseSupportInfillPercentage,75
;   supportLayerInterval,1
;   supportHorizontalPartOffset,0.5
;   supportUpperSeparationLayers,1
;   supportLowerSeparationLayers,1
;   supportType,0
;   supportGridSpacing,1
;   maxOverhangAngle,46
;   supportAngles,45
;   temperatureName,Extruder 1,Heated Bed
;   temperatureNumber,0,1
;   temperatureSetpointCount,1,1
;   temperatureSetpointLayers,1,1
;   temperatureSetpointTemperatures,210,60
;   temperatureStabilizeAtStartup,1,1
;   temperatureHeatedBed,0,1
;   fanLayers,1,3
;   fanSpeeds,0,60
;   blipFanToFullPower,1
;   adjustSpeedForCooling,0
;   minSpeedLayerTime,15
;   minCoolingSpeedSlowdown,20
;   increaseFanForCooling,1
;   minFanLayerTime,45
;   maxCoolingFanSpeed,100
;   increaseFanForBridging,1
;   bridgingFanSpeed,100
;   use5D,1
;   relativeEdistances,0
;   allowEaxisZeroing,1
;   independentExtruderAxes,0
;   includeM10123,0
;   stickySupport,1
;   applyToolheadOffsets,0
;   gcodeXoffset,0
;   gcodeYoffset,0
;   gcodeZoffset,0
;   overrideMachineDefinition,0
;   machineTypeOverride,0
;   strokeXoverride,100
;   strokeYoverride,100
;   strokeZoverride,100
;   originOffsetXoverride,0
;   originOffsetYoverride,0
;   originOffsetZoverride,0
;   homeXdirOverride,-1
;   homeYdirOverride,-1
;   homeZdirOverride,-1
;   flipXoverride,1
;   flipYoverride,-1
;   flipZoverride,1
;   toolheadOffsets,0,0|0,0|0,0|0,0|0,0|0,0
;   overrideFirmwareConfiguration,0
;   firmwareTypeOverride,RepRap (Marlin/Repetier/Sprinter)
;   GPXconfigOverride,r2
;   baudRateOverride,115200
;   overridePrinterModels,0
;   printerModelsOverride
;   startingGcode,;G28 XY ; HOME XY,;M561 ; Clear any bed transform,G1 X100 Y80 Z25; move to center of bed,G30 ;Do a single Z probe,G29 S1 ; Load bed compensating height map,;G1 Z10; ,M572 D0 S0.15
;   layerChangeGcode,
;   retractionGcode,
;   toolChangeGcode,
;   endingGcode,G10 S5; retract filament to relieve pressure,M104 S0 ; turn off extruder,M140 S0 ; turn off bed,G91 G1 Z10 ; Clearance from part,G90 G1 X0 Y0 ; Go to starting position (X0 Y0 Z300),M84 ; disable motor,M107; Turn off fan
;   exportFileFormat,gcode
;   celebration,0
;   celebrationSong,Random Song
;   postProcessing,
;   defaultSpeed,3600
;   outlineUnderspeed,0.8
;   solidInfillUnderspeed,1
;   supportUnderspeed,1
;   rapidXYspeed,3600
;   rapidZspeed,1800
;   minBridgingArea,10
;   bridgingExtraInflation,5
;   bridgingExtrusionMultiplier,0.9
;   bridgingSpeedMultiplier,0.6
;   useFixedBridgingAngle,0
;   fixedBridgingAngle,0
;   applyBridgingToPerimeters,1
;   filamentDiameters,1.75|1.75|1.75|1.75|1.75|1.75
;   filamentPricesPerKg,20|46|46|46|46|46
;   filamentDensities,1.33|1.25|1.25|1.25|1.25|1.25
;   useMinPrintHeight,0
;   minPrintHeight,50
;   useMaxPrintHeight,0
;   maxPrintHeight,60
;   useDiaphragm,0
;   diaphragmLayerInterval,20
;   robustSlicing,1
;   mergeAllIntoSolid,0
;   onlyRetractWhenCrossingOutline,1
;   retractBetweenLayers,0
;   useRetractionMinTravel,0
;   retractionMinTravel,3
;   retractWhileWiping,0
;   onlyWipeOutlines,1
;   avoidCrossingOutline,0
;   maxMovementDetourFactor,3
;   toolChangeRetractionDistance,12
;   toolChangeExtraRestartDistance,-0.5
;   toolChangeRetractionSpeed,600
;   externalThinWallType,1
;   internalThinWallType,1
;   thinWallAllowedOverlapPercentage,30
;   singleExtrusionMinLength,1
;   singleExtrusionMinPrintingWidthPercentage,50
;   singleExtrusionMaxPrintingWidthPercentage,200
;   singleExtrusionEndpointExtension,0.2
;   horizontalSizeCompensation,0
G90
M82
M106 S0
M140 S60
M190 S60
M104 S210 T0
M109 S210 T0
;G28 XY ; HOME XY
;M561 ; Clear any bed transform
G1 X100 Y80 Z25; move to center of bed
G30 ;Do a single Z probe
G29 S1 ; Load bed compensating height map
;G1 Z10; 
M572 D0 S0.15
; process general PLA
; layer 1, Z = 0.560
T0
; feature skirt
; tool H0.560 W0.480
G1 Z0.560 F1800
G1 X123.720 Y106.031 F3600
G92 E0.0000
G1 X123.719 Y106.094 E0.0073 F2340
G1 X123.693 Y106.650 E0.0713
G1 X123.681 Y106.775 E0.0857
G1 X123.598 Y107.372 E0.1552
G1 X123.567 Y107.526 E0.1733
G1 X123.354 Y108.349 E0.2711
G1 X123.306 Y108.498 E0.2891
G1 X123.088 Y109.061 E0.3586
G1 X123.037 Y109.176 E0.3731
G1 X122.775 Y109.702 E0.4407
G1 X122.714 Y109.811 E0.4551
G1 X122.404 Y110.311 E0.5228
G1 X122.333 Y110.415 E0.5372
G1 X121.970 Y110.896 E0.6067
G1 X121.868 Y111.016 E0.6248
G1 X121.271 Y111.642 E0.7244
G1 X121.131 Y111.769 E0.7461
G1 X120.453 Y112.306 E0.8457
G1 X120.324 Y112.396 E0.8638
G1 X119.811 Y112.714 E0.9332
G1 X119.702 Y112.775 E0.9477
G1 X119.176 Y113.037 E1.0153
G1 X119.061 Y113.088 E1.0298
G1 X118.513 Y113.300 E1.0974
G1 X118.394 Y113.340 E1.1119
G1 X117.829 Y113.501 E1.1795
G1 X117.706 Y113.529 E1.1939
G1 X117.129 Y113.637 E1.2616
G1 X117.004 Y113.655 E1.2760
G1 X116.419 Y113.709 E1.3437
G1 X116.294 Y113.715 E1.3581
G1 X83.953 Y113.720 E5.0807
G1 X83.859 Y113.717 E5.0916
G1 X83.042 Y113.660 E5.1858
G1 X82.887 Y113.640 E5.2039
G1 X82.294 Y113.529 E5.2733
G1 X82.171 Y113.501 E5.2878
G1 X81.606 Y113.340 E5.3554
G1 X81.487 Y113.300 E5.3699
G1 X80.925 Y113.082 E5.4393
G1 X80.782 Y113.017 E5.4574
G1 X80.030 Y112.621 E5.5552
G1 X79.895 Y112.539 E5.5733
G1 X79.398 Y112.199 E5.6427
G1 X79.297 Y112.123 E5.6572
G1 X78.845 Y111.747 E5.7248
G1 X78.753 Y111.663 E5.7393
G1 X78.337 Y111.247 E5.8069
G1 X78.253 Y111.154 E5.8214
G1 X77.877 Y110.702 E5.8890
G1 X77.801 Y110.602 E5.9035
G1 X77.469 Y110.118 E5.9711
G1 X77.403 Y110.011 E5.9856
G1 X77.117 Y109.497 E6.0532
G1 X77.061 Y109.385 E6.0677
G1 X76.824 Y108.847 E6.1353
G1 X76.779 Y108.730 E6.1498
G1 X76.592 Y108.173 E6.2174
G1 X76.558 Y108.052 E6.2319
G1 X76.419 Y107.465 E6.3013
G1 X76.392 Y107.310 E6.3194
G1 X76.294 Y106.466 E6.4172
G1 X76.285 Y106.309 E6.4353
G1 X76.285 Y73.706 E10.1881
G1 X76.291 Y73.581 E10.2026
G1 X76.348 Y72.964 E10.2738
G1 X76.379 Y72.778 E10.2955
G1 X76.633 Y71.697 E10.4234
G1 X76.689 Y71.516 E10.4452
G1 X76.912 Y70.939 E10.5164
G1 X76.963 Y70.824 E10.5309
G1 X77.239 Y70.270 E10.6021
G1 X77.335 Y70.108 E10.6238
G1 X77.963 Y69.191 E10.7517
G1 X78.080 Y69.043 E10.7734
G1 X78.497 Y68.586 E10.8447
G1 X78.586 Y68.497 E10.8591
G1 X79.043 Y68.080 E10.9304
G1 X79.191 Y67.963 E10.9521
G1 X80.121 Y67.326 E11.0818
G1 X80.312 Y67.216 E11.1072
G1 X81.109 Y66.842 E11.2086
G1 X81.255 Y66.784 E11.2267
G1 X81.827 Y66.592 E11.2961
G1 X81.948 Y66.558 E11.3106
G1 X82.520 Y66.423 E11.3782
G1 X82.643 Y66.400 E11.3927
G1 X83.225 Y66.319 E11.4603
G1 X83.350 Y66.307 E11.4747
G1 X83.906 Y66.281 E11.5388
G1 X83.969 Y66.280 E11.5460
G1 X116.294 Y66.285 E15.2669
G1 X116.419 Y66.291 E15.2813
G1 X117.004 Y66.345 E15.3489
G1 X117.129 Y66.363 E15.3634
G1 X117.706 Y66.471 E15.4310
G1 X117.829 Y66.499 E15.4455
G1 X118.394 Y66.660 E15.5131
G1 X118.513 Y66.700 E15.5276
G1 X119.061 Y66.912 E15.5952
G1 X119.176 Y66.963 E15.6097
G1 X119.702 Y67.225 E15.6773
G1 X119.812 Y67.286 E15.6918
G1 X120.324 Y67.604 E15.7612
G1 X120.453 Y67.694 E15.7793
G1 X121.119 Y68.222 E15.8771
G1 X121.236 Y68.326 E15.8952
G1 X121.663 Y68.753 E15.9646
G1 X121.747 Y68.845 E15.9791
G1 X122.123 Y69.297 E16.0467
G1 X122.199 Y69.398 E16.0612
G1 X122.539 Y69.895 E16.1306
G1 X122.621 Y70.030 E16.1487
G1 X123.017 Y70.782 E16.2465
G1 X123.082 Y70.925 E16.2646
G1 X123.300 Y71.487 E16.3340
G1 X123.340 Y71.606 E16.3485
G1 X123.501 Y72.171 E16.4161
G1 X123.529 Y72.294 E16.4306
G1 X123.637 Y72.871 E16.4982
G1 X123.655 Y72.996 E16.5127
G1 X123.709 Y73.581 E16.5803
G1 X123.715 Y73.706 E16.5947
G1 X123.720 Y106.031 E20.3156
G92 E0.0000
G1 E-1.8000 F3000
G1 X123.240 Y106.026 F3600
G1 E0.0000 F3000
G92 E0.0000
G1 X123.239 Y106.077 E0.0060 F2340
G1 X123.214 Y106.617 E0.0681
G1 X123.204 Y106.719 E0.0800
G1 X123.124 Y107.292 E0.1466
G1 X123.099 Y107.419 E0.1614
G1 X122.893 Y108.215 E0.2560
G1 X122.853 Y108.338 E0.2709
G1 X122.644 Y108.877 E0.3375
G1 X122.602 Y108.972 E0.3494
G1 X122.350 Y109.478 E0.4145
G1 X122.300 Y109.568 E0.4264
G1 X122.002 Y110.049 E0.4915
G1 X121.944 Y110.134 E0.5034
G1 X121.595 Y110.596 E0.5700
G1 X121.511 Y110.694 E0.5849
G1 X120.935 Y111.298 E0.6809
G1 X120.820 Y111.403 E0.6988
G1 X120.166 Y111.921 E0.7949
G1 X120.060 Y111.995 E0.8098
G1 X119.568 Y112.300 E0.8764
G1 X119.478 Y112.350 E0.8883
G1 X118.972 Y112.602 E0.9534
G1 X118.877 Y112.644 E0.9653
G1 X118.350 Y112.848 E1.0303
G1 X118.252 Y112.881 E1.0423
G1 X117.708 Y113.036 E1.1073
G1 X117.607 Y113.060 E1.1192
G1 X117.052 Y113.163 E1.1843
G1 X116.949 Y113.178 E1.1963
G1 X116.386 Y113.230 E1.2613
G1 X116.283 Y113.235 E1.2732
G1 X83.961 Y113.240 E4.9936
G1 X83.884 Y113.237 E5.0026
G1 X83.089 Y113.182 E5.0942
G1 X82.961 Y113.166 E5.1091
G1 X82.393 Y113.059 E5.1757
G1 X82.292 Y113.036 E5.1876
G1 X81.748 Y112.881 E5.2526
G1 X81.650 Y112.848 E5.2646
G1 X81.111 Y112.639 E5.3311
G1 X80.993 Y112.586 E5.3460
G1 X80.266 Y112.202 E5.4406
G1 X80.155 Y112.136 E5.4555
G1 X79.678 Y111.809 E5.5221
G1 X79.596 Y111.746 E5.5340
G1 X79.161 Y111.385 E5.5991
G1 X79.084 Y111.316 E5.6110
G1 X78.684 Y110.916 E5.6761
G1 X78.615 Y110.839 E5.6880
G1 X78.253 Y110.404 E5.7531
G1 X78.191 Y110.322 E5.7649
G1 X77.872 Y109.855 E5.8300
G1 X77.817 Y109.767 E5.8420
G1 X77.542 Y109.274 E5.9070
G1 X77.496 Y109.181 E5.9189
G1 X77.268 Y108.664 E5.9840
G1 X77.230 Y108.567 E5.9959
G1 X77.051 Y108.031 E6.0610
G1 X77.022 Y107.932 E6.0729
G1 X76.890 Y107.369 E6.1395
G1 X76.868 Y107.241 E6.1544
G1 X76.773 Y106.425 E6.2490
G1 X76.765 Y106.296 E6.2639
G1 X76.765 Y73.717 E10.0138
G1 X76.770 Y73.614 E10.0258
G1 X76.825 Y73.025 E10.0938
G1 X76.850 Y72.872 E10.1117
G1 X77.096 Y71.823 E10.2358
G1 X77.142 Y71.674 E10.2536
G1 X77.356 Y71.123 E10.3217
G1 X77.398 Y71.028 E10.3336
G1 X77.661 Y70.499 E10.4017
G1 X77.740 Y70.365 E10.4195
G1 X78.349 Y69.476 E10.5436
G1 X78.446 Y69.354 E10.5615
G1 X78.844 Y68.917 E10.6296
G1 X78.917 Y68.844 E10.6415
G1 X79.354 Y68.446 E10.7095
G1 X79.476 Y68.349 E10.7274
G1 X80.376 Y67.733 E10.8530
G1 X80.533 Y67.643 E10.8738
G1 X81.301 Y67.282 E10.9714
G1 X81.421 Y67.234 E10.9863
G1 X81.969 Y67.051 E11.0529
G1 X82.069 Y67.022 E11.0648
G1 X82.619 Y66.893 E11.1299
G1 X82.721 Y66.874 E11.1418
G1 X83.281 Y66.796 E11.2069
G1 X83.383 Y66.786 E11.2188
G1 X83.923 Y66.761 E11.2809
G1 X83.974 Y66.760 E11.2869
G1 X116.283 Y66.765 E15.0058
G1 X116.386 Y66.770 E15.0177
G1 X116.949 Y66.822 E15.0827
G1 X117.051 Y66.837 E15.0946
G1 X117.607 Y66.940 E15.1597
G1 X117.708 Y66.964 E15.1716
G1 X118.252 Y67.119 E15.2367
G1 X118.350 Y67.152 E15.2486
G1 X118.877 Y67.356 E15.3137
G1 X118.972 Y67.398 E15.3256
G1 X119.478 Y67.650 E15.3907
G1 X119.568 Y67.700 E15.4026
G1 X120.060 Y68.005 E15.4692
G1 X120.166 Y68.079 E15.4841
G1 X120.810 Y68.589 E15.5787
G1 X120.907 Y68.675 E15.5936
G1 X121.316 Y69.084 E15.6601
G1 X121.385 Y69.161 E15.6720
G1 X121.747 Y69.596 E15.7371
G1 X121.809 Y69.678 E15.7490
G1 X122.136 Y70.155 E15.8156
G1 X122.203 Y70.266 E15.8305
G1 X122.586 Y70.993 E15.9251
G1 X122.639 Y71.111 E15.9400
G1 X122.848 Y71.650 E16.0066
G1 X122.881 Y71.748 E16.0185
G1 X123.036 Y72.292 E16.0835
G1 X123.060 Y72.393 E16.0954
G1 X123.163 Y72.949 E16.1605
G1 X123.178 Y73.051 E16.1724
G1 X123.230 Y73.614 E16.2375
G1 X123.235 Y73.717 E16.2494
G1 X123.240 Y106.026 E19.9683
G92 E0.0000
G1 E-1.8000 F3000
; feature inner perimeter
G1 X119.800 Y105.972 F3600
G1 E0.0000 F3000
G92 E0.0000
G1 X119.782 Y106.350 E0.0436 F2106
G1 X119.734 Y106.698 E0.0840
G1 X119.651 Y107.053 E0.1259
G1 X119.607 Y107.194 E0.1430
G1 X119.475 Y107.534 E0.1849
G1 X119.319 Y107.849 E0.2253
G1 X119.134 Y108.147 E0.2657
G1 X118.914 Y108.438 E0.3077
G1 X118.817 Y108.549 E0.3247
G1 X118.549 Y108.817 E0.3683
G1 X118.438 Y108.914 E0.3853
G1 X118.147 Y109.134 E0.4273
G1 X117.848 Y109.319 E0.4677
G1 X117.534 Y109.475 E0.5081
G1 X117.207 Y109.602 E0.5485
G1 X116.870 Y109.698 E0.5889
G1 X116.525 Y109.762 E0.6293
G1 X116.175 Y109.795 E0.6696
G1 X84.028 Y109.800 E4.3701
G1 X83.635 Y109.782 E4.4152
G1 X83.489 Y109.765 E4.4322
G1 X83.130 Y109.698 E4.4742
G1 X82.793 Y109.602 E4.5146
G1 X82.453 Y109.470 E4.5566
G1 X82.319 Y109.407 E4.5736
G1 X82.000 Y109.230 E4.6156
G1 X81.711 Y109.031 E4.6560
G1 X81.441 Y108.807 E4.6964
G1 X81.193 Y108.559 E4.7368
G1 X80.968 Y108.289 E4.7772
G1 X80.770 Y108.000 E4.8175
G1 X80.600 Y107.693 E4.8579
G1 X80.458 Y107.372 E4.8983
G1 X80.346 Y107.040 E4.9387
G1 X80.263 Y106.685 E4.9807
G1 X80.239 Y106.539 E4.9977
G1 X80.205 Y106.175 E5.0397
G1 X80.205 Y73.825 E8.7635
G1 X80.239 Y73.461 E8.8055
G1 X80.263 Y73.315 E8.8225
G1 X80.349 Y72.947 E8.8661
G1 X80.393 Y72.806 E8.8831
G1 X80.525 Y72.466 E8.9251
G1 X80.688 Y72.139 E8.9671
G1 X80.762 Y72.012 E8.9841
G1 X80.976 Y71.699 E9.0276
G1 X81.068 Y71.583 E9.0447
G1 X81.314 Y71.314 E9.0866
G1 X81.583 Y71.068 E9.1286
G1 X81.699 Y70.976 E9.1457
G1 X82.012 Y70.762 E9.1892
G1 X82.139 Y70.688 E9.2062
G1 X82.478 Y70.519 E9.2498
G1 X82.614 Y70.462 E9.2668
G1 X82.961 Y70.346 E9.3088
G1 X83.302 Y70.266 E9.3492
G1 X83.650 Y70.218 E9.3896
G1 X84.028 Y70.200 E9.4332
G1 X116.175 Y70.205 E13.1336
G1 X116.525 Y70.238 E13.1740
G1 X116.870 Y70.302 E13.2144
G1 X117.207 Y70.398 E13.2548
G1 X117.534 Y70.525 E13.2951
G1 X117.848 Y70.681 E13.3355
G1 X118.158 Y70.873 E13.3775
G1 X118.279 Y70.960 E13.3946
G1 X118.559 Y71.193 E13.4365
G1 X118.807 Y71.441 E13.4769
G1 X119.032 Y71.711 E13.5173
G1 X119.238 Y72.012 E13.5593
G1 X119.312 Y72.139 E13.5763
G1 X119.475 Y72.466 E13.6183
G1 X119.602 Y72.793 E13.6587
G1 X119.698 Y73.130 E13.6991
G1 X119.762 Y73.475 E13.7394
G1 X119.795 Y73.825 E13.7798
G1 X119.800 Y105.972 E17.4803
G1 X120.280 Y105.983 F3600
G92 E0.0000
G1 X120.261 Y106.395 E0.0474 F2106
G1 X120.206 Y106.786 E0.0929
G1 X120.114 Y107.179 E0.1394
G1 X120.060 Y107.352 E0.1602
G1 X119.915 Y107.728 E0.2067
G1 X119.738 Y108.082 E0.2522
G1 X119.530 Y108.418 E0.2976
G1 X119.287 Y108.740 E0.3441
G1 X119.168 Y108.877 E0.3649
G1 X118.877 Y109.168 E0.4124
G1 X118.740 Y109.287 E0.4332
G1 X118.418 Y109.530 E0.4797
G1 X118.082 Y109.738 E0.5252
