; G-Code generated by Simplify3D(R) Version 4.1.0
; Dec 8, 2018 at 8:24:43 PM
; Settings Summary
;   processName,Optimal(1)
;   applyToModels,NEMA 17 mounting plate
;   profileName,BortBot (modified)
;   profileVersion,2018-03-11 18:52:45
;   baseProfile,Default
;   printMaterial,PLA
;   printQuality,Medium
;   printExtruders,
;   extruderName,Extruder 1
;   extruderToolheadNumber,0
;   extruderDiameter,0.4
;   extruderAutoWidth,1
;   extruderWidth,0.48
;   extrusionMultiplier,1.04
;   extruderUseRetract,1
;   extruderRetractionDistance,3
;   extruderExtraRestartDistance,0
;   extruderRetractionZLift,0
;   extruderRetractionSpeed,1500
;   extruderUseCoasting,0
;   extruderCoastingDistance,1.4
;   extruderUseWipe,1
;   extruderWipeDistance,2
;   primaryExtruder,0
;   layerHeight,0.3
;   topSolidLayers,3
;   bottomSolidLayers,2
;   perimeterOutlines,2
;   printPerimetersInsideOut,0
;   startPointOption,2
;   startPointOriginX,0
;   startPointOriginY,0
;   sequentialIslands,0
;   spiralVaseMode,0
;   firstLayerHeightPercentage,125
;   firstLayerWidthPercentage,100
;   firstLayerUnderspeed,0.75
;   useRaft,0
;   raftExtruder,0
;   raftTopLayers,2
;   raftBaseLayers,2
;   raftOffset,3
;   raftSeparationDistance,0.3
;   raftTopInfill,90
;   aboveRaftSpeedMultiplier,0.3
;   useSkirt,1
;   skirtExtruder,0
;   skirtLayers,1
;   skirtOutlines,2
;   skirtOffset,2
;   usePrimePillar,0
;   primePillarExtruder,999
;   primePillarWidth,12
;   primePillarLocation,7
;   primePillarSpeedMultiplier,1
;   useOozeShield,0
;   oozeShieldExtruder,999
;   oozeShieldOffset,2
;   oozeShieldOutlines,1
;   oozeShieldSidewallShape,1
;   oozeShieldSidewallAngle,30
;   oozeShieldSpeedMultiplier,1
;   infillExtruder,0
;   internalInfillPattern,Full Honeycomb
;   externalInfillPattern,Rectilinear
;   infillPercentage,40
;   outlineOverlapPercentage,35
;   infillExtrusionWidthPercentage,90
;   minInfillLength,5
;   infillLayerInterval,1
;   internalInfillAngles,0,120,-120
;   overlapInternalInfillAngles,0
;   externalInfillAngles,45,-45
;   generateSupport,1
;   supportExtruder,0
;   supportInfillPercentage,50
;   supportExtraInflation,0
;   supportBaseLayers,1
;   denseSupportExtruder,0
;   denseSupportLayers,4
;   denseSupportInfillPercentage,90
;   supportLayerInterval,1
;   supportHorizontalPartOffset,0.5
;   supportUpperSeparationLayers,1
;   supportLowerSeparationLayers,1
;   supportType,0
;   supportGridSpacing,1
;   maxOverhangAngle,46
;   supportAngles,0
;   temperatureName,Extruder 1,Heated Bed
;   temperatureNumber,0,1
;   temperatureSetpointCount,1,1
;   temperatureSetpointLayers,1,1
;   temperatureSetpointTemperatures,203,60
;   temperatureStabilizeAtStartup,1,1
;   temperatureHeatedBed,0,1
;   fanLayers,1,3
;   fanSpeeds,0,60
;   blipFanToFullPower,1
;   adjustSpeedForCooling,1
;   minSpeedLayerTime,15
;   minCoolingSpeedSlowdown,20
;   increaseFanForCooling,1
;   minFanLayerTime,45
;   maxCoolingFanSpeed,100
;   increaseFanForBridging,1
;   bridgingFanSpeed,100
;   use5D,1
;   relativeEdistances,0
;   allowEaxisZeroing,1
;   independentExtruderAxes,0
;   includeM10123,0
;   stickySupport,1
;   applyToolheadOffsets,0
;   gcodeXoffset,0
;   gcodeYoffset,0
;   gcodeZoffset,0
;   overrideMachineDefinition,0
;   machineTypeOverride,0
;   strokeXoverride,100
;   strokeYoverride,100
;   strokeZoverride,100
;   originOffsetXoverride,0
;   originOffsetYoverride,0
;   originOffsetZoverride,0
;   homeXdirOverride,-1
;   homeYdirOverride,-1
;   homeZdirOverride,-1
;   flipXoverride,1
;   flipYoverride,-1
;   flipZoverride,1
;   toolheadOffsets,0,0|0,0|0,0|0,0|0,0|0,0
;   overrideFirmwareConfiguration,0
;   firmwareTypeOverride,RepRap (Marlin/Repetier/Sprinter)
;   GPXconfigOverride,r2
;   baudRateOverride,115200
;   overridePrinterModels,0
;   printerModelsOverride
;   startingGcode,G28 XY ; HOME XY,M561 ; Clear any bed transform,G1 X80 Y80 Z25; move to center of bed,G30 ;Do a single Z probe,G29 S1 ; Load bed compensating height map,G1 X0 Y0 Z10 ; Return to origin
;   layerChangeGcode,
;   retractionGcode,
;   toolChangeGcode,
;   endingGcode,G10 S5; retract filament to relieve pressure,M104 S0 ; turn off extruder,M140 S0 ; turn off bed,G91 G1 Z10 ; Clearance from part,G90 G1 X0 Y0 Z170 ; Go to starting position (X0 Y0 Z 170),M84 ; disable motor,M107; Turn off fan
;   exportFileFormat,gcode
;   celebration,0
;   celebrationSong,Random Song
;   postProcessing,
;   defaultSpeed,3600
;   outlineUnderspeed,0.8
;   solidInfillUnderspeed,1
;   supportUnderspeed,1
;   rapidXYspeed,3600
;   rapidZspeed,1800
;   minBridgingArea,10
;   bridgingExtraInflation,5
;   bridgingExtrusionMultiplier,0.9
;   bridgingSpeedMultiplier,0.6
;   useFixedBridgingAngle,0
;   fixedBridgingAngle,0
;   applyBridgingToPerimeters,1
;   filamentDiameters,1.75|1.75|1.75|1.75|1.75|1.75
;   filamentPricesPerKg,20|46|46|46|46|46
;   filamentDensities,1.33|1.25|1.25|1.25|1.25|1.25
;   useMinPrintHeight,0
;   minPrintHeight,40
;   useMaxPrintHeight,0
;   maxPrintHeight,60
;   useDiaphragm,0
;   diaphragmLayerInterval,20
;   robustSlicing,1
;   mergeAllIntoSolid,0
;   onlyRetractWhenCrossingOutline,1
;   retractBetweenLayers,0
;   useRetractionMinTravel,0
;   retractionMinTravel,3
;   retractWhileWiping,1
;   onlyWipeOutlines,1
;   avoidCrossingOutline,0
;   maxMovementDetourFactor,3
;   toolChangeRetractionDistance,12
;   toolChangeExtraRestartDistance,-0.5
;   toolChangeRetractionSpeed,600
;   externalThinWallType,1
;   internalThinWallType,2
;   thinWallAllowedOverlapPercentage,20
;   singleExtrusionMinLength,1
;   singleExtrusionMinPrintingWidthPercentage,50
;   singleExtrusionMaxPrintingWidthPercentage,200
;   singleExtrusionEndpointExtension,0.2
;   horizontalSizeCompensation,0
G90
M82
M106 S255
G4 P500
M106 S90
M140 S60
M190 S60
M104 S203 T0
M109 S203 T0
G28 XY ; HOME XY
M561 ; Clear any bed transform
G1 X80 Y80 Z25; move to center of bed
G30 ;Do a single Z probe
G29 S1 ; Load bed compensating height map
G1 X0 Y0 Z10 ; Return to origin
; process Optimal(1)
; layer 1, Z = 0.375
T0
; feature skirt
; tool H0.375 W0.480
G1 Z0.375 F1800
G1 X45.686 Y63.780 F3600
G92 E0.0000
G1 X124.314 Y63.780 E6.1195 F2700
G1 X125.907 Y65.373 E6.2949
G1 X125.907 Y69.627 E6.6259
G1 X125.720 Y69.814 E6.6466
G1 X125.720 Y74.970 E7.0478
G1 X125.098 Y76.156 E7.1521
G1 X89.206 Y100.973 E10.5482
G1 X88.415 Y101.220 E10.6128
G1 X81.873 Y101.220 E11.1219
G1 X80.280 Y99.627 E11.2972
G1 X80.280 Y71.220 E13.5081
G1 X45.686 Y71.220 E16.2005
G1 X44.093 Y69.627 E16.3759
G1 X44.093 Y65.373 E16.7069
G1 X45.686 Y63.780 E16.8823
G92 E0.0000
G1 E-3.0000 F1500
G1 X45.885 Y64.260 F3600
G1 E0.0000 F1500
G92 E0.0000
G1 X124.115 Y64.260 E6.0886 F2700
G1 X125.427 Y65.572 E6.2330
G1 X125.427 Y69.428 E6.5331
G1 X125.240 Y69.615 E6.5537
G1 X125.240 Y74.852 E6.9613
G1 X124.728 Y75.829 E7.0471
G1 X88.993 Y100.537 E10.4284
G1 X88.341 Y100.740 E10.4815
G1 X82.072 Y100.740 E10.9694
G1 X80.760 Y99.428 E11.1139
G1 X80.760 Y70.740 E13.3466
G1 X45.885 Y70.740 E16.0609
G1 X44.572 Y69.428 E16.2053
G1 X44.572 Y65.572 E16.5054
G1 X45.885 Y64.260 E16.6498
G92 E0.0000
G1 E-3.0000 F1500
; feature outer perimeter
G1 X47.053 Y66.740 F3600
G1 E0.0000 F1500
G92 E0.0000
G1 X122.948 Y66.740 E5.9068 F2160
G1 X122.948 Y68.260 E6.0251
G1 X87.760 Y68.260 E8.7637
G1 X87.760 Y70.245 E8.9182
G1 X122.760 Y69.545 E11.6427
G1 X122.760 Y74.174 E12.0030
G1 X87.925 Y98.260 E15.2991
G1 X83.240 Y98.260 E15.6638
G1 X83.240 Y68.260 E17.9986
G1 X47.053 Y68.260 E20.8151
G1 X47.053 Y66.740 E20.9334
G1 X49.053 Y66.740 F2160
; feature inner perimeter
G1 X47.532 Y67.220 F3600
G92 E0.0000
G1 X122.468 Y67.220 E5.8321 F2430
G1 X122.468 Y67.780 E5.8757
G1 X87.280 Y67.780 E8.6143
G1 X87.280 Y70.735 E8.8442
G1 X122.280 Y70.035 E11.5688
G1 X122.280 Y73.922 E11.8714
G1 X87.775 Y97.780 E15.1362
G1 X83.720 Y97.780 E15.4519
G1 X83.720 Y67.780 E17.7867
G1 X47.532 Y67.780 E20.6031
G1 X47.532 Y67.220 E20.6467
G92 E0.0000
G1 E-3.0000 F1500
; feature outer perimeter
G1 X86.260 Y73.295 F3600
G1 E0.0000 F1500
G92 E0.0000
G1 X86.260 Y95.240 E1.7079 F2160
G1 X86.983 Y95.240 E1.7642
G1 X119.179 Y72.979 E4.8106
G1 X119.069 Y72.639 E4.8384
G1 X86.260 Y73.295 E7.3924
G1 X86.260 Y75.295 F2160
; feature inner perimeter
G1 X85.780 Y72.825 F3600
G92 E0.0000
G1 X85.780 Y95.720 E1.7819 F2430
G1 X87.132 Y95.720 E1.8872
G1 X119.745 Y73.171 E4.9730
G1 X119.416 Y72.152 E5.0563
G1 X85.780 Y72.825 E7.6747
; feature solid layer
G1 X87.203 Y72.484 F3600
G92 E0.0000
G1 X84.032 Y69.313 E0.3490 F2700
G1 X84.032 Y69.992 E0.4019
G1 X86.538 Y72.498 E0.6777
G1 X85.872 Y72.511 E0.7295
G1 X84.032 Y70.671 E0.9320
G1 X84.032 Y71.350 E0.9849
G1 X85.468 Y72.786 E1.1429
G1 X85.468 Y73.464 E1.1957
G1 X84.032 Y72.028 E1.3538
G1 X84.032 Y72.707 E1.4066
G1 X85.468 Y74.143 E1.5647
G1 X85.468 Y74.822 E1.6175
G1 X84.032 Y73.386 E1.7756
G1 X84.032 Y74.065 E1.8284
G1 X85.468 Y75.501 E1.9865
G1 X85.468 Y76.180 E2.0393
G1 X84.032 Y74.744 E2.1974
G1 X84.032 Y75.423 E2.2502
G1 X85.468 Y76.859 E2.4082
G1 X85.468 Y77.537 E2.4611
G1 X84.032 Y76.101 E2.6191
G1 X84.032 Y76.780 E2.6720
G1 X85.468 Y78.216 E2.8300
G1 X85.468 Y78.895 E2.8828
G1 X84.032 Y77.459 E3.0409
G1 X84.032 Y78.138 E3.0937
G1 X85.468 Y79.574 E3.2518
G1 X85.468 Y80.253 E3.3046
G1 X84.032 Y78.817 E3.4627
G1 X84.032 Y79.496 E3.5155
G1 X85.468 Y80.932 E3.6736
G1 X85.468 Y81.610 E3.7264
G1 X84.032 Y80.174 E3.8845
G1 X84.032 Y80.853 E3.9373
G1 X85.468 Y82.289 E4.0953
G1 X85.468 Y82.968 E4.1482
G1 X84.032 Y81.532 E4.3062
G1 X84.032 Y82.211 E4.3591
G1 X85.468 Y83.647 E4.5171
G1 X85.468 Y84.326 E4.5699
G1 X84.032 Y82.890 E4.7280
G1 X84.032 Y83.568 E4.7808
G1 X85.468 Y85.004 E4.9389
G1 X85.468 Y85.683 E4.9917
G1 X84.032 Y84.247 E5.1498
G1 X84.032 Y84.926 E5.2026
G1 X85.468 Y86.362 E5.3607
G1 X85.468 Y87.041 E5.4135
G1 X84.032 Y85.605 E5.5715
G1 X84.032 Y86.284 E5.6244
G1 X85.468 Y87.720 E5.7824
G1 X85.468 Y88.399 E5.8353
G1 X84.032 Y86.963 E5.9933
G1 X84.032 Y87.641 E6.0462
G1 X85.468 Y89.077 E6.2042
G1 X85.468 Y89.756 E6.2570
G1 X84.032 Y88.320 E6.4151
G1 X84.032 Y88.999 E6.4679
G1 X85.468 Y90.435 E6.6260
G1 X85.468 Y91.114 E6.6788
G1 X84.032 Y89.678 E6.8369
G1 X84.032 Y90.357 E6.8897
G1 X85.468 Y91.793 E7.0478
G1 X85.468 Y92.472 E7.1006
G1 X84.032 Y91.036 E7.2586
G1 X84.032 Y91.714 E7.3115
G1 X85.468 Y93.150 E7.4695
G1 X85.468 Y93.829 E7.5224
G1 X84.032 Y92.393 E7.6804
G1 X84.032 Y93.072 E7.7333
G1 X85.468 Y94.508 E7.8913
G1 X85.468 Y95.187 E7.9441
G1 X84.032 Y93.751 E8.1022
G1 X84.032 Y94.430 E8.1550
G1 X85.468 Y95.866 E8.3131
G1 X85.468 Y96.032 E8.3260
G1 X85.634 Y96.032 E8.3390
G1 X87.070 Y97.468 E8.4970
G1 X87.678 Y97.468 E8.5443
G1 X87.720 Y97.439 E8.5483
G1 X86.313 Y96.032 E8.7032
G1 X86.992 Y96.032 E8.7560
G1 X88.121 Y97.161 E8.8803
G1 X88.523 Y96.884 E8.9183
G1 X87.491 Y95.852 E9.0319
G1 X87.892 Y95.574 E9.0699
G1 X88.924 Y96.606 E9.1835
G1 X89.325 Y96.329 E9.2214
G1 X88.293 Y95.297 E9.3350
G1 X88.695 Y95.019 E9.3730
G1 X89.727 Y96.051 E9.4866
G1 X90.128 Y95.774 E9.5246
G1 X89.096 Y94.742 E9.6382
G1 X89.497 Y94.464 E9.6762
G1 X90.529 Y95.496 E9.7898
G1 X90.931 Y95.219 E9.8278
G1 X89.899 Y94.187 E9.9414
G1 X90.300 Y93.909 E9.9793
G1 X91.332 Y94.941 E10.0930
G1 X91.733 Y94.664 E10.1309
G1 X90.701 Y93.632 E10.2445
G1 X91.103 Y93.354 E10.2825
G1 X92.135 Y94.386 E10.3961
G1 X92.536 Y94.109 E10.4341
G1 X91.504 Y93.077 E10.5477
G1 X91.905 Y92.799 E10.5857
G1 X92.937 Y93.831 E10.6993
G1 X93.339 Y93.554 E10.7373
G1 X92.307 Y92.522 E10.8509
G1 X92.708 Y92.244 E10.8888
G1 X93.740 Y93.277 E11.0024
G1 X94.141 Y92.999 E11.0404
G1 X93.109 Y91.967 E11.1540
G1 X93.511 Y91.689 E11.1920
G1 X94.543 Y92.722 E11.3056
G1 X94.944 Y92.444 E11.3436
G1 X93.912 Y91.412 E11.4572
G1 X94.313 Y91.134 E11.4952
G1 X95.345 Y92.167 E11.6088
G1 X95.747 Y91.889 E11.6467
G1 X94.715 Y90.857 E11.7604
G1 X95.116 Y90.579 E11.7983
G1 X96.148 Y91.612 E11.9119
G1 X96.549 Y91.334 E11.9499
G1 X95.517 Y90.302 E12.0635
G1 X95.919 Y90.024 E12.1015
G1 X96.951 Y91.057 E12.2151
G1 X97.352 Y90.779 E12.2531
G1 X96.320 Y89.747 E12.3667
G1 X96.721 Y89.469 E12.4047
G1 X97.753 Y90.502 E12.5183
G1 X98.155 Y90.224 E12.5562
G1 X97.123 Y89.192 E12.6698
G1 X97.524 Y88.914 E12.7078
G1 X98.556 Y89.947 E12.8214
G1 X98.957 Y89.669 E12.8594
G1 X97.925 Y88.637 E12.9730
G1 X98.327 Y88.359 E13.0110
G1 X99.359 Y89.392 E13.1246
G1 X99.760 Y89.114 E13.1626
G1 X98.728 Y88.082 E13.2762
G1 X99.129 Y87.804 E13.3141
G1 X100.161 Y88.837 E13.4278
G1 X100.563 Y88.559 E13.4657
G1 X99.531 Y87.527 E13.5793
G1 X99.932 Y87.249 E13.6173
G1 X100.964 Y88.282 E13.7309
G1 X101.365 Y88.004 E13.7689
G1 X100.333 Y86.972 E13.8825
G1 X100.734 Y86.695 E13.9205
G1 X101.767 Y87.727 E14.0341
G1 X102.168 Y87.449 E14.0721
G1 X101.136 Y86.417 E14.1857
G1 X101.537 Y86.140 E14.2236
G1 X102.569 Y87.172 E14.3372
G1 X102.971 Y86.894 E14.3752
G1 X101.938 Y85.862 E14.4888
G1 X102.340 Y85.585 E14.5268
G1 X103.372 Y86.617 E14.6404
G1 X103.773 Y86.339 E14.6784
G1 X102.741 Y85.307 E14.7920
G1 X103.142 Y85.030 E14.8300
G1 X104.175 Y86.062 E14.9436
G1 X104.576 Y85.784 E14.9815
G1 X103.544 Y84.752 E15.0952
G1 X103.945 Y84.475 E15.1331
G1 X104.977 Y85.507 E15.2467
G1 X105.379 Y85.229 E15.2847
G1 X104.346 Y84.197 E15.3983
G1 X104.748 Y83.920 E15.4363
G1 X105.780 Y84.952 E15.5499
G1 X106.181 Y84.674 E15.5879
G1 X105.149 Y83.642 E15.7015
G1 X105.550 Y83.365 E15.7395
G1 X106.583 Y84.397 E15.8531
G1 X106.984 Y84.119 E15.8910
G1 X105.952 Y83.087 E16.0046
G1 X106.353 Y82.810 E16.0426
G1 X107.385 Y83.842 E16.1562
G1 X107.787 Y83.564 E16.1942
G1 X106.754 Y82.532 E16.3078
G1 X107.156 Y82.255 E16.3458
G1 X108.188 Y83.287 E16.4594
G1 X108.589 Y83.009 E16.4974
G1 X107.557 Y81.977 E16.6110
G1 X107.958 Y81.700 E16.6489
G1 X108.991 Y82.732 E16.7626
G1 X109.392 Y82.454 E16.8005
G1 X108.360 Y81.422 E16.9141
G1 X108.761 Y81.145 E16.9521
G1 X109.793 Y82.177 E17.0657
G1 X110.195 Y81.899 E17.1037
G1 X109.162 Y80.867 E17.2173
G1 X109.564 Y80.590 E17.2553
G1 X110.596 Y81.622 E17.3689
G1 X110.997 Y81.344 E17.4069
G1 X109.965 Y80.312 E17.5205
G1 X110.366 Y80.035 E17.5584
G1 X111.399 Y81.067 E17.6720
G1 X111.800 Y80.789 E17.7100
G1 X110.768 Y79.757 E17.8236
G1 X111.169 Y79.480 E17.8616
G1 X112.201 Y80.512 E17.9752
G1 X112.603 Y80.234 E18.0132
G1 X111.570 Y79.202 E18.1268
G1 X111.972 Y78.925 E18.1648
G1 X113.004 Y79.957 E18.2784
G1 X113.405 Y79.679 E18.3163
G1 X112.373 Y78.647 E18.4299
G1 X112.774 Y78.370 E18.4679
G1 X113.807 Y79.402 E18.5815
G1 X114.208 Y79.124 E18.6195
G1 X113.176 Y78.092 E18.7331
G1 X113.577 Y77.815 E18.7711
G1 X114.609 Y78.847 E18.8847
G1 X115.011 Y78.569 E18.9227
G1 X113.978 Y77.537 E19.0363
G1 X114.380 Y77.260 E19.0743
G1 X115.412 Y78.292 E19.1879
G1 X115.813 Y78.014 E19.2258
G1 X114.781 Y76.982 E19.3394
G1 X115.182 Y76.705 E19.3774
G1 X116.215 Y77.737 E19.4910
G1 X116.616 Y77.459 E19.5290
G1 X115.584 Y76.427 E19.6426
G1 X115.985 Y76.150 E19.6806
G1 X117.017 Y77.182 E19.7942
G1 X117.419 Y76.904 E19.8322
G1 X116.386 Y75.872 E19.9458
G1 X116.788 Y75.595 E19.9837
G1 X117.820 Y76.627 E20.0973
G1 X118.221 Y76.350 E20.1353
G1 X117.189 Y75.317 E20.2489
G1 X117.590 Y75.040 E20.2869
G1 X118.623 Y76.072 E20.4005
G1 X119.024 Y75.795 E20.4385
G1 X117.992 Y74.762 E20.5521
G1 X118.393 Y74.485 E20.5901
G1 X119.425 Y75.517 E20.7037
G1 X119.827 Y75.240 E20.7417
G1 X118.794 Y74.207 E20.8553
G1 X119.196 Y73.930 E20.8932
G1 X120.228 Y74.962 E21.0068
G1 X120.629 Y74.685 E21.0448
G1 X119.597 Y73.652 E21.1584
G1 X119.998 Y73.375 E21.1964
G1 X121.031 Y74.407 E21.3100
G1 X121.432 Y74.130 E21.3480
G1 X119.882 Y72.580 E21.5185
G1 X121.733 Y70.358 F3600
G92 E0.0000
G1 X121.968 Y70.593 E0.0259 F2700
G1 X121.968 Y71.272 E0.0787
G1 X121.067 Y70.371 E0.1779
G1 X120.402 Y70.384 E0.2297
G1 X121.968 Y71.950 E0.4021
G1 X121.968 Y72.629 E0.4549
G1 X119.736 Y70.397 E0.7005
G1 X119.071 Y70.411 E0.7523
G1 X121.968 Y73.308 E1.0712
G1 X121.968 Y73.759 E1.1063
G1 X121.833 Y73.852 E1.1191
G1 X118.405 Y70.424 E1.4964
G1 X117.740 Y70.437 E1.5482
G1 X119.148 Y71.846 E1.7032
G1 X118.482 Y71.859 E1.7550
G1 X117.074 Y70.451 E1.9100
G1 X116.409 Y70.464 E1.9618
G1 X117.817 Y71.872 E2.1168
G1 X117.151 Y71.885 E2.1686
