; G-Code generated by Simplify3D(R) Version 4.1.0
; Jul 12, 2019 at 1:30:15 PM
; Settings Summary
;   processName,general PLA - 0.6
;   applyToModels,Short Fan Duct,tall Fan Duct
;   profileName,BortBot (modified)
;   profileVersion,2018-03-11 18:52:45
;   baseProfile,Default
;   printMaterial,PLA
;   printQuality,Medium
;   printExtruders,
;   extruderName,Extruder 1
;   extruderToolheadNumber,0
;   extruderDiameter,0.6
;   extruderAutoWidth,1
;   extruderWidth,0.72
;   extrusionMultiplier,1
;   extruderUseRetract,1
;   extruderRetractionDistance,2.5
;   extruderExtraRestartDistance,0
;   extruderRetractionZLift,0
;   extruderRetractionSpeed,2700
;   extruderUseCoasting,0
;   extruderCoastingDistance,1.4
;   extruderUseWipe,0
;   extruderWipeDistance,2
;   primaryExtruder,0
;   layerHeight,0.2
;   topSolidLayers,5
;   bottomSolidLayers,3
;   perimeterOutlines,3
;   printPerimetersInsideOut,0
;   startPointOption,3
;   startPointOriginX,100
;   startPointOriginY,185
;   sequentialIslands,0
;   spiralVaseMode,0
;   firstLayerHeightPercentage,100
;   firstLayerWidthPercentage,90
;   firstLayerUnderspeed,0.5
;   useRaft,0
;   raftExtruder,0
;   raftTopLayers,2
;   raftBaseLayers,2
;   raftOffset,3
;   raftSeparationDistance,0.3
;   raftTopInfill,90
;   aboveRaftSpeedMultiplier,0.3
;   useSkirt,1
;   skirtExtruder,0
;   skirtLayers,1
;   skirtOutlines,2
;   skirtOffset,2
;   usePrimePillar,0
;   primePillarExtruder,999
;   primePillarWidth,12
;   primePillarLocation,7
;   primePillarSpeedMultiplier,1
;   useOozeShield,0
;   oozeShieldExtruder,999
;   oozeShieldOffset,2
;   oozeShieldOutlines,1
;   oozeShieldSidewallShape,1
;   oozeShieldSidewallAngle,30
;   oozeShieldSpeedMultiplier,1
;   infillExtruder,0
;   internalInfillPattern,Rectilinear
;   externalInfillPattern,Rectilinear
;   infillPercentage,30
;   outlineOverlapPercentage,45
;   infillExtrusionWidthPercentage,100
;   minInfillLength,5
;   infillLayerInterval,1
;   internalInfillAngles,45,-45
;   overlapInternalInfillAngles,0
;   externalInfillAngles,45,-45
;   generateSupport,1
;   supportExtruder,0
;   supportInfillPercentage,25
;   supportExtraInflation,0.6
;   supportBaseLayers,1
;   denseSupportExtruder,0
;   denseSupportLayers,3
;   denseSupportInfillPercentage,80
;   supportLayerInterval,1
;   supportHorizontalPartOffset,0.5
;   supportUpperSeparationLayers,1
;   supportLowerSeparationLayers,1
;   supportType,0
;   supportGridSpacing,1
;   maxOverhangAngle,50
;   supportAngles,0
;   temperatureName,Extruder 1,Heated Bed
;   temperatureNumber,0,1
;   temperatureSetpointCount,1,1
;   temperatureSetpointLayers,1,1
;   temperatureSetpointTemperatures,220,45
;   temperatureStabilizeAtStartup,1,1
;   temperatureHeatedBed,0,1
;   fanLayers,1,3
;   fanSpeeds,0,80
;   blipFanToFullPower,1
;   adjustSpeedForCooling,0
;   minSpeedLayerTime,15
;   minCoolingSpeedSlowdown,20
;   increaseFanForCooling,1
;   minFanLayerTime,45
;   maxCoolingFanSpeed,100
;   increaseFanForBridging,1
;   bridgingFanSpeed,100
;   use5D,1
;   relativeEdistances,0
;   allowEaxisZeroing,1
;   independentExtruderAxes,0
;   includeM10123,0
;   stickySupport,1
;   applyToolheadOffsets,0
;   gcodeXoffset,0
;   gcodeYoffset,0
;   gcodeZoffset,0
;   overrideMachineDefinition,0
;   machineTypeOverride,0
;   strokeXoverride,100
;   strokeYoverride,100
;   strokeZoverride,100
;   originOffsetXoverride,0
;   originOffsetYoverride,0
;   originOffsetZoverride,0
;   homeXdirOverride,-1
;   homeYdirOverride,-1
;   homeZdirOverride,-1
;   flipXoverride,1
;   flipYoverride,-1
;   flipZoverride,1
;   toolheadOffsets,0,0|0,0|0,0|0,0|0,0|0,0
;   overrideFirmwareConfiguration,0
;   firmwareTypeOverride,RepRap (Marlin/Repetier/Sprinter)
;   GPXconfigOverride,r2
;   baudRateOverride,115200
;   overridePrinterModels,0
;   printerModelsOverride
;   startingGcode,G11 S1; Unretract,;G28 XY ; HOME XY,;M561 ; Clear any bed transform,G1 X100 Y80 Z25; move to center of bed,G30 ;Do a single Z probe,G29 S1 ; Load bed compensating height map,;G1 Z10; ,M572 D0 S0.15,
;   layerChangeGcode,
;   retractionGcode,
;   toolChangeGcode,
;   endingGcode,G10 S1; retract filament to relieve pressure,M104 S0 ; turn off extruder,M140 S0 ; turn off bed,G91 G1 Z10 ; Clearance from part,G90 G1 X0 Y0 ; Go to starting position (X0 Y0 Z300),M84 ; disable motor,M107; Turn off fan
;   exportFileFormat,gcode
;   celebration,0
;   celebrationSong,Random Song
;   postProcessing,
;   defaultSpeed,3000
;   outlineUnderspeed,0.8
;   solidInfillUnderspeed,1
;   supportUnderspeed,1
;   rapidXYspeed,3600
;   rapidZspeed,1800
;   minBridgingArea,10
;   bridgingExtraInflation,5
;   bridgingExtrusionMultiplier,0.9
;   bridgingSpeedMultiplier,0.6
;   useFixedBridgingAngle,0
;   fixedBridgingAngle,0
;   applyBridgingToPerimeters,1
;   filamentDiameters,1.75|1.75|1.75|1.75|1.75|1.75
;   filamentPricesPerKg,20|46|46|46|46|46
;   filamentDensities,1.33|1.25|1.25|1.25|1.25|1.25
;   useMinPrintHeight,0
;   minPrintHeight,50
;   useMaxPrintHeight,0
;   maxPrintHeight,23
;   useDiaphragm,0
;   diaphragmLayerInterval,20
;   robustSlicing,1
;   mergeAllIntoSolid,0
;   onlyRetractWhenCrossingOutline,0
;   retractBetweenLayers,0
;   useRetractionMinTravel,0
;   retractionMinTravel,3
;   retractWhileWiping,0
;   onlyWipeOutlines,0
;   avoidCrossingOutline,1
;   maxMovementDetourFactor,5
;   toolChangeRetractionDistance,12
;   toolChangeExtraRestartDistance,-0.5
;   toolChangeRetractionSpeed,600
;   externalThinWallType,1
;   internalThinWallType,1
;   thinWallAllowedOverlapPercentage,30
;   singleExtrusionMinLength,1
;   singleExtrusionMinPrintingWidthPercentage,75
;   singleExtrusionMaxPrintingWidthPercentage,150
;   singleExtrusionEndpointExtension,0.5
;   horizontalSizeCompensation,0
G90
M82
M106 S0
M140 S45
M190 S45
M104 S220 T0
M109 S220 T0
G11 S1; Unretract
;G28 XY ; HOME XY
;M561 ; Clear any bed transform
G1 X100 Y80 Z25; move to center of bed
G30 ;Do a single Z probe
G29 S1 ; Load bed compensating height map
;G1 Z10; 
M572 D0 S0.15
; process general PLA - 0.6
; layer 1, Z = 0.200
T0
; feature skirt
; tool H0.200 W0.648
G1 Z0.200 F1800
G1 X101.269 Y120.472 F3600
G92 E0.0000
G1 X100.000 Y119.203 E0.0967 F1500
G1 X98.731 Y120.472 E0.1934
G1 X78.269 Y120.472 E1.2959
G1 X76.528 Y118.731 E1.4286
G1 X76.528 Y104.778 E2.1804
G1 X76.529 Y104.715 E2.1838
G1 X76.559 Y104.015 E2.2215
G1 X76.574 Y103.858 E2.2300
G1 X76.728 Y102.826 E2.2862
G1 X76.759 Y102.672 E2.2947
G1 X76.943 Y101.963 E2.3342
G1 X76.979 Y101.843 E2.3409
G1 X77.028 Y101.704 E2.3489
G1 X77.028 Y89.269 E3.0189
G1 X78.769 Y87.528 E3.1516
G1 X82.528 Y87.528 E3.3541
G1 X82.528 Y77.472 E3.8959
G1 X78.769 Y77.472 E4.0985
G1 X77.028 Y75.731 E4.2311
G1 X77.028 Y61.269 E5.0104
G1 X78.769 Y59.528 E5.1430
G1 X98.731 Y59.528 E6.2186
G1 X100.250 Y61.047 E6.3344
G1 X101.769 Y59.528 E6.4501
G1 X121.731 Y59.528 E7.5257
G1 X123.472 Y61.269 E7.6584
G1 X123.472 Y118.731 E10.7545
G1 X121.731 Y120.472 E10.8872
G1 X101.269 Y120.472 E11.9897
G92 E0.0000
G1 E-2.5000 F2700
G1 X101.537 Y119.824 F3600
G1 E0.0000 F2700
G92 E0.0000
G1 X100.000 Y118.287 E0.1171 F1500
G1 X98.463 Y119.824 E0.2343
G1 X78.537 Y119.824 E1.3079
G1 X77.176 Y118.463 E1.4116
G1 X77.176 Y104.785 E2.1486
G1 X77.177 Y104.736 E2.1512
G1 X77.206 Y104.059 E2.1877
G1 X77.217 Y103.937 E2.1944
G1 X77.366 Y102.938 E2.2488
G1 X77.391 Y102.818 E2.2554
G1 X77.567 Y102.139 E2.2932
G1 X77.595 Y102.045 E2.2985
G1 X77.676 Y101.815 E2.3116
G1 X77.676 Y89.537 E2.9731
G1 X79.037 Y88.176 E3.0769
G1 X83.176 Y88.176 E3.2999
G1 X83.176 Y76.824 E3.9115
G1 X79.037 Y76.824 E4.1345
G1 X77.676 Y75.463 E4.2383
G1 X77.676 Y61.537 E4.9886
G1 X79.037 Y60.176 E5.0923
G1 X98.463 Y60.176 E6.1390
G1 X100.250 Y61.963 E6.2752
G1 X102.037 Y60.176 E6.4114
G1 X121.463 Y60.176 E7.4580
G1 X122.824 Y61.537 E7.5618
G1 X122.824 Y118.463 E10.6290
G1 X121.463 Y119.824 E10.7327
G1 X101.537 Y119.824 E11.8063
G92 E0.0000
G1 E-2.5000 F2700
; feature outer perimeter
G1 X97.176 Y117.176 F3600
G1 E0.0000 F2700
G92 E0.0000
G1 X79.824 Y117.176 E0.9350 F1200
G1 X79.824 Y104.816 E1.6009
G1 X79.848 Y104.243 E1.6319
G1 X79.877 Y103.969 E1.6467
G1 X79.973 Y103.410 E1.6772
G1 X80.114 Y102.864 E1.7076
G1 X80.324 Y102.267 E1.7417
G1 X80.324 Y90.824 E2.3583
G1 X85.824 Y90.824 E2.6546
G1 X85.824 Y74.176 E3.5516
G1 X80.324 Y74.176 E3.8480
G1 X80.324 Y62.824 E4.4597
G1 X97.176 Y62.824 E5.3677
G1 X97.176 Y117.176 E8.2962
G92 E0.0000
G1 E-2.5000 F2700
; feature inner perimeter
G1 X96.528 Y116.528 F3600
G1 E0.0000 F2700
G92 E0.0000
G1 X80.472 Y116.528 E0.8651 F1350
G1 X80.472 Y104.830 E1.4954
G1 X80.495 Y104.291 E1.5245
G1 X80.519 Y104.058 E1.5371
G1 X80.607 Y103.546 E1.5651
G1 X80.735 Y103.053 E1.5926
G1 X80.972 Y102.377 E1.6311
G1 X80.972 Y91.472 E2.2187
G1 X86.472 Y91.472 E2.5151
G1 X86.472 Y73.528 E3.4819
G1 X80.972 Y73.528 E3.7783
G1 X80.972 Y63.472 E4.3201
G1 X96.528 Y63.472 E5.1583
G1 X96.528 Y116.528 E8.0170
G92 E0.0000
G1 E-2.5000 F2700
G1 X95.880 Y115.880 F3600
G1 E0.0000 F2700
G92 E0.0000
G1 X81.120 Y115.880 E0.7953 F1350
G1 X81.120 Y104.844 E1.3899
G1 X81.141 Y104.338 E1.4172
G1 X81.162 Y104.146 E1.4276
G1 X81.241 Y103.682 E1.4530
G1 X81.355 Y103.242 E1.4775
G1 X81.620 Y102.488 E1.5205
G1 X81.620 Y92.120 E2.0792
G1 X87.120 Y92.120 E2.3755
G1 X87.120 Y72.880 E3.4122
G1 X81.620 Y72.880 E3.7085
G1 X81.620 Y64.120 E4.1806
G1 X95.880 Y64.120 E4.9489
G1 X95.880 Y115.880 E7.7378
G92 E0.0000
G1 E-2.5000 F2700
; feature solid layer
G1 X81.536 Y115.524 F3600
G1 E0.0000 F2700
G92 E0.0000
G1 X81.476 Y115.464 E0.0045 F1500
G1 X81.476 Y114.548 E0.0539
G1 X82.452 Y115.524 E0.1283
G1 X83.369 Y115.524 E0.1777
G1 X81.476 Y113.631 E0.3219
G1 X81.476 Y112.715 E0.3712
G1 X84.285 Y115.524 E0.5853
G1 X85.202 Y115.524 E0.6346
G1 X81.476 Y111.798 E0.9185
G1 X81.476 Y110.882 E0.9679
G1 X86.118 Y115.524 E1.3216
G1 X87.034 Y115.524 E1.3709
G1 X81.476 Y109.966 E1.7944
G1 X81.476 Y109.049 E1.8438
G1 X87.951 Y115.524 E2.3372
G1 X88.867 Y115.524 E2.3865
G1 X81.476 Y108.133 E2.9497
G1 X81.476 Y107.216 E2.9991
G1 X89.784 Y115.524 E3.6321
G1 X90.700 Y115.524 E3.6815
G1 X81.476 Y106.300 E4.3843
G1 X81.476 Y105.384 E4.4337
G1 X91.616 Y115.524 E5.2064
G1 X92.533 Y115.524 E5.2558
G1 X81.492 Y104.483 E6.0971
G1 X81.497 Y104.365 E6.1034
G1 X81.515 Y104.195 E6.1126
G1 X81.590 Y103.756 E6.1366
G1 X81.609 Y103.683 E6.1407
G1 X93.449 Y115.524 E7.0429
G1 X94.366 Y115.524 E7.0923
G1 X81.824 Y102.982 E8.0480
G1 X81.976 Y102.549 E8.0727
G1 X81.976 Y102.218 E8.0905
G1 X95.282 Y115.524 E9.1044
G1 X95.524 Y115.524 E9.1174
G1 X95.524 Y114.849 E9.1538
G1 X81.976 Y101.302 E10.1861
G1 X81.976 Y100.385 E10.2355
G1 X95.524 Y113.932 E11.2678
G1 X95.524 Y113.016 E11.3171
G1 X81.976 Y99.469 E12.3494
G1 X81.976 Y98.552 E12.3988
G1 X95.524 Y112.099 E13.4311
G1 X95.524 Y111.183 E13.4805
G1 X81.976 Y97.636 E14.5128
G1 X81.976 Y96.719 E14.5622
G1 X95.524 Y110.267 E15.5945
G1 X95.524 Y109.350 E15.6438
G1 X81.976 Y95.803 E16.6761
G1 X81.976 Y94.887 E16.7255
G1 X95.524 Y108.434 E17.7578
G1 X95.524 Y107.517 E17.8072
G1 X81.976 Y93.970 E18.8395
G1 X81.976 Y93.054 E18.8888
G1 X95.524 Y106.601 E19.9211
G1 X95.524 Y105.685 E19.9705
G1 X82.315 Y92.476 E20.9770
G1 X83.232 Y92.476 E21.0264
G1 X95.524 Y104.768 E21.9630
G1 X95.524 Y103.852 E22.0124
G1 X84.148 Y92.476 E22.8792
G1 X85.065 Y92.476 E22.9286
G1 X95.524 Y102.935 E23.7255
G1 X95.524 Y102.019 E23.7749
G1 X85.981 Y92.476 E24.5020
G1 X86.897 Y92.476 E24.5514
G1 X95.524 Y101.103 E25.2087
G1 X95.524 Y100.186 E25.2581
G1 X87.476 Y92.139 E25.8713
G1 X87.476 Y91.223 E25.9207
G1 X95.524 Y99.270 E26.5339
G1 X95.524 Y98.353 E26.5833
G1 X87.476 Y90.306 E27.1965
G1 X87.476 Y89.390 E27.2458
G1 X95.524 Y97.437 E27.8590
G1 X95.524 Y96.521 E27.9084
G1 X87.476 Y88.473 E28.5216
G1 X87.476 Y87.557 E28.5710
G1 X95.524 Y95.604 E29.1842
G1 X95.524 Y94.688 E29.2335
G1 X87.476 Y86.640 E29.8467
G1 X87.476 Y85.724 E29.8961
G1 X95.524 Y93.771 E30.5093
G1 X95.524 Y92.855 E30.5587
G1 X87.476 Y84.808 E31.1719
G1 X87.476 Y83.891 E31.2213
G1 X95.524 Y91.938 E31.8345
G1 X95.524 Y91.022 E31.8838
G1 X87.476 Y82.975 E32.4970
G1 X87.476 Y82.058 E32.5464
G1 X95.524 Y90.106 E33.1596
G1 X95.524 Y89.189 E33.2090
G1 X87.476 Y81.142 E33.8222
G1 X87.476 Y80.226 E33.8716
G1 X95.524 Y88.273 E34.4848
G1 X95.524 Y87.356 E34.5341
G1 X87.476 Y79.309 E35.1473
G1 X87.476 Y78.393 E35.1967
G1 X95.524 Y86.440 E35.8099
G1 X95.524 Y85.524 E35.8593
G1 X87.476 Y77.476 E36.4725
G1 X87.476 Y76.560 E36.5218
G1 X95.524 Y84.607 E37.1350
G1 X95.524 Y83.691 E37.1844
G1 X87.476 Y75.644 E37.7976
G1 X87.476 Y74.727 E37.8470
G1 X95.524 Y82.774 E38.4602
G1 X95.524 Y81.858 E38.5096
G1 X87.476 Y73.811 E39.1228
G92 E0.0000
G1 E-2.5000 F2700
G1 X82.524 Y72.524 F3600
G1 E0.0000 F2700
G92 E0.0000
G1 X81.976 Y71.976 E0.0417 F1500
G1 X81.976 Y71.060 E0.0911
G1 X83.440 Y72.524 E0.2026
G1 X84.356 Y72.524 E0.2520
G1 X81.976 Y70.144 E0.4333
G1 X81.976 Y69.227 E0.4827
G1 X85.273 Y72.524 E0.7339
G1 X86.189 Y72.524 E0.7833
G1 X81.976 Y68.311 E1.1043
G1 X81.976 Y67.394 E1.1537
G1 X87.106 Y72.524 E1.5445
G1 X87.476 Y72.524 E1.5645
G1 X87.476 Y72.894 E1.5845
G1 X95.524 Y80.942 E2.1977
G1 X95.524 Y80.025 E2.2471
G1 X81.976 Y66.478 E3.2793
G1 X81.976 Y65.562 E3.3287
G1 X95.524 Y79.109 E4.3610
G1 X95.524 Y78.192 E4.4104
G1 X81.976 Y64.645 E5.4427
G1 X81.976 Y64.476 E5.4518
G1 X82.724 Y64.476 E5.4921
G1 X95.524 Y77.276 E6.4674
G1 X95.524 Y76.359 E6.5168
G1 X83.641 Y64.476 E7.4223
G1 X84.557 Y64.476 E7.4716
G1 X95.524 Y75.443 E8.3073
G1 X95.524 Y74.527 E8.3567
G1 X85.473 Y64.476 E9.1225
G1 X86.390 Y64.476 E9.1719
G1 X95.524 Y73.610 E9.8679
G1 X95.524 Y72.694 E9.9172
G1 X87.306 Y64.476 E10.5434
G1 X88.223 Y64.476 E10.5928
G1 X95.524 Y71.777 E11.1491
G1 X95.524 Y70.861 E11.1985
G1 X89.139 Y64.476 E11.6850
G1 X90.055 Y64.476 E11.7344
G1 X95.524 Y69.945 E12.1511
G1 X95.524 Y69.028 E12.2004
G1 X90.972 Y64.476 E12.5473
G1 X91.888 Y64.476 E12.5967
G1 X95.524 Y68.112 E12.8737
G1 X95.524 Y67.195 E12.9231
G1 X92.805 Y64.476 E13.1303
G1 X93.721 Y64.476 E13.1796
G1 X95.524 Y66.279 E13.3170
G1 X95.524 Y65.363 E13.3664
G1 X94.637 Y64.476 E13.4339
G92 E0.0000
G1 E-2.5000 F2700
; feature outer perimeter
G1 X97.176 Y80.818 F3600
G1 X97.176 Y117.176
G1 X102.824 Y117.176
G1 E0.0000 F2700
G92 E0.0000
G1 X102.824 Y104.816 E0.6660 F1200
G1 X102.848 Y104.243 E0.6969
G1 X102.877 Y103.969 E0.7117
G1 X102.973 Y103.410 E0.7423
G1 X103.114 Y102.864 E0.7727
G1 X103.324 Y102.267 E0.8068
G1 X103.324 Y90.824 E1.4233
G1 X108.824 Y90.824 E1.7197
G1 X108.824 Y74.176 E2.6167
G1 X103.324 Y74.176 E2.9130
G1 X103.324 Y62.824 E3.5247
G1 X120.176 Y62.824 E4.4327
G1 X120.176 Y117.176 E7.3613
G1 X102.824 Y117.176 E8.2962
G92 E0.0000
G1 E-2.5000 F2700
; feature inner perimeter
G1 X103.472 Y116.528 F3600
G1 E0.0000 F2700
G92 E0.0000
G1 X103.472 Y104.830 E0.6303 F1350
G1 X103.495 Y104.291 E0.6594
G1 X103.519 Y104.058 E0.6720
G1 X103.607 Y103.546 E0.7000
G1 X103.735 Y103.053 E0.7274
G1 X103.972 Y102.377 E0.7660
G1 X103.972 Y91.472 E1.3536
G1 X109.472 Y91.472 E1.6500
G1 X109.472 Y73.528 E2.6168
G1 X103.972 Y73.528 E2.9132
G1 X103.972 Y63.472 E3.4550
G1 X119.528 Y63.472 E4.2932
G1 X119.528 Y116.528 E7.1519
G1 X103.472 Y116.528 E8.0170
G92 E0.0000
G1 E-2.5000 F2700
G1 X104.120 Y115.880 F3600
G1 E0.0000 F2700
G92 E0.0000
G1 X104.120 Y104.844 E0.5947 F1350
G1 X104.141 Y104.338 E0.6219
G1 X104.162 Y104.146 E0.6323
G1 X104.241 Y103.682 E0.6577
G1 X104.355 Y103.242 E0.6822
G1 X104.620 Y102.488 E0.7253
G1 X104.620 Y92.120 E1.2839
G1 X110.120 Y92.120 E1.5802
G1 X110.120 Y72.880 E2.6169
G1 X104.620 Y72.880 E2.9133
G1 X104.620 Y64.120 E3.3853
G1 X118.880 Y64.120 E4.1536
G1 X118.880 Y115.880 E6.9425
G1 X104.120 Y115.880 E7.7378
G92 E0.0000
G1 E-2.5000 F2700
; feature solid layer
G1 X105.363 Y115.524 F3600
G1 E0.0000 F2700
G92 E0.0000
G1 X104.476 Y114.637 E0.0675 F1500
G1 X104.476 Y113.721 E0.1169
G1 X106.279 Y115.524 E0.2543
G1 X107.195 Y115.524 E0.3036
G1 X104.476 Y112.805 E0.5108
G1 X104.476 Y111.888 E0.5602
G1 X108.112 Y115.524 E0.8372
G1 X109.028 Y115.524 E0.8866
G1 X104.476 Y110.972 E1.2334
G1 X104.476 Y110.055 E1.2828
G1 X109.945 Y115.524 E1.6995
