; G-Code generated by Simplify3D(R) Version 4.1.2
; Oct 14, 2021 at 2:17:32 PM
; Settings Summary
;   processName,Process1
;   applyToModels,Short Fan Duct
;   profileName,Volcano - Fine (modified)
;   profileVersion,2021-06-13 11:20:06
;   baseProfile,Default
;   printMaterial,PLA
;   printQuality,Medium
;   printExtruders,
;   extruderName,Volcano
;   extruderToolheadNumber,2
;   extruderDiameter,0.4
;   extruderAutoWidth,1
;   extruderWidth,0.48
;   extrusionMultiplier,1
;   extruderUseRetract,1
;   extruderRetractionDistance,1.5
;   extruderExtraRestartDistance,-0.3
;   extruderRetractionZLift,0
;   extruderRetractionSpeed,1800
;   extruderUseCoasting,1
;   extruderCoastingDistance,0.1
;   extruderUseWipe,1
;   extruderWipeDistance,0.5
;   primaryExtruder,0
;   layerHeight,0.4
;   topSolidLayers,4
;   bottomSolidLayers,3
;   perimeterOutlines,2
;   printPerimetersInsideOut,0
;   startPointOption,2
;   startPointOriginX,0
;   startPointOriginY,0
;   sequentialIslands,0
;   spiralVaseMode,0
;   firstLayerHeightPercentage,100
;   firstLayerWidthPercentage,100
;   firstLayerUnderspeed,0.5
;   useRaft,0
;   raftExtruder,0
;   raftTopLayers,3
;   raftBaseLayers,2
;   raftOffset,3
;   raftSeparationDistance,0.14
;   raftTopInfill,100
;   aboveRaftSpeedMultiplier,0.3
;   useSkirt,1
;   skirtExtruder,0
;   skirtLayers,1
;   skirtOutlines,3
;   skirtOffset,4
;   usePrimePillar,0
;   primePillarExtruder,999
;   primePillarWidth,12
;   primePillarLocation,7
;   primePillarSpeedMultiplier,1
;   useOozeShield,0
;   oozeShieldExtruder,999
;   oozeShieldOffset,2
;   oozeShieldOutlines,1
;   oozeShieldSidewallShape,1
;   oozeShieldSidewallAngle,30
;   oozeShieldSpeedMultiplier,1
;   infillExtruder,0
;   internalInfillPattern,Fast Honeycomb
;   externalInfillPattern,Rectilinear
;   infillPercentage,30
;   outlineOverlapPercentage,25
;   infillExtrusionWidthPercentage,100
;   minInfillLength,3
;   infillLayerInterval,1
;   internalInfillAngles,0
;   overlapInternalInfillAngles,0
;   externalInfillAngles,45,-45
;   generateSupport,1
;   supportExtruder,0
;   supportInfillPercentage,50
;   supportExtraInflation,0.6
;   supportBaseLayers,0
;   denseSupportExtruder,0
;   denseSupportLayers,1
;   denseSupportInfillPercentage,70
;   supportLayerInterval,1
;   supportHorizontalPartOffset,0.3
;   supportUpperSeparationLayers,1
;   supportLowerSeparationLayers,1
;   supportType,0
;   supportGridSpacing,4
;   maxOverhangAngle,45
;   supportAngles,0
;   temperatureName,Primary Extruder,Heated Bed
;   temperatureNumber,2,1
;   temperatureSetpointCount,2,1
;   temperatureSetpointLayers,1,2,1
;   temperatureSetpointTemperatures,220,215,65
;   temperatureStabilizeAtStartup,1,1
;   temperatureHeatedBed,0,1
;   fanLayers,1,2
;   fanSpeeds,0,60
;   blipFanToFullPower,0
;   adjustSpeedForCooling,1
;   minSpeedLayerTime,15
;   minCoolingSpeedSlowdown,20
;   increaseFanForCooling,0
;   minFanLayerTime,45
;   maxCoolingFanSpeed,100
;   increaseFanForBridging,0
;   bridgingFanSpeed,100
;   use5D,1
;   relativeEdistances,0
;   allowEaxisZeroing,1
;   independentExtruderAxes,0
;   includeM10123,0
;   stickySupport,1
;   applyToolheadOffsets,0
;   gcodeXoffset,0
;   gcodeYoffset,0
;   gcodeZoffset,0
;   overrideMachineDefinition,0
;   machineTypeOverride,0
;   strokeXoverride,200
;   strokeYoverride,200
;   strokeZoverride,200
;   originOffsetXoverride,0
;   originOffsetYoverride,0
;   originOffsetZoverride,0
;   homeXdirOverride,-1
;   homeYdirOverride,-1
;   homeZdirOverride,-1
;   flipXoverride,1
;   flipYoverride,-1
;   flipZoverride,1
;   toolheadOffsets,0,0|0,0|0,0|0,0|0,0|0,0
;   overrideFirmwareConfiguration,0
;   firmwareTypeOverride,RepRap (Marlin/Repetier/Sprinter)
;   GPXconfigOverride,r2
;   baudRateOverride,115200
;   overridePrinterModels,0
;   printerModelsOverride
;   startingGcode,G28 ;Home,M572 D0 S0.4 ;Enable Pressure Advance,G29 S1 ;Load Heightmap and enable bed mesh leveling,;Prime the extruder,G92 E0 ; Zero Extruder,G1 X-1 Y-1 Z3; Move just outside origin and up 3mm,G1 E40 F500; Extrude 35mm filament,G1 Z0.25 X50; Squash blob,G92 E0; Reset Extruder position
;   layerChangeGcode,
;   retractionGcode,
;   toolChangeGcode,
;   endingGcode,;Retract the filament,G92 E1,G1 E-20 F300,G28 X0 Y0,M104 S0,;Retraction,M140 S0,M84,M106 S0
;   exportFileFormat,gcode
;   celebration,0
;   celebrationSong,Random Song
;   postProcessing,
;   defaultSpeed,2160
;   outlineUnderspeed,0.5
;   solidInfillUnderspeed,0.8
;   supportUnderspeed,0.8
;   rapidXYspeed,4800
;   rapidZspeed,1002
;   minBridgingArea,50
;   bridgingExtraInflation,0
;   bridgingExtrusionMultiplier,1
;   bridgingSpeedMultiplier,1
;   useFixedBridgingAngle,0
;   fixedBridgingAngle,0
;   applyBridgingToPerimeters,0
;   filamentDiameters,1.75|1.75|1.75|1.75|1.75|1.75
;   filamentPricesPerKg,46|46|46|46|46|46
;   filamentDensities,1.25|1.25|1.25|1.25|1.25|1.25
;   useMinPrintHeight,0
;   minPrintHeight,0
;   useMaxPrintHeight,0
;   maxPrintHeight,0
;   useDiaphragm,0
;   diaphragmLayerInterval,20
;   robustSlicing,1
;   mergeAllIntoSolid,0
;   onlyRetractWhenCrossingOutline,1
;   retractBetweenLayers,1
;   useRetractionMinTravel,0
;   retractionMinTravel,3
;   retractWhileWiping,0
;   onlyWipeOutlines,1
;   avoidCrossingOutline,0
;   maxMovementDetourFactor,3
;   toolChangeRetractionDistance,12
;   toolChangeExtraRestartDistance,-0.5
;   toolChangeRetractionSpeed,600
;   externalThinWallType,0
;   internalThinWallType,2
;   thinWallAllowedOverlapPercentage,10
;   singleExtrusionMinLength,1
;   singleExtrusionMinPrintingWidthPercentage,50
;   singleExtrusionMaxPrintingWidthPercentage,200
;   singleExtrusionEndpointExtension,0.2
;   horizontalSizeCompensation,0
G90
M82
M106 S0
M140 S65
M190 S65
M104 S220 T2
M109 S220 T2
G28 ;Home
M572 D0 S0.4 ;Enable Pressure Advance
G29 S1 ;Load Heightmap and enable bed mesh leveling
;Prime the extruder
G92 E0 ; Zero Extruder
G1 X-1 Y-1 Z3; Move just outside origin and up 3mm
G1 E40 F500; Extrude 35mm filament
G1 Z0.25 X50; Squash blob
G92 E0; Reset Extruder position
; process Process1
; layer 1, Z = 0.400
T2
G92 E0.0000
G1 E-1.5000 F1800
; feature skirt
; tool H0.400 W0.480
G1 Z0.400 F1002
G1 X86.300 Y67.846 F4800
G1 E-0.3000 F1800
G92 E0.0000
G1 X89.346 Y64.800 E0.3439 F1080
G1 X111.154 Y64.800 E2.0847
G1 X114.200 Y67.846 E2.4285
G1 X114.200 Y127.154 E7.1627
G1 X111.154 Y130.200 E7.5066
G1 X88.846 Y130.200 E9.2873
G1 X85.800 Y127.154 E9.6312
G1 X85.800 Y112.227 E10.8227
G1 X85.805 Y112.062 E10.8359
G1 X85.877 Y110.931 E10.9264
G1 X85.919 Y110.604 E10.9527
G1 X86.149 Y109.409 E11.0498
G1 X86.231 Y109.090 E11.0761
G1 X86.300 Y108.880 E11.0937
G1 X86.300 Y99.558 E11.8379
G1 X87.785 Y97.086 E12.0681
G1 X93.130 Y94.244 E12.5513
G1 X93.533 Y93.292 E12.6338
G1 X93.848 Y92.219 E12.7231
G1 X94.039 Y91.117 E12.8124
G1 X94.103 Y90.000 E12.9017
G1 X94.039 Y88.883 E12.9910
G1 X93.848 Y87.781 E13.0803
G1 X93.533 Y86.708 E13.1696
G1 X93.130 Y85.756 E13.2520
G1 X87.785 Y82.914 E13.7352
G1 X86.300 Y80.442 E13.9655
G1 X86.300 Y67.846 E14.9709
G92 E0.0000
G1 E-1.5000 F1800
G1 X86.780 Y68.045 F4800
G1 E-0.3000 F1800
G92 E0.0000
G1 X89.545 Y65.280 E0.3121 F1080
G1 X110.955 Y65.280 E2.0212
G1 X113.720 Y68.045 E2.3333
G1 X113.720 Y126.955 E7.0358
G1 X110.955 Y129.720 E7.3479
G1 X89.045 Y129.720 E9.0969
G1 X86.280 Y126.955 E9.4090
G1 X86.280 Y112.235 E10.5840
G1 X86.285 Y112.085 E10.5960
G1 X86.355 Y110.976 E10.6847
G1 X86.393 Y110.679 E10.7086
G1 X86.617 Y109.515 E10.8032
G1 X86.692 Y109.225 E10.8271
G1 X86.780 Y108.957 E10.8496
G1 X86.780 Y99.691 E11.5893
G1 X88.128 Y97.447 E11.7983
G1 X93.496 Y94.593 E12.2835
G1 X93.528 Y94.535 E12.2888
G1 X93.986 Y93.454 E12.3825
G1 X94.316 Y92.328 E12.4762
G1 X94.517 Y91.172 E12.5699
G1 X94.584 Y90.000 E12.6636
G1 X94.517 Y88.828 E12.7573
G1 X94.316 Y87.672 E12.8509
G1 X93.986 Y86.546 E12.9446
G1 X93.528 Y85.465 E13.0383
G1 X93.496 Y85.407 E13.0436
G1 X88.128 Y82.553 E13.5289
G1 X86.780 Y80.309 E13.7378
G1 X86.780 Y68.045 E14.7168
G92 E0.0000
G1 E-1.5000 F1800
G1 X87.260 Y68.244 F4800
G1 E-0.3000 F1800
G92 E0.0000
G1 X89.744 Y65.760 E0.2804 F1080
G1 X110.756 Y65.760 E1.9577
G1 X113.240 Y68.244 E2.2381
G1 X113.240 Y126.756 E6.9088
G1 X110.756 Y129.240 E7.1892
G1 X89.244 Y129.240 E8.9064
G1 X86.760 Y126.756 E9.1868
G1 X86.760 Y112.242 E10.3454
G1 X86.764 Y112.108 E10.3561
G1 X86.833 Y111.022 E10.4430
G1 X86.867 Y110.755 E10.4644
G1 X87.086 Y109.621 E10.5567
G1 X87.153 Y109.360 E10.5781
G1 X87.260 Y109.034 E10.6055
G1 X87.260 Y99.824 E11.3407
G1 X88.471 Y97.808 E11.5284
G1 X93.845 Y94.951 E12.0142
G1 X93.960 Y94.747 E12.0329
G1 X94.438 Y93.616 E12.1310
G1 X94.785 Y92.437 E12.2290
G1 X94.994 Y91.227 E12.3271
G1 X95.064 Y90.000 E12.4252
G1 X94.994 Y88.773 E12.5233
G1 X94.785 Y87.563 E12.6213
G1 X94.438 Y86.384 E12.7194
G1 X93.960 Y85.253 E12.8175
G1 X93.845 Y85.049 E12.8362
G1 X88.471 Y82.192 E13.3219
G1 X87.260 Y80.176 E13.5097
G1 X87.260 Y68.244 E14.4621
G92 E0.0000
G1 E-1.5000 F1800
; feature outer perimeter
G1 X91.740 Y70.240 F4800
G1 E-0.3000 F1800
G92 E0.0000
G1 X108.760 Y70.240 E1.3586 F540
G1 X108.760 Y124.760 E5.7106
G1 X91.240 Y124.760 E7.1092
G1 X91.240 Y112.317 E8.1024
G1 X91.295 Y111.455 E8.1714
G1 X91.457 Y110.614 E8.2397
G1 X91.740 Y109.750 E8.3123
G1 X91.740 Y101.144 E8.9993
G1 X97.102 Y98.293 E9.4840
G1 X97.986 Y96.728 E9.6275
G1 X98.664 Y95.125 E9.7665
G1 X99.155 Y93.454 E9.9055
G1 X99.452 Y91.738 E10.0445
G1 X99.552 Y90.000 E10.1834
G1 X99.452 Y88.262 E10.3224
G1 X99.155 Y86.546 E10.4614
G1 X98.664 Y84.875 E10.6004
G1 X97.986 Y83.272 E10.7394
G1 X97.102 Y81.707 E10.8829
G1 X91.740 Y78.856 E11.3676
G1 X91.740 Y70.340 E12.0474
G1 X91.740 Y70.240 F540
G1 X92.240 Y70.240 F540
; feature inner perimeter
G1 X92.220 Y70.720 F4800
G92 E0.0000
G1 X108.280 Y70.720 E1.2820 F810
G1 X108.280 Y124.280 E5.5574
G1 X91.720 Y124.280 E6.8793
G1 X91.720 Y112.332 E7.8330
G1 X91.772 Y111.516 E7.8983
G1 X91.922 Y110.735 E7.9618
G1 X92.220 Y109.826 E8.0381
G1 X92.220 Y101.433 E8.7081
G1 X97.451 Y98.651 E9.1810
G1 X98.418 Y96.941 E9.3379
G1 X99.117 Y95.286 E9.4812
G1 X99.624 Y93.563 E9.6246
G1 X99.930 Y91.793 E9.7680
G1 X100.033 Y90.000 E9.9114
G1 X99.930 Y88.207 E10.0548
G1 X99.624 Y86.437 E10.1981
G1 X99.117 Y84.714 E10.3415
G1 X98.418 Y83.059 E10.4849
G1 X97.451 Y81.349 E10.6417
G1 X92.220 Y78.567 E11.1146
G1 X92.220 Y70.820 E11.7331
G1 X92.220 Y70.720 F810
; feature solid layer
G1 X93.626 Y78.907 F4800
G92 E0.0000
G1 X92.580 Y77.861 E0.1181 F864
G1 X92.580 Y77.182 E0.1723
G1 X95.076 Y79.678 E0.4540
G1 X96.525 Y80.449 E0.5851
G1 X92.580 Y76.504 E1.0304
G1 X92.580 Y75.825 E1.0846
G1 X107.920 Y91.165 E2.8163
G1 X107.920 Y90.486 E2.8705
G1 X92.580 Y75.146 E4.6022
G1 X92.580 Y74.467 E4.6564
G1 X107.920 Y89.807 E6.3881
G1 X107.920 Y89.128 E6.4423
G1 X92.580 Y73.788 E8.1740
G1 X92.580 Y73.109 E8.2282
G1 X107.920 Y88.449 E9.9599
G1 X107.920 Y87.771 E10.0141
G1 X92.580 Y72.431 E11.7458
G1 X92.580 Y71.752 E11.8000
G1 X107.920 Y87.092 E13.5317
G1 X107.920 Y86.413 E13.5859
G1 X92.587 Y71.080 E15.3168
G1 X93.266 Y71.080 E15.3710
G1 X107.920 Y85.734 E17.0253
G1 X107.920 Y85.055 E17.0795
G1 X93.945 Y71.080 E18.6571
G1 X94.624 Y71.080 E18.7113
G1 X107.920 Y84.376 E20.2124
G1 X107.920 Y83.698 E20.2665
G1 X95.302 Y71.080 E21.6909
G1 X95.981 Y71.080 E21.7451
G1 X107.920 Y83.019 E23.0929
G1 X107.920 Y82.340 E23.1471
G1 X96.660 Y71.080 E24.4182
G1 X97.339 Y71.080 E24.4724
G1 X107.920 Y81.661 E25.6669
G1 X107.920 Y80.982 E25.7211
G1 X98.018 Y71.080 E26.8389
G1 X98.696 Y71.080 E26.8931
G1 X107.920 Y80.304 E27.9344
G1 X107.920 Y79.625 E27.9885
G1 X99.375 Y71.080 E28.9531
G1 X100.054 Y71.080 E29.0073
G1 X107.920 Y78.946 E29.8953
G1 X107.920 Y78.267 E29.9495
G1 X100.733 Y71.080 E30.7608
G1 X101.412 Y71.080 E30.8150
G1 X107.920 Y77.588 E31.5497
G1 X107.920 Y76.909 E31.6039
G1 X102.091 Y71.080 E32.2620
G1 X102.769 Y71.080 E32.3162
G1 X107.920 Y76.231 E32.8976
G1 X107.920 Y75.552 E32.9518
G1 X103.448 Y71.080 E33.4566
G1 X104.127 Y71.080 E33.5108
G1 X107.920 Y74.873 E33.9390
G1 X107.920 Y74.194 E33.9932
G1 X104.806 Y71.080 E34.3447
G1 X105.485 Y71.080 E34.3989
G1 X107.920 Y73.515 E34.6738
G1 X107.920 Y72.837 E34.7280
G1 X106.163 Y71.080 E34.9263
G1 X106.842 Y71.080 E34.9805
G1 X107.920 Y72.158 E35.1022
G1 X107.920 Y71.479 E35.1563
G1 X107.592 Y71.151 E35.1934
G1 X107.521 Y71.080 F864
G1 X98.435 Y82.359 F4800
G92 E0.0000
G1 X107.920 Y91.844 E1.0707 F864
G1 X107.920 Y92.522 E1.1249
G1 X99.066 Y83.668 E2.1245
G1 X99.457 Y84.592 E2.2045
G1 X99.517 Y84.798 E2.2217
G1 X107.920 Y93.201 E3.1703
G1 X107.920 Y93.880 E3.2244
G1 X99.800 Y85.760 E4.1411
G1 X99.975 Y86.355 E4.1907
G1 X100.029 Y86.668 E4.2160
G1 X107.920 Y94.559 E5.1068
G1 X107.920 Y95.238 E5.1610
G1 X100.171 Y87.489 E6.0358
G1 X100.288 Y88.166 E6.0906
G1 X100.295 Y88.292 E6.1007
G1 X107.920 Y95.916 E6.9614
G1 X107.920 Y96.595 E7.0156
G1 X100.337 Y89.012 E7.8717
G1 X100.378 Y89.732 E7.9293
G1 X107.920 Y97.274 E8.7807
G1 X107.920 Y97.953 E8.8349
G1 X100.370 Y90.403 E9.6872
G1 X100.333 Y91.045 E9.7385
G1 X107.920 Y98.632 E10.5950
G1 X107.920 Y99.311 E10.6491
G1 X100.297 Y91.687 E11.5097
G1 X100.288 Y91.834 E11.5215
G1 X100.211 Y92.280 E11.5576
G1 X107.920 Y99.989 E12.4279
G1 X107.920 Y100.668 E12.4821
G1 X100.111 Y92.859 E13.3637
G1 X100.011 Y93.438 E13.4105
G1 X107.920 Y101.347 E14.3034
G1 X107.920 Y102.026 E14.3576
G1 X99.876 Y93.982 E15.2657
G1 X99.722 Y94.506 E15.3094
G1 X107.920 Y102.705 E16.2349
G1 X107.920 Y103.384 E16.2890
G1 X99.567 Y95.031 E17.2320
G1 X99.457 Y95.408 E17.2633
G1 X99.400 Y95.542 E17.2750
G1 X107.920 Y104.062 E18.2368
G1 X107.920 Y104.741 E18.2910
G1 X99.198 Y96.019 E19.2756
G1 X98.996 Y96.496 E19.3169
G1 X107.920 Y105.420 E20.3243
G1 X107.920 Y106.099 E20.3785
G1 X98.795 Y96.973 E21.4087
G1 X98.741 Y97.100 E21.4196
G1 X98.561 Y97.419 E21.4488
G1 X107.920 Y106.778 E22.5054
G1 X107.920 Y107.456 E22.5596
G1 X98.316 Y97.852 E23.6438
G1 X98.071 Y98.286 E23.6835
G1 X107.920 Y108.135 E24.7954
G1 X107.920 Y108.814 E24.8496
G1 X97.826 Y98.720 E25.9891
G1 X97.712 Y98.920 E26.0075
G1 X97.474 Y99.047 E26.0291
G1 X107.920 Y109.493 E27.2083
G1 X107.920 Y110.172 E27.2625
G1 X97.031 Y99.282 E28.4918
G1 X96.588 Y99.518 E28.5318
G1 X107.920 Y110.851 E29.8111
G1 X107.920 Y111.529 E29.8653
G1 X96.144 Y99.754 E31.1947
G1 X95.701 Y99.989 E31.2347
G1 X107.920 Y112.208 E32.6141
G1 X107.920 Y112.887 E32.6683
G1 X95.258 Y100.225 E34.0977
G1 X94.815 Y100.461 E34.1378
G1 X107.920 Y113.566 E35.6172
G1 X107.920 Y114.245 E35.6714
G1 X94.372 Y100.696 E37.2008
G1 X93.928 Y100.932 E37.2409
G1 X107.920 Y114.924 E38.8204
G1 X107.920 Y115.602 E38.8746
G1 X93.485 Y101.168 E40.5041
G1 X93.042 Y101.403 E40.5441
G1 X107.920 Y116.281 E42.2237
G1 X107.920 Y116.960 E42.2779
G1 X92.599 Y101.639 E44.0075
G1 X92.580 Y101.649 E44.0092
G1 X92.580 Y102.299 E44.0610
G1 X107.920 Y117.639 E45.7928
G1 X107.920 Y118.318 E45.8469
G1 X92.580 Y102.978 E47.5787
G1 X92.580 Y103.656 E47.6328
G1 X107.920 Y118.996 E49.3646
G1 X107.920 Y119.675 E49.4187
G1 X92.580 Y104.335 E51.1505
G1 X92.580 Y105.014 E51.2046
G1 X107.920 Y120.354 E52.9363
G1 X107.920 Y121.033 E52.9905
G1 X92.580 Y105.693 E54.7222
G1 X92.580 Y106.372 E54.7764
G1 X107.920 Y121.712 E56.5081
G1 X107.920 Y122.391 E56.5623
G1 X92.580 Y107.051 E58.2940
G1 X92.580 Y107.729 E58.3482
G1 X107.920 Y123.069 E60.0799
G1 X107.920 Y123.748 E60.1341
G1 X92.580 Y108.408 E61.8658
G1 X92.580 Y109.087 E61.9200
G1 X107.413 Y123.920 E63.5945
G1 X106.734 Y123.920 E63.6487
G1 X92.580 Y109.766 E65.2465
G1 X92.580 Y109.884 E65.2560
G1 X92.442 Y110.306 E65.2914
G1 X106.055 Y123.920 E66.8283
G1 X105.377 Y123.920 E66.8825
G1 X92.274 Y110.817 E68.3616
G1 X92.271 Y110.825 E68.3623
G1 X92.163 Y111.386 E68.4078
G1 X104.698 Y123.920 E69.8228
G1 X104.019 Y123.920 E69.8770
G1 X92.102 Y112.003 E71.2223
G1 X92.080 Y112.344 E71.2496
G1 X92.080 Y112.660 E71.2748
G1 X103.340 Y123.920 E72.5460
G1 X102.661 Y123.920 E72.6001
G1 X92.080 Y113.339 E73.7946
G1 X92.080 Y114.018 E73.8488
G1 X101.982 Y123.920 E74.9667
G1 X101.304 Y123.920 E75.0209
G1 X92.080 Y114.696 E76.0621
G1 X92.080 Y115.375 E76.1163
