; G-Code generated by Simplify3D(R) Version 3.1.1
; Apr 29, 2017 at 4:16:07 PM
; Settings Summary
;   processName,normal (clear)
;   applyToModels,spool,z_coupler,spool(2)
;   profileName,Default (modified)
;   profileVersion,2015-07-02 16:19:25
;   baseProfile,normal (modified)
;   printMaterial,PLA
;   printQuality,Fast
;   printExtruders,
;   extruderName,Extruder 1
;   extruderToolheadNumber,0
;   extruderDiameter,0.4
;   extruderAutoWidth,1
;   extruderWidth,0.48
;   extrusionMultiplier,1
;   extruderUseRetract,1
;   extruderRetractionDistance,3.1
;   extruderExtraRestartDistance,0
;   extruderRetractionZLift,0
;   extruderRetractionSpeed,1800
;   extruderUseCoasting,0
;   extruderCoastingDistance,0.2
;   extruderUseWipe,0
;   extruderWipeDistance,5
;   primaryExtruder,0
;   layerHeight,0.25
;   topSolidLayers,2
;   bottomSolidLayers,2
;   perimeterOutlines,3
;   printPerimetersInsideOut,0
;   startPointOption,2
;   startPointOriginX,0
;   startPointOriginY,0
;   startPointOriginZ,300
;   sequentialIslands,0
;   spiralVaseMode,0
;   firstLayerHeightPercentage,100
;   firstLayerWidthPercentage,105
;   firstLayerUnderspeed,0.4
;   useRaft,1
;   raftExtruder,0
;   raftLayers,1
;   raftOffset,0.6
;   raftSeparationDistance,0.24
;   raftInfill,75
;   disableRaftBaseLayers,0
;   useSkirt,1
;   skirtExtruder,0
;   skirtLayers,1
;   skirtOutlines,1
;   skirtOffset,5
;   usePrimePillar,0
;   primePillarExtruder,999
;   primePillarWidth,12
;   primePillarLocation,7
;   primePillarSpeedMultiplier,1
;   useOozeShield,0
;   oozeShieldExtruder,999
;   oozeShieldOffset,2
;   oozeShieldOutlines,1
;   oozeShieldSidewallShape,1
;   oozeShieldSidewallAngle,30
;   oozeShieldSpeedMultiplier,1
;   infillExtruder,0
;   internalInfillPattern,Rectilinear
;   externalInfillPattern,Concentric
;   infillPercentage,50
;   outlineOverlapPercentage,15
;   infillExtrusionWidthPercentage,100
;   minInfillLength,5
;   infillLayerInterval,1
;   infillAngles,45,-45
;   overlapInfillAngles,0
;   generateSupport,0
;   supportExtruder,0
;   supportInfillPercentage,30
;   supportExtraInflation,0.2
;   denseSupportLayers,2
;   denseSupportInfillPercentage,80
;   supportLayerInterval,1
;   supportHorizontalPartOffset,0.3
;   supportUpperSeparationLayers,1
;   supportLowerSeparationLayers,1
;   supportType,0
;   supportGridSpacing,1.5
;   maxOverhangAngle,40
;   supportAngles,0
;   temperatureName,Extruder 1 Temperature
;   temperatureNumber,0
;   temperatureSetpointCount,1
;   temperatureSetpointLayers,1
;   temperatureSetpointTemperatures,205
;   temperatureStabilizeAtStartup,1
;   temperatureHeatedBed,0
;   temperatureRelayBetweenLayers,1
;   temperatureRelayBetweenLoops,0
;   fanLayers,1
;   fanSpeeds,0
;   blipFanToFullPower,0
;   adjustSpeedForCooling,1
;   minSpeedLayerTime,20
;   minCoolingSpeedSlowdown,20
;   increaseFanForCooling,0
;   minFanLayerTime,45
;   maxCoolingFanSpeed,100
;   increaseFanForBridging,0
;   bridgingFanSpeed,100
;   use5D,1
;   relativeEdistances,0
;   allowEaxisZeroing,1
;   independentExtruderAxes,0
;   includeM10123,0
;   stickySupport,1
;   applyToolheadOffsets,0
;   gcodeXoffset,0
;   gcodeYoffset,0
;   gcodeZoffset,0
;   overrideMachineDefinition,0
;   machineTypeOverride,0
;   strokeXoverride,113
;   strokeYoverride,187
;   strokeZoverride,100
;   originOffsetXoverride,0
;   originOffsetYoverride,0
;   originOffsetZoverride,0
;   homeXdirOverride,-1
;   homeYdirOverride,-1
;   homeZdirOverride,-1
;   flipXoverride,1
;   flipYoverride,-1
;   flipZoverride,1
;   toolheadOffsets,0,0|0,0|0,0|0,0|0,0|0,0
;   overrideFirmwareConfiguration,1
;   firmwareTypeOverride,RepRap (Marlin/Repetier/Sprinter)
;   GPXconfigOverride,r2
;   baudRateOverride,115200
;   overridePrinterModels,0
;   printerModelsOverride
;   startingGcode,G92 X0 Y0 ; zero X and Y axes,G28 Z; GO TO HOME ON Z
;   layerChangeGcode,
;   retractionGcode,
;   toolChangeGcode,
;   endingGcode,M104 S0 ; turn off extruder,M140 S0 ; turn off bed,G91 ; set to incrimental,G1 Z10 F5000 ; lift nozzle,G90 ; Absolute Positioning,G1 X0 ; move X to left,M84 ; disable motors
;   exportFileFormat,gcode
;   celebration,0
;   celebrationSong,Random Song
;   postProcessing,
;   defaultSpeed,4200
;   outlineUnderspeed,1
;   solidInfillUnderspeed,0.9
;   supportUnderspeed,0.75
;   rapidXYspeed,4800
;   rapidZspeed,1002
;   minBridgingArea,50
;   bridgingExtraInflation,0
;   bridgingExtrusionMultiplier,1
;   bridgingSpeedMultiplier,1
;   filamentDiameter,1.7
;   filamentPricePerKg,27
;   filamentDensity,1.25
;   useMinPrintHeight,0
;   minPrintHeight,0
;   useMaxPrintHeight,0
;   maxPrintHeight,10
;   useDiaphragm,0
;   diaphragmLayerInterval,20
;   robustSlicing,1
;   mergeAllIntoSolid,0
;   onlyRetractWhenCrossingOutline,1
;   retractBetweenLayers,0
;   useRetractionMinTravel,0
;   retractionMinTravel,3
;   retractWhileWiping,0
;   onlyWipeOutlines,1
;   avoidCrossingOutline,0
;   maxMovementDetourFactor,3
;   toolChangeRetractionDistance,12
;   toolChangeExtraRestartDistance,-0.5
;   toolChangeRetractionSpeed,600
;   allowThinWallGapFill,1
;   thinWallAllowedOverlapPercentage,15
;   horizontalSizeCompensation,0
G90
M82
M106 S0
M104 S205 T0
M109 S205 T0
G92 X0 Y0 ; zero X and Y axes
G28 Z; GO TO HOME ON Z
G92 E0
G1 E-3.1000 F1800
G1 Z0.500 F1002
; layer 1, Z = 0.5
M105
T0
; tool H0.500 W0.504
; skirt
G1 X45.551 Y49.470 F4800
G1 E0.0000 F540
G92 E0
G1 X45.640 Y49.383 E0.0138 F1680
G1 X45.642 Y49.381 E0.0142
G1 X45.827 Y49.210 E0.0421
G1 X45.829 Y49.208 E0.0424
G1 X45.923 Y49.125 E0.0563
G1 X45.925 Y49.123 E0.0566
G1 X47.030 Y48.195 E0.2168
G1 X47.033 Y48.192 E0.2173
G1 X47.167 Y48.088 E0.2362
G1 X47.170 Y48.085 E0.2366
G1 X47.447 Y47.883 E0.2746
G1 X47.450 Y47.880 E0.2751
G1 X47.590 Y47.785 E0.2939
G1 X47.593 Y47.782 E0.2944
G1 X48.566 Y47.165 E0.4222
G1 X48.569 Y47.163 E0.4226
G1 X48.708 Y47.081 E0.4406
G1 X48.711 Y47.079 E0.4410
G1 X48.996 Y46.922 E0.4771
G1 X48.999 Y46.921 E0.4775
G1 X49.143 Y46.847 E0.4954
G1 X49.146 Y46.846 E0.4958
G1 X50.354 Y46.277 E0.6441
G1 X50.357 Y46.276 E0.6444
G1 X50.464 Y46.229 E0.6574
G1 X50.466 Y46.227 E0.6577
G1 X50.684 Y46.137 E0.6838
G1 X50.687 Y46.136 E0.6841
G1 X50.795 Y46.094 E0.6971
G1 X50.798 Y46.093 E0.6974
G1 X51.438 Y45.860 E0.7731
G1 X51.441 Y45.859 E0.7734
G1 X51.575 Y45.814 E0.7891
G1 X51.578 Y45.813 E0.7894
G1 X51.850 Y45.731 E0.8210
G1 X51.853 Y45.730 E0.8213
G1 X51.989 Y45.693 E0.8370
G1 X51.993 Y45.693 E0.8374
G1 X53.370 Y45.358 E0.9948
G1 X53.374 Y45.357 E0.9951
G1 X53.514 Y45.327 E1.0111
G1 X53.517 Y45.326 E1.0114
G1 X53.801 Y45.274 E1.0435
G1 X53.805 Y45.273 E1.0439
G1 X53.946 Y45.251 E1.0598
G1 X53.950 Y45.251 E1.0602
G1 X54.743 Y45.150 E1.1490
G1 X54.745 Y45.150 E1.1492
G1 X54.847 Y45.139 E1.1606
G1 X54.849 Y45.139 E1.1608
G1 X55.054 Y45.121 E1.1837
G1 X55.057 Y45.121 E1.1840
G1 X55.159 Y45.114 E1.1953
G1 X55.161 Y45.114 E1.1956
G1 X55.950 Y45.077 E1.2833
G1 X55.952 Y45.077 E1.2835
G1 X56.029 Y45.074 E1.2920
G1 X56.030 Y45.074 E1.2922
G1 X56.184 Y45.072 E1.3092
G1 X56.186 Y45.072 E1.3094
G1 X56.261 Y45.072 E1.3178
G1 X56.263 Y45.072 E1.3180
G1 X56.833 Y45.079 E1.3813
G1 X56.836 Y45.079 E1.3817
G1 X56.957 Y45.083 E1.3950
G1 X56.959 Y45.084 E1.3953
G1 X57.202 Y45.098 E1.4223
G1 X57.205 Y45.098 E1.4226
G1 X57.325 Y45.108 E1.4360
G1 X57.328 Y45.109 E1.4363
G1 X58.549 Y45.240 E1.5727
G1 X58.552 Y45.240 E1.5730
G1 X58.673 Y45.256 E1.5866
G1 X58.676 Y45.257 E1.5869
G1 X58.921 Y45.295 E1.6145
G1 X58.924 Y45.295 E1.6148
G1 X59.045 Y45.317 E1.6284
G1 X59.048 Y45.318 E1.6288
G1 X59.676 Y45.447 E1.7000
G1 X59.678 Y45.448 E1.7002
G1 X59.763 Y45.467 E1.7098
G1 X59.765 Y45.467 E1.7101
G1 X59.934 Y45.508 E1.7294
G1 X59.936 Y45.508 E1.7296
G1 X60.020 Y45.530 E1.7392
G1 X60.022 Y45.531 E1.7395
G1 X60.847 Y45.760 E1.8346
G1 X60.850 Y45.761 E1.8349
G1 X60.982 Y45.801 E1.8502
G1 X60.985 Y45.802 E1.8505
G1 X61.247 Y45.890 E1.8812
G1 X61.250 Y45.891 E1.8816
G1 X61.379 Y45.938 E1.8968
G1 X61.382 Y45.939 E1.8972
G1 X62.563 Y46.408 E2.0383
G1 X62.567 Y46.410 E2.0387
G1 X62.728 Y46.480 E2.0582
G1 X62.731 Y46.482 E2.0587
G1 X63.051 Y46.635 E2.0980
G1 X63.055 Y46.637 E2.0985
G1 X63.211 Y46.718 E2.1180
G1 X63.214 Y46.720 E2.1185
G1 X64.439 Y47.414 E2.2747
G1 X64.441 Y47.415 E2.2750
G1 X64.552 Y47.482 E2.2894
G1 X64.555 Y47.483 E2.2897
G1 X64.774 Y47.623 E2.3186
G1 X64.777 Y47.624 E2.3190
G1 X64.884 Y47.696 E2.3333
G1 X64.887 Y47.698 E2.3336
G1 X65.388 Y48.053 E2.4018
G1 X65.390 Y48.055 E2.4021
G1 X65.488 Y48.128 E2.4157
G1 X65.490 Y48.129 E2.4160
G1 X65.685 Y48.282 E2.4434
G1 X65.687 Y48.283 E2.4438
G1 X65.782 Y48.361 E2.4574
G1 X65.784 Y48.363 E2.4577
G1 X66.856 Y49.288 E2.6148
G1 X66.858 Y49.290 E2.6152
G1 X66.965 Y49.387 E2.6312
G1 X66.968 Y49.390 E2.6316
G1 X67.177 Y49.592 E2.6639
G1 X67.179 Y49.594 E2.6643
G1 X67.280 Y49.698 E2.6804
G1 X67.283 Y49.700 E2.6807
G1 X67.794 Y50.254 E2.7644
G1 X67.796 Y50.255 E2.7646
G1 X67.859 Y50.326 E2.7751
G1 X67.860 Y50.327 E2.7754
G1 X67.984 Y50.472 E2.7966
G1 X67.986 Y50.474 E2.7968
G1 X68.046 Y50.547 E2.8074
G1 X68.048 Y50.549 E2.8076
G1 X68.581 Y51.219 E2.9027
G1 X68.583 Y51.222 E2.9031
G1 X68.658 Y51.321 E2.9170
G1 X68.660 Y51.324 E2.9173
G1 X68.807 Y51.529 E2.9453
G1 X68.809 Y51.531 E2.9456
G1 X68.880 Y51.634 E2.9595
G1 X68.881 Y51.637 E2.9598
G1 X69.462 Y52.535 E3.0786
G1 X69.464 Y52.538 E3.0790
G1 X69.536 Y52.656 E3.0943
G1 X69.538 Y52.658 E3.0946
G1 X69.676 Y52.900 E3.1255
G1 X69.677 Y52.902 E3.1259
G1 X69.743 Y53.024 E3.1412
G1 X69.744 Y53.027 E3.1415
G1 X70.231 Y53.994 E3.2618
G1 X70.233 Y53.997 E3.2621
G1 X70.292 Y54.122 E3.2775
G1 X70.293 Y54.125 E3.2778
G1 X70.405 Y54.380 E3.3088
G1 X70.406 Y54.383 E3.3091
G1 X70.458 Y54.511 E3.3244
G1 X70.459 Y54.514 E3.3248
G1 X70.835 Y55.516 E3.4436
G1 X70.836 Y55.519 E3.4439
G1 X70.876 Y55.636 E3.4577
G1 X70.877 Y55.639 E3.4580
G1 X70.954 Y55.877 E3.4858
G1 X70.955 Y55.880 E3.4862
G1 X70.990 Y55.999 E3.4999
G1 X70.990 Y56.002 E3.5003
G1 X71.233 Y56.908 E3.6044
G1 X71.234 Y56.911 E3.6047
G1 X71.264 Y57.035 E3.6189
G1 X71.264 Y57.038 E3.6192
G1 X71.318 Y57.289 E3.6478
G1 X71.319 Y57.292 E3.6481
G1 X71.343 Y57.418 E3.6623
G1 X71.343 Y57.421 E3.6627
G1 X71.516 Y58.479 E3.7817
G1 X71.517 Y58.482 E3.7820
G1 X71.535 Y58.618 E3.7973
G1 X71.535 Y58.622 E3.7977
G1 X71.565 Y58.898 E3.8286
G1 X71.566 Y58.902 E3.8289
G1 X71.577 Y59.039 E3.8443
G1 X71.577 Y59.043 E3.8446
G1 X71.636 Y60.126 E3.9651
G1 X71.636 Y60.129 E3.9654
G1 X71.640 Y60.267 E3.9808
G1 X71.640 Y60.271 E3.9812
G1 X71.640 Y60.550 E4.0121
G1 X71.640 Y60.553 E4.0125
G1 X71.636 Y60.691 E4.0279
G1 X71.636 Y60.694 E4.0282
G1 X71.577 Y61.778 E4.1487
G1 X71.577 Y61.781 E4.1490
G1 X71.566 Y61.919 E4.1644
G1 X71.565 Y61.922 E4.1647
G1 X71.535 Y62.198 E4.1956
G1 X71.535 Y62.202 E4.1960
G1 X71.517 Y62.338 E4.2113
G1 X71.516 Y62.342 E4.2117
G1 X71.343 Y63.399 E4.3307
G1 X71.343 Y63.402 E4.3310
G1 X71.319 Y63.528 E4.3452
G1 X71.318 Y63.531 E4.3455
G1 X71.264 Y63.782 E4.3741
G1 X71.264 Y63.785 E4.3744
G1 X71.234 Y63.910 E4.3886
G1 X71.233 Y63.912 E4.3889
G1 X70.990 Y64.818 E4.4931
G1 X70.990 Y64.821 E4.4934
G1 X70.955 Y64.940 E4.5072
G1 X70.954 Y64.943 E4.5075
G1 X70.877 Y65.181 E4.5353
G1 X70.876 Y65.184 E4.5356
G1 X70.836 Y65.301 E4.5494
G1 X70.835 Y65.304 E4.5497
G1 X70.459 Y66.306 E4.6685
G1 X70.458 Y66.309 E4.6689
G1 X70.406 Y66.437 E4.6842
G1 X70.405 Y66.440 E4.6846
G1 X70.293 Y66.695 E4.7155
G1 X70.292 Y66.698 E4.7158
G1 X70.233 Y66.823 E4.7312
G1 X70.231 Y66.826 E4.7315
G1 X69.744 Y67.793 E4.8518
G1 X69.743 Y67.796 E4.8521
G1 X69.677 Y67.918 E4.8674
G1 X69.676 Y67.921 E4.8678
G1 X69.538 Y68.162 E4.8987
G1 X69.536 Y68.164 E4.8990
G1 X69.464 Y68.282 E4.9143
G1 X69.462 Y68.285 E4.9147
G1 X69.097 Y68.850 E4.9894
G1 X69.663 Y69.725 E5.1051
G1 X69.664 Y69.728 E5.1055
G1 X69.736 Y69.846 E5.1208
G1 X69.738 Y69.848 E5.1212
G1 X69.876 Y70.090 E5.1520
G1 X69.878 Y70.092 E5.1524
G1 X69.943 Y70.214 E5.1677
G1 X69.945 Y70.217 E5.1680
G1 X70.432 Y71.184 E5.2883
G1 X70.433 Y71.187 E5.2886
G1 X70.492 Y71.312 E5.3040
G1 X70.493 Y71.315 E5.3043
G1 X70.605 Y71.570 E5.3353
G1 X70.606 Y71.573 E5.3356
G1 X70.658 Y71.701 E5.3509
G1 X70.659 Y71.704 E5.3513
G1 X71.035 Y72.706 E5.4701
G1 X71.036 Y72.708 E5.4704
G1 X71.077 Y72.826 E5.4842
G1 X71.078 Y72.829 E5.4845
G1 X71.154 Y73.067 E5.5123
G1 X71.155 Y73.070 E5.5127
G1 X71.190 Y73.189 E5.5264
G1 X71.191 Y73.192 E5.5268
G1 X71.433 Y74.098 E5.6309
G1 X71.434 Y74.100 E5.6312
G1 X71.464 Y74.225 E5.6454
G1 X71.465 Y74.228 E5.6457
G1 X71.519 Y74.479 E5.6743
G1 X71.519 Y74.482 E5.6746
G1 X71.543 Y74.608 E5.6888
G1 X71.544 Y74.611 E5.6892
G1 X71.716 Y75.668 E5.8082
G1 X71.717 Y75.672 E5.8085
G1 X71.735 Y75.809 E5.8239
G1 X71.736 Y75.812 E5.8242
G1 X71.766 Y76.088 E5.8551
G1 X71.766 Y76.092 E5.8555
G1 X71.777 Y76.229 E5.8708
G1 X71.777 Y76.232 E5.8712
G1 X71.836 Y77.316 E5.9916
G1 X71.836 Y77.319 E5.9919
G1 X71.840 Y77.457 E6.0073
G1 X71.840 Y77.460 E6.0077
G1 X71.840 Y77.739 E6.0386
G1 X71.840 Y77.743 E6.0390
G1 X71.836 Y77.881 E6.0544
G1 X71.836 Y77.884 E6.0547
G1 X71.777 Y78.967 E6.1752
G1 X71.777 Y78.971 E6.1755
G1 X71.766 Y79.108 E6.1908
G1 X71.766 Y79.111 E6.1912
G1 X71.736 Y79.388 E6.2221
G1 X71.735 Y79.391 E6.2225
G1 X71.717 Y79.528 E6.2378
G1 X71.716 Y79.531 E6.2381
G1 X71.544 Y80.589 E6.3571
G1 X71.543 Y80.592 E6.3575
G1 X71.519 Y80.718 E6.3716
G1 X71.519 Y80.720 E6.3720
G1 X71.465 Y80.972 E6.4006
G1 X71.464 Y80.975 E6.4009
G1 X71.434 Y81.099 E6.4151
G1 X71.433 Y81.102 E6.4154
G1 X71.191 Y82.008 E6.5196
G1 X71.190 Y82.011 E6.5199
G1 X71.155 Y82.130 E6.5337
G1 X71.154 Y82.133 E6.5340
G1 X71.077 Y82.371 E6.5618
G1 X71.077 Y82.374 E6.5621
G1 X71.036 Y82.491 E6.5759
G1 X71.035 Y82.494 E6.5762
G1 X70.659 Y83.496 E6.6950
G1 X70.658 Y83.499 E6.6953
G1 X70.606 Y83.627 E6.7107
G1 X70.605 Y83.630 E6.7110
G1 X70.493 Y83.885 E6.7419
G1 X70.492 Y83.888 E6.7423
G1 X70.433 Y84.013 E6.7577
G1 X70.432 Y84.016 E6.7580
G1 X69.944 Y84.983 E6.8783
G1 X69.943 Y84.986 E6.8786
G1 X69.878 Y85.107 E6.8939
G1 X69.876 Y85.110 E6.8943
G1 X69.738 Y85.351 E6.9251
G1 X69.736 Y85.354 E6.9255
G1 X69.664 Y85.472 E6.9408
G1 X69.663 Y85.475 E6.9412
G1 X69.081 Y86.373 E7.0600
G1 X69.080 Y86.375 E7.0603
G1 X69.009 Y86.479 E7.0742
G1 X69.008 Y86.481 E7.0745
G1 X68.860 Y86.686 E7.1025
G1 X68.859 Y86.689 E7.1029
G1 X68.783 Y86.788 E7.1168
G1 X68.781 Y86.791 E7.1171
G1 X68.248 Y87.461 E7.2122
G1 X68.247 Y87.463 E7.2124
G1 X68.186 Y87.536 E7.2229
G1 X68.185 Y87.537 E7.2232
G1 X68.061 Y87.682 E7.2444
G1 X68.059 Y87.684 E7.2446
G1 X67.996 Y87.755 E7.2552
G1 X67.994 Y87.756 E7.2554
G1 X67.483 Y88.310 E7.3391
G1 X67.481 Y88.312 E7.3394
G1 X67.443 Y88.351 E7.3454
G1 X67.649 Y88.781 E7.3984
G1 X67.651 Y88.785 E7.3989
G1 X67.730 Y88.968 E7.4210
G1 X67.732 Y88.972 E7.4215
G1 X67.876 Y89.346 E7.4660
G1 X67.878 Y89.350 E7.4665
G1 X67.942 Y89.538 E7.4886
G1 X67.944 Y89.542 E7.4891
G1 X68.333 Y90.839 E7.6394
G1 X68.335 Y90.843 E7.6399
G1 X68.381 Y91.022 E7.6604
G1 X68.382 Y91.026 E7.6609
G1 X68.464 Y91.390 E7.7023
G1 X68.465 Y91.395 E7.7028
G1 X68.498 Y91.576 E7.7233
G1 X68.499 Y91.581 E7.7238
G1 X68.603 Y92.279 E7.8022
G1 X68.603 Y92.282 E7.8025
G1 X68.617 Y92.392 E7.8148
G1 X68.617 Y92.394 E7.8151
G1 X68.640 Y92.617 E7.8399
G1 X68.641 Y92.619 E7.8402
G1 X68.650 Y92.730 E7.8525
G1 X68.650 Y92.732 E7.8528
G1 X68.700 Y93.559 E7.9447
G1 X68.700 Y93.562 E7.9451
G1 X68.705 Y93.718 E7.9624
G1 X68.705 Y93.721 E7.9628
G1 X68.705 Y94.035 E7.9976
G1 X68.705 Y94.039 E7.9980
G1 X68.700 Y94.194 E8.0153
G1 X68.700 Y94.198 E8.0157
G1 X68.650 Y95.024 E8.1076
G1 X68.650 Y95.027 E8.1079
G1 X68.641 Y95.137 E8.1202
G1 X68.640 Y95.140 E8.1205
G1 X68.617 Y95.362 E8.1453
G1 X68.617 Y95.365 E8.1456
G1 X68.603 Y95.474 E8.1579
G1 X68.603 Y95.477 E8.1581
G1 X68.503 Y96.147 E8.2333
G1 X68.503 Y96.151 E8.2338
G1 X68.475 Y96.304 E8.2511
G1 X68.474 Y96.308 E8.2515
G1 X68.409 Y96.616 E8.2865
G1 X68.408 Y96.620 E8.2869
G1 X68.371 Y96.772 E8.3043
G1 X68.370 Y96.776 E8.3047
G1 X68.078 Y97.836 E8.4268
G1 X68.076 Y97.840 E8.4273
G1 X68.016 Y98.029 E8.4493
G1 X68.015 Y98.033 E8.4498
G1 X67.879 Y98.408 E8.4940
G1 X67.878 Y98.412 E8.4945
