; G-Code generated by Simplify3D(R) Version 4.1.0
; Jul 6, 2019 at 5:07:41 PM
; Settings Summary
;   processName,general PLA - 0.8
;   applyToModels,Spool holder
;   profileName,BortBot (modified)
;   profileVersion,2018-03-11 18:52:45
;   baseProfile,Default
;   printMaterial,PLA
;   printQuality,Medium
;   printExtruders,
;   extruderName,Extruder 1
;   extruderToolheadNumber,0
;   extruderDiameter,0.8
;   extruderAutoWidth,0
;   extruderWidth,0.96
;   extrusionMultiplier,0.96
;   extruderUseRetract,1
;   extruderRetractionDistance,4.6
;   extruderExtraRestartDistance,0
;   extruderRetractionZLift,0
;   extruderRetractionSpeed,2700
;   extruderUseCoasting,1
;   extruderCoastingDistance,1.4
;   extruderUseWipe,0
;   extruderWipeDistance,2
;   primaryExtruder,0
;   layerHeight,0.38
;   topSolidLayers,5
;   bottomSolidLayers,3
;   perimeterOutlines,3
;   printPerimetersInsideOut,0
;   startPointOption,3
;   startPointOriginX,100
;   startPointOriginY,185
;   sequentialIslands,0
;   spiralVaseMode,0
;   firstLayerHeightPercentage,100
;   firstLayerWidthPercentage,90
;   firstLayerUnderspeed,0.5
;   useRaft,0
;   raftExtruder,0
;   raftTopLayers,2
;   raftBaseLayers,2
;   raftOffset,3
;   raftSeparationDistance,0.3
;   raftTopInfill,90
;   aboveRaftSpeedMultiplier,0.3
;   useSkirt,1
;   skirtExtruder,0
;   skirtLayers,1
;   skirtOutlines,2
;   skirtOffset,2
;   usePrimePillar,0
;   primePillarExtruder,999
;   primePillarWidth,12
;   primePillarLocation,7
;   primePillarSpeedMultiplier,1
;   useOozeShield,0
;   oozeShieldExtruder,999
;   oozeShieldOffset,2
;   oozeShieldOutlines,1
;   oozeShieldSidewallShape,1
;   oozeShieldSidewallAngle,30
;   oozeShieldSpeedMultiplier,1
;   infillExtruder,0
;   internalInfillPattern,Rectilinear
;   externalInfillPattern,Rectilinear
;   infillPercentage,30
;   outlineOverlapPercentage,45
;   infillExtrusionWidthPercentage,100
;   minInfillLength,5
;   infillLayerInterval,1
;   internalInfillAngles,45,-45
;   overlapInternalInfillAngles,0
;   externalInfillAngles,45,-45
;   generateSupport,1
;   supportExtruder,0
;   supportInfillPercentage,25
;   supportExtraInflation,0.6
;   supportBaseLayers,1
;   denseSupportExtruder,0
;   denseSupportLayers,3
;   denseSupportInfillPercentage,80
;   supportLayerInterval,1
;   supportHorizontalPartOffset,0.5
;   supportUpperSeparationLayers,1
;   supportLowerSeparationLayers,1
;   supportType,0
;   supportGridSpacing,1
;   maxOverhangAngle,50
;   supportAngles,45
;   temperatureName,Extruder 1,Heated Bed
;   temperatureNumber,0,1
;   temperatureSetpointCount,1,1
;   temperatureSetpointLayers,1,1
;   temperatureSetpointTemperatures,220,60
;   temperatureStabilizeAtStartup,1,1
;   temperatureHeatedBed,0,1
;   fanLayers,1,3
;   fanSpeeds,0,80
;   blipFanToFullPower,1
;   adjustSpeedForCooling,0
;   minSpeedLayerTime,15
;   minCoolingSpeedSlowdown,20
;   increaseFanForCooling,1
;   minFanLayerTime,45
;   maxCoolingFanSpeed,100
;   increaseFanForBridging,1
;   bridgingFanSpeed,100
;   use5D,1
;   relativeEdistances,0
;   allowEaxisZeroing,1
;   independentExtruderAxes,0
;   includeM10123,0
;   stickySupport,1
;   applyToolheadOffsets,0
;   gcodeXoffset,0
;   gcodeYoffset,0
;   gcodeZoffset,0
;   overrideMachineDefinition,0
;   machineTypeOverride,0
;   strokeXoverride,100
;   strokeYoverride,100
;   strokeZoverride,100
;   originOffsetXoverride,0
;   originOffsetYoverride,0
;   originOffsetZoverride,0
;   homeXdirOverride,-1
;   homeYdirOverride,-1
;   homeZdirOverride,-1
;   flipXoverride,1
;   flipYoverride,-1
;   flipZoverride,1
;   toolheadOffsets,0,0|0,0|0,0|0,0|0,0|0,0
;   overrideFirmwareConfiguration,0
;   firmwareTypeOverride,RepRap (Marlin/Repetier/Sprinter)
;   GPXconfigOverride,r2
;   baudRateOverride,115200
;   overridePrinterModels,0
;   printerModelsOverride
;   startingGcode,G11 S1; Unretract,;G28 XY ; HOME XY,;M561 ; Clear any bed transform,G1 X100 Y80 Z25; move to center of bed,G30 ;Do a single Z probe,G29 S1 ; Load bed compensating height map,;G1 Z10; ,M572 D0 S0.15,
;   layerChangeGcode,
;   retractionGcode,
;   toolChangeGcode,
;   endingGcode,G10 S1; retract filament to relieve pressure,M104 S0 ; turn off extruder,M140 S0 ; turn off bed,G91 G1 Z10 ; Clearance from part,G90 G1 X0 Y0 ; Go to starting position (X0 Y0 Z300),M84 ; disable motor,M107; Turn off fan
;   exportFileFormat,gcode
;   celebration,0
;   celebrationSong,Random Song
;   postProcessing,
;   defaultSpeed,3000
;   outlineUnderspeed,0.8
;   solidInfillUnderspeed,1
;   supportUnderspeed,1
;   rapidXYspeed,3600
;   rapidZspeed,1800
;   minBridgingArea,10
;   bridgingExtraInflation,5
;   bridgingExtrusionMultiplier,0.9
;   bridgingSpeedMultiplier,0.6
;   useFixedBridgingAngle,0
;   fixedBridgingAngle,0
;   applyBridgingToPerimeters,1
;   filamentDiameters,1.75|1.75|1.75|1.75|1.75|1.75
;   filamentPricesPerKg,20|46|46|46|46|46
;   filamentDensities,1.33|1.25|1.25|1.25|1.25|1.25
;   useMinPrintHeight,0
;   minPrintHeight,50
;   useMaxPrintHeight,0
;   maxPrintHeight,23
;   useDiaphragm,0
;   diaphragmLayerInterval,20
;   robustSlicing,1
;   mergeAllIntoSolid,0
;   onlyRetractWhenCrossingOutline,0
;   retractBetweenLayers,0
;   useRetractionMinTravel,0
;   retractionMinTravel,3
;   retractWhileWiping,0
;   onlyWipeOutlines,0
;   avoidCrossingOutline,1
;   maxMovementDetourFactor,5
;   toolChangeRetractionDistance,12
;   toolChangeExtraRestartDistance,-0.5
;   toolChangeRetractionSpeed,600
;   externalThinWallType,1
;   internalThinWallType,1
;   thinWallAllowedOverlapPercentage,30
;   singleExtrusionMinLength,1
;   singleExtrusionMinPrintingWidthPercentage,75
;   singleExtrusionMaxPrintingWidthPercentage,150
;   singleExtrusionEndpointExtension,0.5
;   horizontalSizeCompensation,0
G90
M82
M106 S0
M140 S60
M190 S60
M104 S220 T0
M109 S220 T0
G11 S1; Unretract
;G28 XY ; HOME XY
;M561 ; Clear any bed transform
G1 X100 Y80 Z25; move to center of bed
G30 ;Do a single Z probe
G29 S1 ; Load bed compensating height map
;G1 Z10; 
M572 D0 S0.15
; process general PLA - 0.8
; layer 1, Z = 0.380
T0
; feature skirt
; tool H0.380 W0.864
G1 Z0.380 F1800
G1 X111.365 Y143.296 F3600
G92 E0.0000
G1 X88.635 Y143.296 E2.9786 F1500
G1 X86.704 Y141.365 E3.3364
G1 X86.704 Y38.635 E16.7982
G1 X88.635 Y36.704 E17.1560
G1 X111.365 Y36.704 E20.1346
G1 X113.296 Y38.635 E20.4924
G1 X113.296 Y141.365 E33.9541
G1 X111.365 Y143.296 E34.3119
G92 E0.0000
G1 E-4.6000 F2700
G1 X111.007 Y142.432 F3600
G1 E0.0000 F2700
G92 E0.0000
G1 X88.993 Y142.432 E2.8848 F1500
G1 X87.568 Y141.007 E3.1488
G1 X87.568 Y38.993 E16.5168
G1 X88.993 Y37.568 E16.7808
G1 X111.007 Y37.568 E19.6656
G1 X112.432 Y38.993 E19.9296
G1 X112.432 Y141.007 E33.2976
G1 X111.007 Y142.432 E33.5616
G92 E0.0000
G1 E-4.6000 F2700
; feature outer perimeter
G1 X109.568 Y139.568 F3600
G1 E0.0000 F2700
G92 E0.0000
G1 X90.432 Y139.568 E2.5076 F1200
G1 X90.432 Y40.432 E15.4983
G1 X109.568 Y40.432 E18.0059
G1 X109.568 Y138.168 E30.8132
G1 X109.568 Y139.568 F1200
G92 E0.0000
G1 E-4.6000 F2700
; feature inner perimeter
G1 X108.704 Y138.704 F3600
G1 E0.0000 F2700
G92 E0.0000
G1 X91.296 Y138.704 E2.2811 F1350
G1 X91.296 Y41.296 E15.0454
G1 X108.704 Y41.296 E17.3266
G1 X108.704 Y137.304 E29.9074
G1 X108.704 Y138.704 F1350
G92 E0.0000
G1 E-4.6000 F2700
G1 X107.840 Y137.840 F3600
G1 E0.0000 F2700
G92 E0.0000
G1 X92.160 Y137.840 E2.0547 F1350
G1 X92.160 Y42.160 E14.5926
G1 X107.840 Y42.160 E16.6473
G1 X107.840 Y136.440 E29.0017
G1 X107.840 Y137.840 F1350
G92 E0.0000
G1 E-4.6000 F2700
; feature outer perimeter
G1 X100.116 Y133.330 F3600
G1 E0.0000 F2700
G92 E0.0000
G1 X100.430 Y133.305 E0.0413 F1200
G1 X100.876 Y133.215 E0.1009
G1 X101.176 Y133.118 E0.1422
G1 X101.461 Y132.995 E0.1828
G1 X101.733 Y132.846 E0.2235
G1 X101.990 Y132.673 E0.2641
G1 X102.230 Y132.476 E0.3047
G1 X102.450 Y132.259 E0.3454
G1 X102.653 Y132.017 E0.3867
G1 X102.903 Y131.637 E0.4463
G1 X103.044 Y131.355 E0.4876
G1 X103.157 Y131.067 E0.5282
G1 X103.243 Y130.769 E0.5688
G1 X103.300 Y130.464 E0.6095
G1 X103.329 Y130.155 E0.6501
G1 X103.329 Y129.845 E0.6907
G1 X103.300 Y129.536 E0.7314
G1 X103.242 Y129.226 E0.7727
G1 X103.106 Y128.792 E0.8323
G1 X102.978 Y128.504 E0.8736
G1 X102.826 Y128.234 E0.9142
G1 X102.650 Y127.979 E0.9548
G1 X102.450 Y127.741 E0.9955
G1 X102.230 Y127.523 E1.0361
G1 X101.990 Y127.327 E1.0767
G1 X101.733 Y127.154 E1.1174
G1 X101.461 Y127.005 E1.1580
G1 X101.176 Y126.882 E1.1986
G1 X100.881 Y126.786 E1.2393
G1 X100.579 Y126.718 E1.2799
G1 X100.271 Y126.679 E1.3205
G1 X99.961 Y126.668 E1.3612
G1 X99.647 Y126.686 E1.4025
G1 X99.199 Y126.765 E1.4621
G1 X98.897 Y126.855 E1.5034
G1 X98.609 Y126.972 E1.5440
G1 X98.334 Y127.114 E1.5847
G1 X98.073 Y127.281 E1.6253
G1 X97.828 Y127.472 E1.6659
G1 X97.603 Y127.685 E1.7066
G1 X97.398 Y127.918 E1.7472
G1 X97.213 Y128.173 E1.7885
G1 X96.990 Y128.569 E1.8481
G1 X96.869 Y128.860 E1.8894
G1 X96.776 Y129.156 E1.9300
G1 X96.711 Y129.464 E1.9713
G1 X96.668 Y129.917 E2.0309
G1 X96.676 Y130.232 E2.0722
G1 X96.712 Y130.541 E2.1129
G1 X96.776 Y130.844 E2.1535
G1 X96.869 Y131.140 E2.1941
G1 X96.988 Y131.426 E2.2347
G1 X97.134 Y131.700 E2.2754
G1 X97.304 Y131.959 E2.3160
G1 X97.501 Y132.205 E2.3573
G1 X97.824 Y132.525 E2.4169
G1 X98.073 Y132.719 E2.4582
G1 X98.334 Y132.886 E2.4989
G1 X98.609 Y133.028 E2.5395
G1 X98.749 Y133.085 E2.5592
G1 X98.897 Y133.145 F1200
G1 X99.194 Y133.233
G1 X99.498 Y133.294
G1 X99.806 Y133.327
G1 X100.116 Y133.330
G92 E0.0000
G1 E-4.6000 F2700
; feature inner perimeter
G1 X100.146 Y134.195 F3600
G1 E0.0000 F2700
G92 E0.0000
G1 X100.551 Y134.162 E0.0532 F1350
G1 X101.096 Y134.053 E0.1260
G1 X101.481 Y133.927 E0.1791
G1 X101.840 Y133.773 E0.2303
G1 X102.183 Y133.585 E0.2815
G1 X102.506 Y133.367 E0.3327
G1 X102.809 Y133.119 E0.3838
G1 X103.086 Y132.845 E0.4350
G1 X103.347 Y132.534 E0.4882
G1 X103.652 Y132.070 E0.5610
G1 X103.835 Y131.707 E0.6141
G1 X103.977 Y131.343 E0.6653
G1 X104.084 Y130.968 E0.7165
G1 X104.157 Y130.584 E0.7677
G1 X104.193 Y130.195 E0.8189
G1 X104.193 Y129.805 E0.8701
G1 X104.157 Y129.416 E0.9212
G1 X104.081 Y129.017 E0.9744
G1 X103.916 Y128.487 E1.0472
G1 X103.751 Y128.116 E1.1004
G1 X103.560 Y127.776 E1.1515
G1 X103.337 Y127.455 E1.2027
G1 X103.086 Y127.155 E1.2539
G1 X102.809 Y126.881 E1.3051
G1 X102.506 Y126.633 E1.3563
G1 X102.183 Y126.415 E1.4074
G1 X101.840 Y126.227 E1.4586
G1 X101.481 Y126.073 E1.5098
G1 X101.110 Y125.952 E1.5610
G1 X100.729 Y125.866 E1.6122
G1 X100.342 Y125.817 E1.6633
G1 X99.951 Y125.803 E1.7145
G1 X99.546 Y125.826 E1.7677
G1 X98.999 Y125.923 E1.8405
G1 X98.610 Y126.039 E1.8937
G1 X98.248 Y126.186 E1.9448
G1 X97.901 Y126.365 E1.9960
G1 X97.573 Y126.576 E2.0472
G1 X97.265 Y126.816 E2.0984
G1 X96.981 Y127.084 E2.1496
G1 X96.723 Y127.377 E2.2007
G1 X96.484 Y127.706 E2.2539
G1 X96.212 Y128.190 E2.3267
G1 X96.056 Y128.564 E2.3798
G1 X95.939 Y128.937 E2.4310
G1 X95.855 Y129.334 E2.4842
G1 X95.803 Y129.887 E2.5570
G1 X95.813 Y130.293 E2.6102
G1 X95.858 Y130.681 E2.6613
G1 X95.939 Y131.063 E2.7125
G1 X96.056 Y131.436 E2.7637
G1 X96.206 Y131.796 E2.8149
G1 X96.390 Y132.141 E2.8661
G1 X96.604 Y132.467 E2.9172
G1 X96.858 Y132.784 E2.9704
G1 X97.253 Y133.174 E3.0432
G1 X97.573 Y133.424 E3.0964
G1 X97.901 Y133.635 E3.1475
G1 X98.248 Y133.814 E3.1987
G1 X98.610 Y133.961 E3.2499
G1 X98.766 Y134.007 E3.2712
G1 X98.985 Y134.073 F1350
G1 X99.367 Y134.149
G1 X99.756 Y134.190
G1 X100.146 Y134.195
G92 E0.0000
G1 E-4.6000 F2700
G1 X100.177 Y135.059 F3600
G1 E0.0000 F2700
G92 E0.0000
G1 X100.671 Y135.019 E0.0650 F1350
G1 X101.315 Y134.890 E0.1510
G1 X101.787 Y134.737 E0.2161
G1 X102.219 Y134.550 E0.2778
G1 X102.633 Y134.324 E0.3395
G1 X103.023 Y134.061 E0.4012
G1 X103.387 Y133.762 E0.4630
G1 X103.722 Y133.431 E0.5247
G1 X104.041 Y133.051 E0.5897
G1 X104.402 Y132.502 E0.6757
G1 X104.625 Y132.059 E0.7407
G1 X104.796 Y131.620 E0.8025
G1 X104.926 Y131.168 E0.8642
G1 X105.013 Y130.704 E0.9259
G1 X105.057 Y130.236 E0.9876
G1 X105.057 Y129.764 E1.0494
G1 X105.013 Y129.296 E1.1111
G1 X104.921 Y128.808 E1.1761
G1 X104.726 Y128.181 E1.2621
G1 X104.524 Y127.728 E1.3271
G1 X104.293 Y127.317 E1.3889
G1 X104.025 Y126.930 E1.4506
G1 X103.722 Y126.569 E1.5123
G1 X103.387 Y126.238 E1.5740
G1 X103.023 Y125.939 E1.6358
G1 X102.633 Y125.676 E1.6975
G1 X102.219 Y125.450 E1.7592
G1 X101.787 Y125.263 E1.8210
G1 X101.339 Y125.118 E1.8827
G1 X100.879 Y125.015 E1.9444
G1 X100.412 Y124.954 E2.0061
G1 X99.941 Y124.938 E2.0679
G1 X99.446 Y124.967 E2.1329
G1 X98.799 Y125.081 E2.2189
G1 X98.324 Y125.223 E2.2839
G1 X97.887 Y125.400 E2.3456
G1 X97.469 Y125.616 E2.4074
G1 X97.072 Y125.870 E2.4691
G1 X96.701 Y126.160 E2.5308
G1 X96.358 Y126.483 E2.5926
G1 X96.047 Y126.837 E2.6543
G1 X95.756 Y127.239 E2.7193
G1 X95.434 Y127.811 E2.8053
G1 X95.243 Y128.269 E2.8703
G1 X95.103 Y128.718 E2.9320
G1 X94.999 Y129.204 E2.9971
G1 X94.938 Y129.857 E3.0831
G1 X94.950 Y130.353 E3.1481
G1 X95.005 Y130.821 E3.2098
G1 X95.103 Y131.282 E3.2715
G1 X95.243 Y131.732 E3.3333
G1 X95.424 Y132.166 E3.3950
G1 X95.646 Y132.582 E3.4567
G1 X95.904 Y132.976 E3.5184
G1 X96.214 Y133.363 E3.5835
G1 X96.681 Y133.824 E3.6695
G1 X97.072 Y134.130 E3.7345
G1 X97.469 Y134.384 E3.7962
G1 X97.887 Y134.600 E3.8579
G1 X98.324 Y134.777 E3.9197
G1 X98.775 Y134.912 E3.9814
G1 X98.788 Y134.915 E3.9831
G1 X99.237 Y135.005 F1350
G1 X99.706 Y135.054
G1 X100.177 Y135.059
G92 E0.0000
G1 E-4.6000 F2700
; feature outer perimeter
G1 X100.175 Y133.326 F3600
G1 X100.430 Y133.305
G1 X100.876 Y133.215
G1 X101.176 Y133.118
G1 X101.461 Y132.995
G1 X101.733 Y132.846
G1 X101.990 Y132.673
G1 X102.230 Y132.477
G1 X102.450 Y132.259
G1 X102.653 Y132.017
G1 X102.903 Y131.637
G1 X103.044 Y131.355
G1 X103.157 Y131.067
G1 X103.243 Y130.769
G1 X103.300 Y130.464
G1 X103.329 Y130.155
G1 X103.329 Y129.845
G1 X103.300 Y129.536
G1 X103.242 Y129.227
G1 X103.106 Y128.792
G1 X102.978 Y128.504
G1 X102.826 Y128.234
G1 X102.650 Y127.979
G1 X102.450 Y127.741
G1 X102.230 Y127.523
G1 X101.990 Y127.327
G1 X101.733 Y127.154
G1 X101.461 Y127.005
G1 X101.176 Y126.882
G1 X100.881 Y126.786
G1 X100.579 Y126.718
G1 X100.271 Y126.679
G1 X100.170 Y126.675
G1 X100.116 Y53.330
G1 E0.0000 F2700
G92 E0.0000
G1 X100.425 Y53.305 E0.0406 F1200
G1 X100.731 Y53.251 E0.0813
G1 X101.030 Y53.169 E0.1219
G1 X101.320 Y53.060 E0.1625
G1 X101.599 Y52.924 E0.2032
G1 X101.863 Y52.763 E0.2438
G1 X102.116 Y52.575 E0.2851
G1 X102.447 Y52.262 E0.3447
G1 X102.650 Y52.021 E0.3860
G1 X102.826 Y51.766 E0.4266
G1 X102.978 Y51.496 E0.4673
G1 X103.106 Y51.208 E0.5086
G1 X103.242 Y50.773 E0.5682
G1 X103.300 Y50.464 E0.6095
G1 X103.329 Y50.155 E0.6501
G1 X103.329 Y49.845 E0.6907
G1 X103.300 Y49.536 E0.7314
G1 X103.242 Y49.227 E0.7727
G1 X103.106 Y48.792 E0.8323
G1 X102.978 Y48.504 E0.8736
G1 X102.826 Y48.234 E0.9142
G1 X102.650 Y47.979 E0.9548
G1 X102.450 Y47.741 E0.9955
G1 X102.230 Y47.523 E1.0361
G1 X101.990 Y47.327 E1.0767
G1 X101.729 Y47.151 E1.1180
G1 X101.320 Y46.940 E1.1783
G1 X100.886 Y46.787 E1.2386
G1 X100.579 Y46.718 E1.2799
G1 X100.271 Y46.679 E1.3205
G1 X99.961 Y46.668 E1.3611
G1 X99.652 Y46.686 E1.4018
G1 X99.345 Y46.733 E1.4424
G1 X99.044 Y46.808 E1.4830
G1 X98.752 Y46.910 E1.5237
G1 X98.470 Y47.040 E1.5643
G1 X98.201 Y47.195 E1.6049
G1 X97.948 Y47.374 E1.6456
G1 X97.713 Y47.576 E1.6862
G1 X97.498 Y47.799 E1.7268
G1 X97.304 Y48.041 E1.7675
G1 X97.134 Y48.300 E1.8081
G1 X96.988 Y48.574 E1.8488
G1 X96.869 Y48.860 E1.8894
G1 X96.776 Y49.156 E1.9300
G1 X96.711 Y49.464 E1.9713
G1 X96.668 Y49.917 E2.0309
G1 X96.676 Y50.232 E2.0722
G1 X96.712 Y50.541 E2.1129
G1 X96.776 Y50.844 E2.1535
G1 X96.869 Y51.140 E2.1941
G1 X96.988 Y51.426 E2.2347
G1 X97.136 Y51.704 E2.2761
G1 X97.395 Y52.078 E2.3357
G1 X97.603 Y52.315 E2.3769
G1 X97.828 Y52.528 E2.4176
G1 X98.073 Y52.719 E2.4582
G1 X98.334 Y52.886 E2.4988
G1 X98.609 Y53.028 E2.5395
G1 X98.749 Y53.085 E2.5592
G1 X98.897 Y53.145 F1200
G1 X99.194 Y53.233
G1 X99.498 Y53.294
G1 X99.806 Y53.327
G1 X100.116 Y53.330
G92 E0.0000
G1 E-4.6000 F2700
; feature inner perimeter
G1 X100.146 Y54.195 F3600
G1 E0.0000 F2700
G92 E0.0000
G1 X100.536 Y54.163 E0.0512 F1350
G1 X100.920 Y54.095 E0.1024
