; G-Code generated by Simplify3D(R) Version 3.1.1
; Apr 29, 2017 at 3:34:37 PM
; Settings Summary
;   processName,normal (clear)
;   applyToModels,stepper_shaft_sizing
;   profileName,Default (modified)
;   profileVersion,2015-07-02 16:19:25
;   baseProfile,normal (modified)
;   printMaterial,PLA
;   printQuality,Fast
;   printExtruders,
;   extruderName,Extruder 1
;   extruderToolheadNumber,0
;   extruderDiameter,0.4
;   extruderAutoWidth,1
;   extruderWidth,0.48
;   extrusionMultiplier,1
;   extruderUseRetract,1
;   extruderRetractionDistance,3.1
;   extruderExtraRestartDistance,0
;   extruderRetractionZLift,0
;   extruderRetractionSpeed,1800
;   extruderUseCoasting,0
;   extruderCoastingDistance,0.2
;   extruderUseWipe,0
;   extruderWipeDistance,5
;   primaryExtruder,0
;   layerHeight,0.25
;   topSolidLayers,2
;   bottomSolidLayers,2
;   perimeterOutlines,3
;   printPerimetersInsideOut,0
;   startPointOption,2
;   startPointOriginX,0
;   startPointOriginY,0
;   startPointOriginZ,300
;   sequentialIslands,0
;   spiralVaseMode,0
;   firstLayerHeightPercentage,100
;   firstLayerWidthPercentage,105
;   firstLayerUnderspeed,0.4
;   useRaft,1
;   raftExtruder,0
;   raftLayers,1
;   raftOffset,0.6
;   raftSeparationDistance,0.24
;   raftInfill,75
;   disableRaftBaseLayers,0
;   useSkirt,1
;   skirtExtruder,0
;   skirtLayers,1
;   skirtOutlines,1
;   skirtOffset,5
;   usePrimePillar,0
;   primePillarExtruder,999
;   primePillarWidth,12
;   primePillarLocation,7
;   primePillarSpeedMultiplier,1
;   useOozeShield,0
;   oozeShieldExtruder,999
;   oozeShieldOffset,2
;   oozeShieldOutlines,1
;   oozeShieldSidewallShape,1
;   oozeShieldSidewallAngle,30
;   oozeShieldSpeedMultiplier,1
;   infillExtruder,0
;   internalInfillPattern,Rectilinear
;   externalInfillPattern,Concentric
;   infillPercentage,50
;   outlineOverlapPercentage,15
;   infillExtrusionWidthPercentage,100
;   minInfillLength,5
;   infillLayerInterval,1
;   infillAngles,45,-45
;   overlapInfillAngles,0
;   generateSupport,0
;   supportExtruder,0
;   supportInfillPercentage,30
;   supportExtraInflation,0.2
;   denseSupportLayers,2
;   denseSupportInfillPercentage,80
;   supportLayerInterval,1
;   supportHorizontalPartOffset,0.3
;   supportUpperSeparationLayers,1
;   supportLowerSeparationLayers,1
;   supportType,0
;   supportGridSpacing,1.5
;   maxOverhangAngle,40
;   supportAngles,0
;   temperatureName,Extruder 1 Temperature
;   temperatureNumber,0
;   temperatureSetpointCount,1
;   temperatureSetpointLayers,1
;   temperatureSetpointTemperatures,205
;   temperatureStabilizeAtStartup,1
;   temperatureHeatedBed,0
;   temperatureRelayBetweenLayers,1
;   temperatureRelayBetweenLoops,0
;   fanLayers,1
;   fanSpeeds,0
;   blipFanToFullPower,0
;   adjustSpeedForCooling,1
;   minSpeedLayerTime,20
;   minCoolingSpeedSlowdown,20
;   increaseFanForCooling,0
;   minFanLayerTime,45
;   maxCoolingFanSpeed,100
;   increaseFanForBridging,0
;   bridgingFanSpeed,100
;   use5D,1
;   relativeEdistances,0
;   allowEaxisZeroing,1
;   independentExtruderAxes,0
;   includeM10123,0
;   stickySupport,1
;   applyToolheadOffsets,0
;   gcodeXoffset,0
;   gcodeYoffset,0
;   gcodeZoffset,0
;   overrideMachineDefinition,0
;   machineTypeOverride,0
;   strokeXoverride,113
;   strokeYoverride,187
;   strokeZoverride,100
;   originOffsetXoverride,0
;   originOffsetYoverride,0
;   originOffsetZoverride,0
;   homeXdirOverride,-1
;   homeYdirOverride,-1
;   homeZdirOverride,-1
;   flipXoverride,1
;   flipYoverride,-1
;   flipZoverride,1
;   toolheadOffsets,0,0|0,0|0,0|0,0|0,0|0,0
;   overrideFirmwareConfiguration,1
;   firmwareTypeOverride,RepRap (Marlin/Repetier/Sprinter)
;   GPXconfigOverride,r2
;   baudRateOverride,115200
;   overridePrinterModels,0
;   printerModelsOverride
;   startingGcode,G92 X0 Y0 ; zero X and Y axes,G28 Z; GO TO HOME ON Z
;   layerChangeGcode,
;   retractionGcode,
;   toolChangeGcode,
;   endingGcode,M104 S0 ; turn off extruder,M140 S0 ; turn off bed,G91 ; set to incrimental,G1 Z10 F5000 ; lift nozzle,G90 ; Absolute Positioning,G1 X0 ; move X to left,M84 ; disable motors
;   exportFileFormat,gcode
;   celebration,0
;   celebrationSong,Random Song
;   postProcessing,
;   defaultSpeed,4200
;   outlineUnderspeed,1
;   solidInfillUnderspeed,0.9
;   supportUnderspeed,0.75
;   rapidXYspeed,4800
;   rapidZspeed,1002
;   minBridgingArea,50
;   bridgingExtraInflation,0
;   bridgingExtrusionMultiplier,1
;   bridgingSpeedMultiplier,1
;   filamentDiameter,1.7
;   filamentPricePerKg,27
;   filamentDensity,1.25
;   useMinPrintHeight,0
;   minPrintHeight,0
;   useMaxPrintHeight,0
;   maxPrintHeight,10
;   useDiaphragm,0
;   diaphragmLayerInterval,20
;   robustSlicing,1
;   mergeAllIntoSolid,0
;   onlyRetractWhenCrossingOutline,1
;   retractBetweenLayers,0
;   useRetractionMinTravel,0
;   retractionMinTravel,3
;   retractWhileWiping,0
;   onlyWipeOutlines,1
;   avoidCrossingOutline,0
;   maxMovementDetourFactor,3
;   toolChangeRetractionDistance,12
;   toolChangeExtraRestartDistance,-0.5
;   toolChangeRetractionSpeed,600
;   allowThinWallGapFill,1
;   thinWallAllowedOverlapPercentage,15
;   horizontalSizeCompensation,0
G90
M82
M106 S0
M104 S205 T0
M109 S205 T0
G92 X0 Y0 ; zero X and Y axes
G28 Z; GO TO HOME ON Z
G92 E0
G1 E-3.1000 F1800
G1 Z0.500 F1002
; layer 1, Z = 0.5
M105
T0
; tool H0.500 W0.504
; skirt
G1 X34.827 Y66.174 F4800
G1 E0.0000 F540
G92 E0
G1 X36.708 Y65.394 E0.2261 F1680
G1 X36.755 Y65.385 E0.2313
G1 X76.245 Y65.385 E4.6157
G1 X76.291 Y65.394 E4.6209
G1 X78.173 Y66.174 E4.8470
G1 X78.212 Y66.200 E4.8523
G1 X81.175 Y69.163 E5.3175
G1 X81.201 Y69.202 E5.3227
G1 X81.981 Y71.083 E5.5488
G1 X81.990 Y71.130 E5.5541
G1 X81.990 Y83.870 E6.9685
G1 X81.981 Y83.917 E6.9738
G1 X81.201 Y85.798 E7.1999
G1 X81.175 Y85.837 E7.2051
G1 X78.212 Y88.800 E7.6703
G1 X78.173 Y88.826 E7.6756
G1 X76.291 Y89.606 E7.9017
G1 X76.245 Y89.615 E7.9069
G1 X36.755 Y89.615 E12.2912
G1 X36.708 Y89.606 E12.2965
G1 X34.827 Y88.826 E12.5226
G1 X34.788 Y88.800 E12.5278
G1 X31.825 Y85.837 E12.9930
G1 X31.799 Y85.798 E12.9983
G1 X31.019 Y83.917 E13.2244
G1 X31.010 Y83.870 E13.2296
G1 X31.010 Y71.130 E14.6441
G1 X31.019 Y71.083 E14.6494
G1 X31.799 Y69.202 E14.8754
G1 X31.825 Y69.163 E14.8807
G1 X34.788 Y66.200 E15.3459
G1 X34.827 Y66.174 E15.3512
; tool H0.500 W0.840
; raft
G1 X37.939 Y71.025 F4800
G92 E0
G1 X75.061 Y71.025 E6.8691 F420
G1 X76.350 Y72.314 E7.2063
G1 X76.350 Y82.686 E9.1257
G1 X75.061 Y83.975 E9.4629
G1 X37.939 Y83.975 E16.3320
G1 X36.650 Y82.686 E16.6692
G1 X36.650 Y72.314 E18.5885
G1 X37.939 Y71.025 E18.9258
G1 X37.450 Y72.929 F4800
G92 E0
G1 X75.550 Y72.929 E7.0500 F420
G1 X75.550 Y75.214 E7.4729
G1 X37.450 Y75.214 E14.5229
G1 X37.450 Y77.500 E14.9458
G1 X75.550 Y77.500 E21.9958
G1 X75.550 Y79.786 E22.4187
G1 X37.450 Y79.786 E29.4687
G1 X37.450 Y82.071 E29.8916
G1 X75.550 Y82.071 E36.9416
; layer 2, Z = 1
M105
; tool H0.500 W0.800
; raft
G1 X76.350 Y82.686 F4800
G1 Z1.000 F1002
G92 E0
G1 X75.061 Y83.975 E0.3212 F1050
G1 X37.939 Y83.975 E6.8632
G1 X36.650 Y82.686 E7.1844
G1 X36.650 Y72.314 E9.0123
G1 X37.939 Y71.025 E9.3335
G1 X75.061 Y71.025 E15.8755
G1 X76.350 Y72.314 E16.1966
G1 X76.350 Y82.686 E18.0246
G1 X75.550 Y82.071 F4800
G92 E0
G1 X37.450 Y82.071 E6.7142 F1050
G1 X37.450 Y79.786 E7.1171
G1 X75.550 Y79.786 E13.8313
G1 X75.550 Y77.500 E14.2341
G1 X37.450 Y77.500 E20.9484
G1 X37.450 Y75.214 E21.3512
G1 X75.550 Y75.214 E28.0654
G1 X75.550 Y72.929 E28.4682
G1 X37.450 Y72.929 E35.1825
; layer 3, Z = 1.37647
M105
; tool H0.376 W0.640
; raft
G1 X37.300 Y83.449 F4800
G1 Z1.376 F1002
G92 E0
G1 X37.300 Y71.551 E1.2631 F2100
G1 X37.906 Y70.945 E1.3540
G1 X38.580 Y70.945 E1.4256
G1 X38.580 Y84.055 E2.8172
G1 X39.860 Y84.055 E2.9531
G1 X39.860 Y70.945 E4.3447
G1 X41.140 Y70.945 E4.4806
G1 X41.140 Y84.055 E5.8722
G1 X42.420 Y84.055 E6.0081
G1 X42.420 Y70.945 E7.3997
G1 X43.700 Y70.945 E7.5356
G1 X43.700 Y84.055 E8.9273
G1 X44.980 Y84.055 E9.0631
G1 X44.980 Y70.945 E10.4548
G1 X46.260 Y70.945 E10.5906
G1 X46.260 Y84.055 E11.9823
G1 X47.540 Y84.055 E12.1182
G1 X47.540 Y70.945 E13.5098
G1 X48.820 Y70.945 E13.6457
G1 X48.820 Y84.055 E15.0373
G1 X50.100 Y84.055 E15.1732
G1 X50.100 Y70.945 E16.5648
G1 X51.380 Y70.945 E16.7007
G1 X51.380 Y84.055 E18.0923
G1 X52.660 Y84.055 E18.2282
G1 X52.660 Y70.945 E19.6198
G1 X53.940 Y70.945 E19.7557
G1 X53.940 Y84.055 E21.1474
G1 X55.220 Y84.055 E21.2832
G1 X55.220 Y70.945 E22.6749
G1 X56.500 Y70.945 E22.8107
G1 X56.500 Y84.055 E24.2024
G1 X57.780 Y84.055 E24.3382
G1 X57.780 Y70.945 E25.7299
G1 X59.060 Y70.945 E25.8658
G1 X59.060 Y84.055 E27.2574
G1 X60.340 Y84.055 E27.3933
G1 X60.340 Y70.945 E28.7849
G1 X61.620 Y70.945 E28.9208
G1 X61.620 Y84.055 E30.3124
G1 X62.900 Y84.055 E30.4483
G1 X62.900 Y70.945 E31.8399
G1 X64.180 Y70.945 E31.9758
G1 X64.180 Y84.055 E33.3674
G1 X65.460 Y84.055 E33.5033
G1 X65.460 Y70.945 E34.8950
G1 X66.740 Y70.945 E35.0308
G1 X66.740 Y84.055 E36.4225
G1 X68.020 Y84.055 E36.5583
G1 X68.020 Y70.945 E37.9500
G1 X69.300 Y70.945 E38.0858
G1 X69.300 Y84.055 E39.4775
G1 X70.580 Y84.055 E39.6134
G1 X70.580 Y70.945 E41.0050
G1 X71.860 Y70.945 E41.1409
G1 X71.860 Y84.055 E42.5325
G1 X73.140 Y84.055 E42.6684
G1 X73.140 Y70.945 E44.0600
G1 X74.420 Y70.945 E44.1959
G1 X74.420 Y84.055 E45.5875
G1 X75.094 Y84.055 E45.6591
G1 X75.700 Y83.449 E45.7500
G1 X75.700 Y71.551 E47.0131
; layer 4, Z = 1.59869
M105
; tool H0.222 W0.400
; raft
G1 X74.401 Y82.090 F4800
G1 Z1.599 F1002
G92 E0
G1 X74.084 Y82.175 E0.0129 F2100
G1 X72.023 Y82.175 E0.0935
G1 X74.550 Y81.498 E0.1960
G1 X74.550 Y80.946 E0.2176
G1 X69.962 Y82.175 E0.4036
G1 X67.902 Y82.175 E0.4843
G1 X74.550 Y80.394 E0.7539
G1 X74.550 Y79.841 E0.7755
G1 X65.841 Y82.175 E1.1286
G1 X63.780 Y82.175 E1.2093
G1 X74.550 Y79.289 E1.6459
G1 X74.550 Y78.737 E1.6675
G1 X61.720 Y82.175 E2.1877
G1 X59.659 Y82.175 E2.2684
G1 X74.550 Y78.185 E2.8721
G1 X74.550 Y77.633 E2.8937
G1 X57.599 Y82.175 E3.5810
G1 X55.538 Y82.175 E3.6617
G1 X74.550 Y77.081 E4.4325
G1 X74.550 Y76.529 E4.4541
G1 X53.477 Y82.175 E5.3085
G1 X51.417 Y82.175 E5.3892
G1 X74.550 Y75.976 E6.3271
G1 X74.550 Y75.424 E6.3487
G1 X49.356 Y82.175 E7.3701
G1 X47.295 Y82.175 E7.4508
G1 X74.550 Y74.872 E8.5558
G1 X74.550 Y74.320 E8.5775
G1 X45.235 Y82.175 E9.7660
G1 X43.174 Y82.175 E9.8467
G1 X74.550 Y73.768 E11.1188
G1 X74.550 Y73.216 E11.1404
G1 X41.113 Y82.175 E12.4960
G1 X39.053 Y82.175 E12.5767
G1 X73.947 Y72.825 E13.9914
G1 X71.887 Y72.825 E14.0721
G1 X38.450 Y81.784 E15.4278
G1 X38.450 Y81.232 E15.4494
G1 X69.826 Y72.825 E16.7215
G1 X67.766 Y72.825 E16.8022
G1 X38.450 Y80.680 E17.9907
G1 X38.450 Y80.128 E18.0123
G1 X65.705 Y72.825 E19.1173
G1 X63.644 Y72.825 E19.1980
G1 X38.450 Y79.576 E20.2195
G1 X38.450 Y79.024 E20.2411
G1 X61.584 Y72.825 E21.1790
G1 X59.523 Y72.825 E21.2597
G1 X38.450 Y78.471 E22.1141
G1 X38.450 Y77.919 E22.1357
G1 X57.462 Y72.825 E22.9065
G1 X55.402 Y72.825 E22.9872
G1 X38.450 Y77.367 E23.6745
G1 X38.450 Y76.815 E23.6961
G1 X53.341 Y72.825 E24.2998
G1 X51.280 Y72.825 E24.3805
G1 X38.450 Y76.263 E24.9007
G1 X38.450 Y75.711 E24.9223
G1 X49.220 Y72.825 E25.3590
G1 X47.159 Y72.825 E25.4397
G1 X38.450 Y75.159 E25.7928
G1 X38.450 Y74.606 E25.8144
G1 X45.098 Y72.825 E26.0839
G1 X43.038 Y72.825 E26.1646
G1 X38.450 Y74.054 E26.3506
G1 X38.450 Y73.502 E26.3723
G1 X40.977 Y72.825 E26.4747
G1 X38.917 Y72.825 E26.5554
G1 X38.599 Y72.910 E26.5683
G92 E0
G1 E-3.1000 F1800
; layer 5, Z = 2.10049
M105
; tool H0.262 W0.480
; outer perimeter
G1 X39.090 Y73.465 F4800
G1 Z2.100 F1002
G1 E0.0000 F1800
G92 E0
G1 X73.910 Y73.465 E1.9278 F4200
G1 X73.910 Y81.535 E2.3745
G1 X39.090 Y81.535 E4.3023
G1 X39.090 Y73.465 E4.7491
; inner perimeter
G1 X39.570 Y73.945 F4800
G92 E0
G1 X73.430 Y73.945 E1.8746 F4200
G1 X73.430 Y81.055 E2.2682
G1 X39.570 Y81.055 E4.1428
G1 X39.570 Y73.945 E4.5365
; inner perimeter
G1 X40.050 Y74.425 F4800
G92 E0
G1 X41.574 Y74.425 E0.0844 F4200
G1 X40.568 Y75.299 E0.1582
G1 X40.050 Y76.087 E0.2104
G1 X40.050 Y74.425 E0.3023
G1 X40.050 Y79.572 F4800
G92 E0
G1 X40.826 Y80.575 E0.0702 F4200
G1 X40.050 Y80.575 E0.1131
G1 X40.050 Y79.572 E0.1686
G1 X45.974 Y80.575 F4800
G92 E0
G1 X46.441 Y79.972 E0.0422 F4200
G1 X46.632 Y79.632 E0.0638
G1 X46.770 Y79.940 E0.0825
G1 X47.274 Y80.575 E0.1274
G1 X45.974 Y80.575 E0.1993
G1 X46.644 Y75.925 F4800
G92 E0
G1 X46.229 Y75.295 E0.0417 F4200
G1 X45.212 Y74.425 E0.1159
G1 X48.034 Y74.425 E0.2721
G1 X47.215 Y75.067 E0.3297
G1 X46.644 Y75.925 E0.3868
G1 X51.766 Y74.425 F4800
G92 E0
G1 X54.432 Y74.425 E0.1476 F4200
G1 X53.647 Y75.065 E0.2036
G1 X53.121 Y75.872 E0.2569
G1 X52.585 Y75.067 E0.3105
G1 X51.766 Y74.425 E0.3681
G1 X53.116 Y79.833 F4800
G92 E0
G1 X53.723 Y80.575 E0.0531 F4200
G1 X52.526 Y80.575 E0.1193
G1 X53.116 Y79.833 E0.1719
G1 X59.077 Y80.575 F4800
G92 E0
G1 X59.617 Y79.915 E0.0472 F4200
G1 X60.170 Y80.575 E0.0949
G1 X59.078 Y80.575 E0.1554
G1 X59.620 Y75.782 F4800
G92 E0
G1 X59.153 Y75.065 E0.0474 F4200
G1 X58.368 Y74.425 E0.1034
G1 X60.832 Y74.425 E0.2399
G1 X60.080 Y75.065 E0.2945
G1 X59.620 Y75.782 E0.3417
G1 X64.968 Y74.425 F4800
G92 E0
G1 X67.221 Y74.425 E0.1248 F4200
G1 X66.508 Y75.071 E0.1780
G1 X66.120 Y75.689 E0.2184
G1 X65.720 Y75.065 E0.2595
G1 X64.968 Y74.425 E0.3142
G1 X66.118 Y79.993 F4800
G92 E0
G1 X66.618 Y80.575 E0.0425 F4200
G1 X65.630 Y80.575 E0.0972
G1 X66.118 Y79.993 E0.1392
G1 X72.182 Y80.575 F4800
G92 E0
G1 X72.950 Y79.682 E0.0652 F4200
G1 X72.950 Y80.575 E0.1146
G1 X72.182 Y80.575 E0.1571
G1 X72.950 Y76.118 F4800
G92 E0
G1 X72.291 Y75.071 E0.0685 F4200
G1 X71.579 Y74.425 E0.1218
G1 X72.950 Y74.425 E0.1977
G1 X72.950 Y76.118 E0.2914
G92 E0
G1 E-3.1000 F1800
; outer perimeter
G1 X66.495 Y77.062 F4800
G1 E0.0000 F1800
G92 E0
G1 X66.426 Y78.099 E0.0576 F4200
G1 X66.531 Y78.623 E0.0871
G1 X66.937 Y79.474 E0.1393
G1 X67.402 Y80.015 E0.1788
G1 X71.398 Y80.015 E0.4000
G1 X71.863 Y79.474 E0.4395
G1 X72.269 Y78.623 E0.4917
G1 X72.374 Y78.099 E0.5213
G1 X72.305 Y77.062 E0.5789
G1 X72.206 Y76.739 E0.5976
G1 X71.549 Y75.694 E0.6659
G1 X71.273 Y75.444 E0.6865
G1 X70.906 Y75.191 E0.7112
G1 X70.183 Y74.887 E0.7546
G1 X69.400 Y74.783 E0.7984
G1 X68.617 Y74.887 E0.8421
G1 X67.894 Y75.191 E0.8855
G1 X67.527 Y75.444 E0.9102
G1 X67.251 Y75.694 E0.9308
G1 X66.594 Y76.739 E0.9991
G1 X66.495 Y77.062 E1.0178
G92 E0
G1 E-3.1000 F1800
; inner perimeter
; inner perimeter
; outer perimeter
G1 X60.057 Y77.023 F4800
G1 E0.0000 F1800
G92 E0
G1 X59.976 Y78.095 E0.0595 F4200
G1 X60.059 Y78.538 E0.0845
G1 X60.491 Y79.463 E0.1410
G1 X60.870 Y79.915 E0.1737
G1 X64.930 Y79.915 E0.3985
G1 X65.309 Y79.463 E0.4311
G1 X65.741 Y78.538 E0.4876
G1 X65.824 Y78.095 E0.5126
G1 X65.743 Y77.023 E0.5721
G1 X65.653 Y76.739 E0.5886
G1 X64.989 Y75.703 E0.6567
G1 X64.611 Y75.382 E0.6842
G1 X63.666 Y74.934 E0.7421
G1 X62.900 Y74.833 E0.7849
G1 X62.134 Y74.934 E0.8276
G1 X61.189 Y75.382 E0.8855
G1 X60.811 Y75.703 E0.9130
G1 X60.147 Y76.739 E0.9811
G1 X60.057 Y77.023 E0.9976
G92 E0
G1 E-3.1000 F1800
; inner perimeter
; inner perimeter
; outer perimeter
G1 X53.619 Y76.985 F4800
G1 E0.0000 F1800
G92 E0
G1 X53.526 Y78.090 E0.0614 F4200
G1 X53.590 Y78.456 E0.0819
G1 X54.044 Y79.451 E0.1425
G1 X54.341 Y79.815 E0.1685
G1 X58.459 Y79.815 E0.3965
G1 X58.756 Y79.451 E0.4225
G1 X59.210 Y78.456 E0.4831
G1 X59.274 Y78.090 E0.5036
G1 X59.181 Y76.985 E0.5650
G1 X59.099 Y76.740 E0.5793
G1 X58.430 Y75.715 E0.6471
G1 X58.018 Y75.378 E0.6765
G1 X57.142 Y74.979 E0.7298
G1 X56.400 Y74.883 E0.7713
G1 X55.658 Y74.979 E0.8127
G1 X54.782 Y75.378 E0.8660
G1 X54.370 Y75.715 E0.8954
G1 X53.700 Y76.740 E0.9632
G1 X53.619 Y76.985 E0.9775
G92 E0
G1 E-3.1000 F1800
; inner perimeter
G1 X40.933 Y75.618 F4800
G1 E0.0000 F1800
G92 E0
G1 X40.464 Y76.331 E0.0473 F4200
G1 X40.338 Y76.621 E0.0647
G1 X40.151 Y77.361 E0.1070
G1 X40.148 Y78.168 E0.1517
G1 X40.359 Y78.994 E0.1989
G1 X40.756 Y79.701 E0.2438
G1 X41.061 Y80.095 E0.2713
G1 X45.739 Y80.095 E0.5303
G1 X46.040 Y79.706 E0.5576
G1 X46.441 Y78.994 E0.6028
G1 X46.598 Y78.376 E0.6381
G1 X47.183 Y79.689 E0.7177
G1 X47.585 Y80.195 E0.7535
G1 X52.215 Y80.195 E1.0098
G1 X52.617 Y79.689 E1.0456
