; G-Code generated by Simplify3D(R) Version 4.1.0
; Jul 12, 2019 at 2:24:01 PM
; Settings Summary
;   processName,general PLA - 0.6
;   applyToModels,kennel latch(2),Tusk Drill Jig,Short Fan Duct(2)
;   profileName,BortBot (modified)
;   profileVersion,2018-03-11 18:52:45
;   baseProfile,Default
;   printMaterial,PLA
;   printQuality,Medium
;   printExtruders,
;   extruderName,Extruder 1
;   extruderToolheadNumber,0
;   extruderDiameter,0.6
;   extruderAutoWidth,1
;   extruderWidth,0.72
;   extrusionMultiplier,1
;   extruderUseRetract,1
;   extruderRetractionDistance,2.5
;   extruderExtraRestartDistance,0
;   extruderRetractionZLift,0
;   extruderRetractionSpeed,2700
;   extruderUseCoasting,0
;   extruderCoastingDistance,1.4
;   extruderUseWipe,0
;   extruderWipeDistance,2
;   primaryExtruder,0
;   layerHeight,0.2
;   topSolidLayers,5
;   bottomSolidLayers,3
;   perimeterOutlines,3
;   printPerimetersInsideOut,0
;   startPointOption,3
;   startPointOriginX,100
;   startPointOriginY,185
;   sequentialIslands,0
;   spiralVaseMode,0
;   firstLayerHeightPercentage,100
;   firstLayerWidthPercentage,90
;   firstLayerUnderspeed,0.5
;   useRaft,0
;   raftExtruder,0
;   raftTopLayers,2
;   raftBaseLayers,2
;   raftOffset,3
;   raftSeparationDistance,0.3
;   raftTopInfill,90
;   aboveRaftSpeedMultiplier,0.3
;   useSkirt,1
;   skirtExtruder,0
;   skirtLayers,1
;   skirtOutlines,2
;   skirtOffset,2
;   usePrimePillar,0
;   primePillarExtruder,999
;   primePillarWidth,12
;   primePillarLocation,7
;   primePillarSpeedMultiplier,1
;   useOozeShield,0
;   oozeShieldExtruder,999
;   oozeShieldOffset,2
;   oozeShieldOutlines,1
;   oozeShieldSidewallShape,1
;   oozeShieldSidewallAngle,30
;   oozeShieldSpeedMultiplier,1
;   infillExtruder,0
;   internalInfillPattern,Rectilinear
;   externalInfillPattern,Rectilinear
;   infillPercentage,30
;   outlineOverlapPercentage,45
;   infillExtrusionWidthPercentage,100
;   minInfillLength,5
;   infillLayerInterval,1
;   internalInfillAngles,45,-45
;   overlapInternalInfillAngles,0
;   externalInfillAngles,45,-45
;   generateSupport,1
;   supportExtruder,0
;   supportInfillPercentage,25
;   supportExtraInflation,0.6
;   supportBaseLayers,1
;   denseSupportExtruder,0
;   denseSupportLayers,3
;   denseSupportInfillPercentage,80
;   supportLayerInterval,1
;   supportHorizontalPartOffset,0.5
;   supportUpperSeparationLayers,1
;   supportLowerSeparationLayers,1
;   supportType,0
;   supportGridSpacing,1
;   maxOverhangAngle,50
;   supportAngles,0
;   temperatureName,Extruder 1,Heated Bed
;   temperatureNumber,0,1
;   temperatureSetpointCount,1,1
;   temperatureSetpointLayers,1,1
;   temperatureSetpointTemperatures,215,45
;   temperatureStabilizeAtStartup,1,1
;   temperatureHeatedBed,0,1
;   fanLayers,1,3
;   fanSpeeds,0,80
;   blipFanToFullPower,1
;   adjustSpeedForCooling,0
;   minSpeedLayerTime,15
;   minCoolingSpeedSlowdown,20
;   increaseFanForCooling,1
;   minFanLayerTime,45
;   maxCoolingFanSpeed,100
;   increaseFanForBridging,1
;   bridgingFanSpeed,100
;   use5D,1
;   relativeEdistances,0
;   allowEaxisZeroing,1
;   independentExtruderAxes,0
;   includeM10123,0
;   stickySupport,1
;   applyToolheadOffsets,0
;   gcodeXoffset,0
;   gcodeYoffset,0
;   gcodeZoffset,0
;   overrideMachineDefinition,0
;   machineTypeOverride,0
;   strokeXoverride,100
;   strokeYoverride,100
;   strokeZoverride,100
;   originOffsetXoverride,0
;   originOffsetYoverride,0
;   originOffsetZoverride,0
;   homeXdirOverride,-1
;   homeYdirOverride,-1
;   homeZdirOverride,-1
;   flipXoverride,1
;   flipYoverride,-1
;   flipZoverride,1
;   toolheadOffsets,0,0|0,0|0,0|0,0|0,0|0,0
;   overrideFirmwareConfiguration,0
;   firmwareTypeOverride,RepRap (Marlin/Repetier/Sprinter)
;   GPXconfigOverride,r2
;   baudRateOverride,115200
;   overridePrinterModels,0
;   printerModelsOverride
;   startingGcode,G11 S1; Unretract,;G28 XY ; HOME XY,;M561 ; Clear any bed transform,G1 X100 Y80 Z25; move to center of bed,G30 ;Do a single Z probe,G29 S1 ; Load bed compensating height map,;G1 Z10; ,M572 D0 S0.15,
;   layerChangeGcode,
;   retractionGcode,
;   toolChangeGcode,
;   endingGcode,G10 S1; retract filament to relieve pressure,M104 S0 ; turn off extruder,M140 S0 ; turn off bed,G91 G1 Z10 ; Clearance from part,G90 G1 X0 Y0 ; Go to starting position (X0 Y0 Z300),M84 ; disable motor,M107; Turn off fan
;   exportFileFormat,gcode
;   celebration,0
;   celebrationSong,Random Song
;   postProcessing,
;   defaultSpeed,3000
;   outlineUnderspeed,0.8
;   solidInfillUnderspeed,1
;   supportUnderspeed,1
;   rapidXYspeed,3600
;   rapidZspeed,1800
;   minBridgingArea,10
;   bridgingExtraInflation,5
;   bridgingExtrusionMultiplier,0.9
;   bridgingSpeedMultiplier,0.6
;   useFixedBridgingAngle,0
;   fixedBridgingAngle,0
;   applyBridgingToPerimeters,1
;   filamentDiameters,1.75|1.75|1.75|1.75|1.75|1.75
;   filamentPricesPerKg,20|46|46|46|46|46
;   filamentDensities,1.33|1.25|1.25|1.25|1.25|1.25
;   useMinPrintHeight,0
;   minPrintHeight,50
;   useMaxPrintHeight,0
;   maxPrintHeight,23
;   useDiaphragm,0
;   diaphragmLayerInterval,20
;   robustSlicing,1
;   mergeAllIntoSolid,0
;   onlyRetractWhenCrossingOutline,0
;   retractBetweenLayers,0
;   useRetractionMinTravel,0
;   retractionMinTravel,3
;   retractWhileWiping,0
;   onlyWipeOutlines,0
;   avoidCrossingOutline,1
;   maxMovementDetourFactor,5
;   toolChangeRetractionDistance,12
;   toolChangeExtraRestartDistance,-0.5
;   toolChangeRetractionSpeed,600
;   externalThinWallType,1
;   internalThinWallType,1
;   thinWallAllowedOverlapPercentage,30
;   singleExtrusionMinLength,1
;   singleExtrusionMinPrintingWidthPercentage,75
;   singleExtrusionMaxPrintingWidthPercentage,150
;   singleExtrusionEndpointExtension,0.5
;   horizontalSizeCompensation,0
G90
M82
M106 S0
M140 S45
M190 S45
M104 S215 T0
M109 S215 T0
G11 S1; Unretract
;G28 XY ; HOME XY
;M561 ; Clear any bed transform
G1 X100 Y80 Z25; move to center of bed
G30 ;Do a single Z probe
G29 S1 ; Load bed compensating height map
;G1 Z10; 
M572 D0 S0.15
; process general PLA - 0.6
; layer 1, Z = 0.200
T0
; feature skirt
; tool H0.200 W0.648
G1 Z0.200 F1800
G1 X87.731 Y120.472 F3600
G92 E0.0000
G1 X67.269 Y120.472 E1.1025 F1500
G1 X65.528 Y118.731 E1.2352
G1 X65.528 Y104.762 E1.9878
G1 X65.531 Y104.668 E1.9929
G1 X65.595 Y103.658 E2.0475
G1 X65.613 Y103.502 E2.0559
G1 X65.737 Y102.780 E2.0954
G1 X65.763 Y102.657 E2.1022
G1 X65.943 Y101.963 E2.1408
G1 X65.979 Y101.843 E2.1476
G1 X66.028 Y101.704 E2.1555
G1 X66.028 Y89.269 E2.8255
G1 X67.769 Y87.528 E2.9582
G1 X71.528 Y87.528 E3.1607
G1 X71.528 Y77.472 E3.7025
G1 X67.769 Y77.472 E3.9051
G1 X66.028 Y75.731 E4.0377
G1 X66.028 Y61.269 E4.8170
G1 X67.769 Y59.528 E4.9496
G1 X87.731 Y59.528 E6.0252
G1 X89.472 Y61.269 E6.1579
G1 X89.472 Y63.739 E6.2910
G1 X89.478 Y63.726 E6.2918
G1 X89.560 Y63.575 E6.3010
G1 X89.884 Y63.051 E6.3342
G1 X89.962 Y62.938 E6.3416
G1 X90.323 Y62.460 E6.3739
G1 X90.411 Y62.354 E6.3813
G1 X90.814 Y61.911 E6.4136
G1 X90.912 Y61.814 E6.4210
G1 X91.354 Y61.411 E6.4533
G1 X91.460 Y61.323 E6.4607
G1 X91.938 Y60.962 E6.4929
G1 X92.051 Y60.884 E6.5003
G1 X92.561 Y60.569 E6.5326
G1 X92.681 Y60.502 E6.5400
G1 X93.217 Y60.235 E6.5723
G1 X93.343 Y60.180 E6.5797
G1 X93.917 Y59.957 E6.6129
G1 X94.081 Y59.904 E6.6222
G1 X94.917 Y59.687 E6.6687
G1 X95.086 Y59.653 E6.6780
G1 X95.696 Y59.568 E6.7112
G1 X95.833 Y59.556 E6.7186
G1 X96.397 Y59.530 E6.7490
G1 X96.466 Y59.528 E6.7527
G1 X105.569 Y59.528 E7.2432
G1 X105.706 Y59.534 E7.2506
G1 X106.296 Y59.589 E7.2825
G1 X106.599 Y59.649 E7.2992
G1 X107.351 Y59.882 E7.3416
G1 X107.665 Y60.021 E7.3601
G1 X108.374 Y60.437 E7.4044
G1 X108.673 Y60.669 E7.4248
G1 X109.331 Y61.327 E7.4749
G1 X109.563 Y61.626 E7.4953
G1 X109.970 Y62.320 E7.5387
G1 X110.098 Y62.601 E7.5553
G1 X110.308 Y63.228 E7.5909
G1 X110.371 Y63.495 E7.6057
G1 X110.456 Y64.099 E7.6386
G1 X110.470 Y64.305 E7.6497
G1 X110.470 Y65.713 E7.7256
G1 X110.450 Y65.952 E7.7385
G1 X110.329 Y66.695 E7.7791
G1 X110.235 Y67.026 E7.7976
G1 X109.927 Y67.769 E7.8409
G1 X109.760 Y68.070 E7.8595
G1 X109.290 Y68.723 E7.9028
G1 X109.059 Y68.977 E7.9213
G1 X108.465 Y69.493 E7.9638
G1 X108.212 Y69.671 E7.9804
G1 X107.649 Y69.984 E8.0151
G1 X107.430 Y70.084 E8.0281
G1 X106.944 Y70.260 E8.0559
G1 X106.712 Y70.323 E8.0689
G1 X106.099 Y70.437 E8.1025
G1 X105.832 Y70.463 E8.1169
G1 X104.472 Y70.469 E8.1902
G1 X104.473 Y74.527 E8.4088
G1 X116.534 Y74.528 E9.0588
G1 X116.603 Y74.530 E9.0624
G1 X117.184 Y74.556 E9.0938
G1 X117.355 Y74.574 E9.1031
G1 X118.208 Y74.713 E9.1496
G1 X118.375 Y74.751 E9.1589
G1 X118.968 Y74.919 E9.1921
G1 X119.098 Y74.963 E9.1995
G1 X119.657 Y75.180 E9.2318
G1 X119.783 Y75.235 E9.2392
G1 X120.319 Y75.502 E9.2714
G1 X120.439 Y75.569 E9.2788
G1 X120.949 Y75.884 E9.3111
G1 X121.062 Y75.962 E9.3185
G1 X121.540 Y76.323 E9.3508
G1 X121.646 Y76.411 E9.3582
G1 X122.101 Y76.826 E9.3914
G1 X122.221 Y76.949 E9.4007
G1 X122.788 Y77.601 E9.4472
G1 X122.893 Y77.736 E9.4565
G1 X123.242 Y78.245 E9.4897
G1 X123.314 Y78.362 E9.4971
G1 X123.606 Y78.885 E9.5294
G1 X123.667 Y79.008 E9.5368
G1 X123.909 Y79.556 E9.5691
G1 X123.958 Y79.684 E9.5765
G1 X124.149 Y80.252 E9.6087
G1 X124.186 Y80.384 E9.6161
G1 X124.324 Y80.968 E9.6484
G1 X124.349 Y81.103 E9.6558
G1 X124.432 Y81.696 E9.6881
G1 X124.444 Y81.833 E9.6955
G1 X124.472 Y82.431 E9.7278
G1 X124.472 Y82.569 E9.7352
G1 X124.444 Y83.167 E9.7675
G1 X124.432 Y83.304 E9.7749
G1 X124.346 Y83.914 E9.8081
G1 X124.313 Y84.083 E9.8173
G1 X124.096 Y84.919 E9.8639
G1 X124.043 Y85.083 E9.8731
G1 X123.814 Y85.673 E9.9073
G1 X123.743 Y85.829 E9.9165
G1 X123.332 Y86.609 E9.9640
G1 X123.224 Y86.784 E9.9751
G1 X122.709 Y87.500 E10.0226
G1 X122.601 Y87.633 E10.0318
G1 X122.186 Y88.089 E10.0651
G1 X122.088 Y88.186 E10.0725
G1 X121.633 Y88.601 E10.1057
G1 X121.500 Y88.709 E10.1149
G1 X120.798 Y89.214 E10.1615
G1 X120.653 Y89.306 E10.1707
G1 X120.254 Y89.528 E10.1953
G1 X132.731 Y89.528 E10.8676
G1 X134.472 Y91.269 E11.0003
G1 X134.472 Y103.731 E11.6717
G1 X132.731 Y105.472 E11.8044
G1 X90.269 Y105.472 E14.0923
G1 X89.472 Y104.675 E14.1530
G1 X89.472 Y118.731 E14.9104
G1 X87.731 Y120.472 E15.0431
G92 E0.0000
G1 E-2.5000 F2700
G1 X87.463 Y119.824 F3600
G1 E0.0000 F2700
G92 E0.0000
G1 X67.537 Y119.824 E1.0736 F1500
G1 X66.176 Y118.463 E1.1773
G1 X66.176 Y104.773 E1.9150
G1 X66.178 Y104.699 E1.9190
G1 X66.241 Y103.716 E1.9720
G1 X66.255 Y103.594 E1.9786
G1 X66.373 Y102.902 E2.0164
G1 X66.394 Y102.806 E2.0217
G1 X66.566 Y102.139 E2.0589
G1 X66.595 Y102.045 E2.0642
G1 X66.676 Y101.815 E2.0773
G1 X66.676 Y89.537 E2.7388
G1 X68.037 Y88.176 E2.8426
G1 X72.176 Y88.176 E3.0656
G1 X72.176 Y76.824 E3.6772
G1 X68.037 Y76.824 E3.9002
G1 X66.676 Y75.463 E4.0040
G1 X66.676 Y61.537 E4.7543
G1 X68.037 Y60.176 E4.8580
G1 X87.463 Y60.176 E5.9047
G1 X88.824 Y61.537 E6.0084
G1 X88.824 Y64.259 E6.1550
G1 X89.838 Y64.485 E6.2110
G1 X90.057 Y64.019 E6.2388
G1 X90.121 Y63.901 E6.2460
G1 X90.427 Y63.405 E6.2774
G1 X90.488 Y63.317 E6.2832
G1 X90.831 Y62.862 E6.3138
G1 X90.900 Y62.780 E6.3196
G1 X91.283 Y62.359 E6.3503
G1 X91.359 Y62.283 E6.3561
G1 X91.780 Y61.900 E6.3868
G1 X91.862 Y61.831 E6.3925
G1 X92.317 Y61.488 E6.4232
G1 X92.405 Y61.427 E6.4290
G1 X92.889 Y61.128 E6.4597
G1 X92.983 Y61.075 E6.4654
G1 X93.493 Y60.822 E6.4961
G1 X93.591 Y60.778 E6.5019
G1 X94.134 Y60.568 E6.5333
G1 X94.262 Y60.527 E6.5405
G1 X95.062 Y60.319 E6.5851
G1 X95.194 Y60.293 E6.5923
G1 X95.771 Y60.212 E6.6237
G1 X95.878 Y60.202 E6.6295
G1 X96.419 Y60.177 E6.6587
G1 X96.473 Y60.176 E6.6616
G1 X105.554 Y60.176 E7.1509
G1 X105.661 Y60.181 E7.1567
G1 X106.202 Y60.231 E7.1860
G1 X106.439 Y60.278 E7.1990
G1 X107.124 Y60.490 E7.2376
G1 X107.369 Y60.599 E7.2521
G1 X108.010 Y60.975 E7.2921
G1 X108.244 Y61.156 E7.3080
G1 X108.844 Y61.756 E7.3537
G1 X109.025 Y61.990 E7.3697
G1 X109.394 Y62.619 E7.4090
G1 X109.495 Y62.839 E7.4220
G1 X109.685 Y63.405 E7.4542
G1 X109.734 Y63.615 E7.4658
G1 X109.811 Y64.166 E7.4958
G1 X109.822 Y64.327 E7.5045
G1 X109.822 Y65.686 E7.5777
G1 X109.807 Y65.874 E7.5878
G1 X109.696 Y66.554 E7.6250
G1 X109.622 Y66.813 E7.6395
G1 X109.343 Y67.487 E7.6788
G1 X109.212 Y67.722 E7.6933
G1 X108.786 Y68.314 E7.7326
G1 X108.605 Y68.512 E7.7471
G1 X108.065 Y68.983 E7.7857
G1 X107.867 Y69.121 E7.7987
G1 X107.357 Y69.406 E7.8301
G1 X107.186 Y69.484 E7.8403
G1 X106.748 Y69.641 E7.8653
G1 X106.567 Y69.691 E7.8755
G1 X106.009 Y69.795 E7.9060
G1 X105.800 Y69.815 E7.9173
G1 X103.824 Y69.824 E8.0238
G1 X103.825 Y75.175 E8.3121
G1 X116.527 Y75.176 E8.9965
G1 X116.581 Y75.177 E8.9994
G1 X117.136 Y75.203 E9.0294
G1 X117.269 Y75.217 E9.0366
G1 X118.085 Y75.350 E9.0811
G1 X118.216 Y75.379 E9.0884
G1 X118.776 Y75.539 E9.1198
G1 X118.878 Y75.573 E9.1256
G1 X119.409 Y75.778 E9.1562
G1 X119.507 Y75.822 E9.1620
G1 X120.017 Y76.076 E9.1927
G1 X120.111 Y76.128 E9.1985
G1 X120.595 Y76.427 E9.2291
G1 X120.683 Y76.488 E9.2349
G1 X121.137 Y76.831 E9.2656
G1 X121.220 Y76.900 E9.2714
G1 X121.651 Y77.292 E9.3028
G1 X121.745 Y77.388 E9.3100
G1 X122.287 Y78.012 E9.3546
G1 X122.369 Y78.118 E9.3618
G1 X122.699 Y78.599 E9.3932
G1 X122.755 Y78.690 E9.3990
G1 X123.032 Y79.187 E9.4296
G1 X123.080 Y79.284 E9.4354
G1 X123.310 Y79.804 E9.4661
G1 X123.349 Y79.904 E9.4719
G1 X123.530 Y80.444 E9.5026
G1 X123.559 Y80.547 E9.5083
G1 X123.689 Y81.101 E9.5390
G1 X123.709 Y81.207 E9.5448
G1 X123.788 Y81.771 E9.5754
G1 X123.798 Y81.878 E9.5812
G1 X123.824 Y82.446 E9.6119
G1 X123.824 Y82.554 E9.6177
G1 X123.798 Y83.122 E9.6484
G1 X123.788 Y83.229 E9.6542
G1 X123.707 Y83.806 E9.6856
G1 X123.681 Y83.938 E9.6928
G1 X123.473 Y84.738 E9.7373
G1 X123.432 Y84.866 E9.7446
G1 X123.217 Y85.422 E9.7767
G1 X123.161 Y85.544 E9.7839
G1 X122.769 Y86.287 E9.8292
G1 X122.685 Y86.424 E9.8379
G1 X122.194 Y87.106 E9.8831
G1 X122.109 Y87.210 E9.8904
G1 X121.717 Y87.641 E9.9218
G1 X121.641 Y87.717 E9.9275
G1 X121.210 Y88.109 E9.9589
G1 X121.106 Y88.194 E9.9662
G1 X120.435 Y88.677 E10.0107
G1 X120.322 Y88.749 E10.0180
G1 X119.501 Y89.206 E10.0686
G1 X119.753 Y90.176 E10.1226
G1 X132.463 Y90.176 E10.8074
G1 X133.824 Y91.537 E10.9111
G1 X133.824 Y103.463 E11.5537
G1 X132.463 Y104.824 E11.6574
G1 X90.537 Y104.824 E13.9164
G1 X88.824 Y103.111 E14.0470
G1 X88.824 Y118.463 E14.8741
G1 X87.463 Y119.824 E14.9779
G92 E0.0000
G1 E-2.5000 F2700
; feature outer perimeter
G1 X86.176 Y117.176 F3600
G1 E0.0000 F2700
G92 E0.0000
G1 X68.824 Y117.176 E0.9350 F1200
G1 X68.824 Y104.816 E1.6009
G1 X68.848 Y104.244 E1.6318
G1 X68.877 Y103.969 E1.6467
G1 X68.973 Y103.410 E1.6772
G1 X69.114 Y102.864 E1.7076
G1 X69.324 Y102.267 E1.7417
G1 X69.324 Y90.824 E2.3583
G1 X74.824 Y90.824 E2.6546
G1 X74.824 Y74.176 E3.5516
G1 X69.324 Y74.176 E3.8480
G1 X69.324 Y62.824 E4.4597
G1 X86.176 Y62.824 E5.3677
G1 X86.176 Y117.176 E8.2962
G92 E0.0000
G1 E-2.5000 F2700
; feature inner perimeter
G1 X85.528 Y116.528 F3600
G1 E0.0000 F2700
G92 E0.0000
G1 X69.472 Y116.528 E0.8651 F1350
G1 X69.472 Y104.830 E1.4954
G1 X69.495 Y104.292 E1.5244
G1 X69.520 Y104.057 E1.5372
G1 X69.607 Y103.546 E1.5651
G1 X69.735 Y103.053 E1.5926
G1 X69.972 Y102.377 E1.6311
G1 X69.972 Y91.472 E2.2187
G1 X75.472 Y91.472 E2.5151
G1 X75.472 Y73.528 E3.4819
G1 X69.972 Y73.528 E3.7783
G1 X69.972 Y63.472 E4.3201
G1 X85.528 Y63.472 E5.1583
G1 X85.528 Y116.528 E8.0170
G92 E0.0000
G1 E-2.5000 F2700
G1 X84.880 Y115.880 F3600
G1 E0.0000 F2700
G92 E0.0000
G1 X70.120 Y115.880 E0.7953 F1350
G1 X70.120 Y104.843 E1.3900
G1 X70.141 Y104.340 E1.4171
G1 X70.162 Y104.146 E1.4276
G1 X70.241 Y103.682 E1.4530
G1 X70.355 Y103.242 E1.4775
G1 X70.620 Y102.488 E1.5205
G1 X70.620 Y92.120 E2.0792
G1 X76.120 Y92.120 E2.3755
G1 X76.120 Y72.880 E3.4122
G1 X70.620 Y72.880 E3.7085
G1 X70.620 Y64.120 E4.1806
G1 X84.880 Y64.120 E4.9489
G1 X84.880 Y115.880 E7.7378
G92 E0.0000
G1 E-2.5000 F2700
; feature solid layer
G1 X70.539 Y115.524 F3600
G1 E0.0000 F2700
G92 E0.0000
G1 X70.476 Y115.461 E0.0048 F1500
G1 X70.476 Y114.545 E0.0541
G1 X71.455 Y115.524 E0.1287
G1 X72.372 Y115.524 E0.1781
G1 X70.476 Y113.628 E0.3226
G1 X70.476 Y112.712 E0.3719
G1 X73.288 Y115.524 E0.5862
G1 X74.205 Y115.524 E0.6356
