; G-Code generated by Simplify3D(R) Version 3.1.1
; Apr 23, 2017 at 5:03:14 PM
; Settings Summary
;   processName,normal (clear)
;   applyToModels,z end stop trigger,X end stop trigger,Y end stop trigger
;   profileName,Default (modified)
;   profileVersion,2015-07-02 16:19:25
;   baseProfile,normal (modified)
;   printMaterial,PLA
;   printQuality,Fast
;   printExtruders,
;   extruderName,Extruder 1
;   extruderToolheadNumber,0
;   extruderDiameter,0.4
;   extruderAutoWidth,1
;   extruderWidth,0.48
;   extrusionMultiplier,1
;   extruderUseRetract,1
;   extruderRetractionDistance,3.1
;   extruderExtraRestartDistance,0
;   extruderRetractionZLift,0
;   extruderRetractionSpeed,1800
;   extruderUseCoasting,0
;   extruderCoastingDistance,0.2
;   extruderUseWipe,0
;   extruderWipeDistance,5
;   primaryExtruder,0
;   layerHeight,0.3
;   topSolidLayers,2
;   bottomSolidLayers,2
;   perimeterOutlines,2
;   printPerimetersInsideOut,1
;   startPointOption,2
;   startPointOriginX,0
;   startPointOriginY,0
;   startPointOriginZ,300
;   sequentialIslands,0
;   spiralVaseMode,0
;   firstLayerHeightPercentage,100
;   firstLayerWidthPercentage,105
;   firstLayerUnderspeed,0.4
;   useRaft,1
;   raftExtruder,0
;   raftLayers,1
;   raftOffset,0.6
;   raftSeparationDistance,0.24
;   raftInfill,75
;   disableRaftBaseLayers,0
;   useSkirt,1
;   skirtExtruder,0
;   skirtLayers,1
;   skirtOutlines,1
;   skirtOffset,5
;   usePrimePillar,0
;   primePillarExtruder,999
;   primePillarWidth,12
;   primePillarLocation,7
;   primePillarSpeedMultiplier,1
;   useOozeShield,0
;   oozeShieldExtruder,999
;   oozeShieldOffset,2
;   oozeShieldOutlines,1
;   oozeShieldSidewallShape,1
;   oozeShieldSidewallAngle,30
;   oozeShieldSpeedMultiplier,1
;   infillExtruder,0
;   internalInfillPattern,Rectilinear
;   externalInfillPattern,Rectilinear
;   infillPercentage,30
;   outlineOverlapPercentage,15
;   infillExtrusionWidthPercentage,100
;   minInfillLength,5
;   infillLayerInterval,1
;   infillAngles,45,-45
;   overlapInfillAngles,0
;   generateSupport,0
;   supportExtruder,0
;   supportInfillPercentage,30
;   supportExtraInflation,0.2
;   denseSupportLayers,2
;   denseSupportInfillPercentage,80
;   supportLayerInterval,1
;   supportHorizontalPartOffset,0.3
;   supportUpperSeparationLayers,1
;   supportLowerSeparationLayers,1
;   supportType,0
;   supportGridSpacing,1.5
;   maxOverhangAngle,40
;   supportAngles,0
;   temperatureName,Extruder 1 Temperature
;   temperatureNumber,0
;   temperatureSetpointCount,1
;   temperatureSetpointLayers,1
;   temperatureSetpointTemperatures,205
;   temperatureStabilizeAtStartup,1
;   temperatureHeatedBed,0
;   temperatureRelayBetweenLayers,1
;   temperatureRelayBetweenLoops,0
;   fanLayers,1
;   fanSpeeds,0
;   blipFanToFullPower,0
;   adjustSpeedForCooling,1
;   minSpeedLayerTime,20
;   minCoolingSpeedSlowdown,20
;   increaseFanForCooling,0
;   minFanLayerTime,45
;   maxCoolingFanSpeed,100
;   increaseFanForBridging,0
;   bridgingFanSpeed,100
;   use5D,1
;   relativeEdistances,0
;   allowEaxisZeroing,1
;   independentExtruderAxes,0
;   includeM10123,0
;   stickySupport,1
;   applyToolheadOffsets,0
;   gcodeXoffset,0
;   gcodeYoffset,0
;   gcodeZoffset,0
;   overrideMachineDefinition,0
;   machineTypeOverride,0
;   strokeXoverride,113
;   strokeYoverride,187
;   strokeZoverride,100
;   originOffsetXoverride,0
;   originOffsetYoverride,0
;   originOffsetZoverride,0
;   homeXdirOverride,-1
;   homeYdirOverride,-1
;   homeZdirOverride,-1
;   flipXoverride,1
;   flipYoverride,-1
;   flipZoverride,1
;   toolheadOffsets,0,0|0,0|0,0|0,0|0,0|0,0
;   overrideFirmwareConfiguration,1
;   firmwareTypeOverride,RepRap (Marlin/Repetier/Sprinter)
;   GPXconfigOverride,r2
;   baudRateOverride,115200
;   overridePrinterModels,0
;   printerModelsOverride
;   startingGcode,G92 X0 Y0 ; zero X and Y axes,G28 Z; GO TO HOME ON Z
;   layerChangeGcode,
;   retractionGcode,
;   toolChangeGcode,
;   endingGcode,M104 S0 ; turn off extruder,M140 S0 ; turn off bed,G91 ; set to incrimental,G1 Z10 F5000 ; lift nozzle,G90 ; Absolute Positioning,G1 X0 ; move X to left,M84 ; disable motors
;   exportFileFormat,gcode
;   celebration,0
;   celebrationSong,Random Song
;   postProcessing,
;   defaultSpeed,4200
;   outlineUnderspeed,1
;   solidInfillUnderspeed,0.9
;   supportUnderspeed,0.75
;   rapidXYspeed,4800
;   rapidZspeed,1002
;   minBridgingArea,50
;   bridgingExtraInflation,0
;   bridgingExtrusionMultiplier,1
;   bridgingSpeedMultiplier,1
;   filamentDiameter,1.7
;   filamentPricePerKg,27
;   filamentDensity,1.25
;   useMinPrintHeight,0
;   minPrintHeight,0
;   useMaxPrintHeight,0
;   maxPrintHeight,10
;   useDiaphragm,0
;   diaphragmLayerInterval,20
;   robustSlicing,1
;   mergeAllIntoSolid,0
;   onlyRetractWhenCrossingOutline,1
;   retractBetweenLayers,0
;   useRetractionMinTravel,0
;   retractionMinTravel,3
;   retractWhileWiping,0
;   onlyWipeOutlines,1
;   avoidCrossingOutline,0
;   maxMovementDetourFactor,3
;   toolChangeRetractionDistance,12
;   toolChangeExtraRestartDistance,-0.5
;   toolChangeRetractionSpeed,600
;   allowThinWallGapFill,1
;   thinWallAllowedOverlapPercentage,15
;   horizontalSizeCompensation,0
G90
M82
M106 S0
M104 S205 T0
M109 S205 T0
G92 X0 Y0 ; zero X and Y axes
G28 Z; GO TO HOME ON Z
G92 E0
G1 E-3.1000 F1800
G1 Z0.500 F1002
; layer 1, Z = 0.5
M105
T0
; tool H0.500 W0.504
; skirt
G1 X23.131 Y100.628 F4800
G1 E0.0000 F540
G92 E0
G1 X23.177 Y100.619 E0.0052 F1680
G1 X37.367 Y100.619 E1.5807
G1 X37.414 Y100.628 E1.5859
G1 X37.519 Y100.671 E1.5985
G1 X74.715 Y100.671 E5.7282
G1 X77.401 Y97.986 E6.1498
G1 X77.440 Y97.960 E6.1551
G1 X79.321 Y97.181 E6.3812
G1 X79.368 Y97.171 E6.3864
G1 X93.558 Y97.171 E7.9619
G1 X93.604 Y97.181 E7.9671
G1 X95.486 Y97.960 E8.1932
G1 X95.525 Y97.986 E8.1985
G1 X98.488 Y100.949 E8.6637
G1 X98.514 Y100.988 E8.6689
G1 X99.294 Y102.870 E8.8950
G1 X99.303 Y102.916 E8.9003
G1 X99.303 Y111.941 E9.9022
G1 X99.331 Y112.010 E9.9105
G1 X99.341 Y112.056 E9.9157
G1 X99.341 Y124.246 E11.2691
G1 X99.331 Y124.293 E11.2744
G1 X98.552 Y126.174 E11.5005
G1 X98.526 Y126.213 E11.5057
G1 X95.563 Y129.176 E11.9709
G1 X95.523 Y129.203 E11.9762
G1 X93.642 Y129.982 E12.2023
G1 X93.596 Y129.991 E12.2075
G1 X79.405 Y129.991 E13.7830
G1 X79.359 Y129.982 E13.7882
G1 X77.478 Y129.203 E14.0143
G1 X77.438 Y129.176 E14.0196
G1 X74.753 Y126.491 E14.4412
G1 X14.405 Y126.491 E21.1412
G1 X14.359 Y126.482 E21.1464
G1 X12.478 Y125.703 E21.3725
G1 X12.438 Y125.676 E21.3777
G1 X9.475 Y122.713 E21.8430
G1 X9.449 Y122.674 E21.8482
G1 X8.670 Y120.793 E22.0743
G1 X8.660 Y120.746 E22.0795
G1 X8.660 Y115.556 E22.6558
G1 X8.670 Y115.510 E22.6610
G1 X9.449 Y113.628 E22.8871
G1 X9.475 Y113.589 E22.8924
G1 X12.438 Y110.626 E23.3576
G1 X12.478 Y110.600 E23.3628
G1 X14.359 Y109.820 E23.5889
G1 X14.405 Y109.811 E23.5942
G1 X17.432 Y109.811 E23.9302
G1 X17.432 Y106.364 E24.3130
G1 X17.442 Y106.317 E24.3183
G1 X18.221 Y104.436 E24.5443
G1 X18.247 Y104.396 E24.5496
G1 X21.210 Y101.433 E25.0148
G1 X21.249 Y101.407 E25.0201
G1 X23.131 Y100.628 E25.2462
; tool H0.500 W0.840
; raft
G1 X24.361 Y106.259 F4800
G92 E0
G1 X36.184 Y106.259 E2.1876 F420
G1 X36.236 Y106.311 E2.2014
G1 X79.263 Y106.311 E10.1630
G1 X79.263 Y104.100 E10.5721
G1 X80.552 Y102.811 E10.9094
G1 X92.374 Y102.811 E13.0970
G1 X93.663 Y104.100 E13.4342
G1 X93.663 Y113.202 E15.1185
G1 X93.701 Y113.240 E15.1284
G1 X93.701 Y123.062 E16.9459
G1 X92.412 Y124.351 E17.2831
G1 X80.589 Y124.351 E19.4708
G1 X79.300 Y123.062 E19.8080
G1 X79.300 Y120.851 E20.2172
G1 X15.589 Y120.851 E32.0062
G1 X14.300 Y119.562 E32.3434
G1 X14.300 Y116.740 E32.8657
G1 X15.589 Y115.451 E33.2030
G1 X23.072 Y115.451 E34.5876
G1 X23.072 Y107.547 E36.0501
G1 X24.361 Y106.259 E36.3874
G1 X80.063 Y104.438 F4800
G92 E0
G1 X92.863 Y104.438 E2.3685 F420
G1 X92.863 Y106.724 E2.7914
G1 X80.063 Y106.724 E5.1599
G1 X80.063 Y107.111 E5.2316
G1 X35.905 Y107.111 E13.4025
G1 X35.852 Y107.059 E13.4163
G1 X24.692 Y107.059 E15.4813
G1 X23.872 Y107.879 E15.6959
G1 X23.872 Y109.010 E15.9051
G1 X92.863 Y109.010 E28.6710
G1 X92.863 Y111.296 E29.0940
G1 X23.872 Y111.296 E41.8599
G1 X23.872 Y113.581 E42.2828
G1 X92.900 Y113.581 E55.0557
G1 X92.900 Y115.867 E55.4786
G1 X23.872 Y115.867 E68.2515
G1 X23.872 Y116.251 E68.3226
G1 X15.921 Y116.251 E69.7940
G1 X15.100 Y117.071 E70.0086
G1 X15.100 Y118.153 E70.2087
G1 X92.900 Y118.153 E84.6046
G1 X92.900 Y120.438 E85.0276
G1 X80.100 Y120.438 E87.3961
G1 X80.100 Y122.724 E87.8190
G1 X92.900 Y122.724 E90.1875
; layer 2, Z = 1
M105
; tool H0.500 W0.800
; raft
G1 X93.701 Y123.062 F4800
G1 Z1.000 F1002
G92 E0
G1 X92.412 Y124.351 E0.3212 F1050
G1 X80.589 Y124.351 E2.4046
G1 X79.300 Y123.062 E2.7258
G1 X79.300 Y120.851 E3.1155
G1 X15.589 Y120.851 E14.3431
G1 X14.300 Y119.562 E14.6643
G1 X14.300 Y116.740 E15.1617
G1 X15.589 Y115.451 E15.4829
G1 X23.072 Y115.451 E16.8016
G1 X23.072 Y107.547 E18.1945
G1 X24.361 Y106.259 E18.5157
G1 X36.184 Y106.259 E20.5991
G1 X36.236 Y106.311 E20.6122
G1 X79.263 Y106.311 E28.1947
G1 X79.263 Y104.100 E28.5844
G1 X80.552 Y102.811 E28.9055
G1 X92.374 Y102.811 E30.9890
G1 X93.663 Y104.100 E31.3102
G1 X93.663 Y113.202 E32.9142
G1 X93.701 Y113.240 E32.9236
G1 X93.701 Y123.062 E34.6546
G1 X92.900 Y122.724 F4800
G92 E0
G1 X80.100 Y122.724 E2.2557 F1050
G1 X80.100 Y120.438 E2.6585
G1 X92.900 Y120.438 E4.9142
G1 X92.900 Y118.153 E5.3170
G1 X15.100 Y118.153 E19.0275
G1 X15.100 Y117.071 E19.2181
G1 X15.921 Y116.251 E19.4224
G1 X23.872 Y116.251 E20.8237
G1 X23.872 Y115.867 E20.8915
G1 X92.900 Y115.867 E33.0561
G1 X92.900 Y113.581 E33.4589
G1 X23.872 Y113.581 E45.6235
G1 X23.872 Y111.296 E46.0263
G1 X92.863 Y111.296 E58.1843
G1 X92.863 Y109.010 E58.5871
G1 X23.872 Y109.010 E70.7451
G1 X23.872 Y107.879 E70.9444
G1 X24.692 Y107.059 E71.1488
G1 X35.852 Y107.059 E73.1155
G1 X35.905 Y107.111 E73.1286
G1 X80.063 Y107.111 E80.9104
G1 X80.063 Y106.724 E80.9787
G1 X92.863 Y106.724 E83.2344
G1 X92.863 Y104.438 E83.6372
G1 X80.063 Y104.438 E85.8929
; layer 3, Z = 1.37647
M105
; tool H0.376 W0.640
; raft
G1 X93.681 Y104.005 F4800
G1 Z1.376 F1002
G92 E0
G1 X93.681 Y123.196 E2.0371 F2100
G1 X92.445 Y124.431 E2.2226
G1 X92.401 Y124.431 E2.2273
G1 X92.401 Y102.731 E4.5308
G1 X91.121 Y102.731 E4.6667
G1 X91.121 Y124.431 E6.9701
G1 X89.841 Y124.431 E7.1060
G1 X89.841 Y102.731 E9.4095
G1 X88.561 Y102.731 E9.5453
G1 X88.561 Y124.431 E11.8488
G1 X87.281 Y124.431 E11.9847
G1 X87.281 Y102.731 E14.2881
G1 X86.001 Y102.731 E14.4240
G1 X86.001 Y124.431 E16.7275
G1 X84.721 Y124.431 E16.8633
G1 X84.721 Y102.731 E19.1668
G1 X83.441 Y102.731 E19.3027
G1 X83.441 Y124.431 E21.6061
G1 X82.161 Y124.431 E21.7420
G1 X82.161 Y102.731 E24.0455
G1 X80.881 Y102.731 E24.1813
G1 X80.881 Y124.431 E26.4848
G1 X80.556 Y124.431 E26.5192
G1 X79.601 Y123.476 E26.6627
G1 X79.601 Y103.649 E28.7673
G1 X79.183 Y104.067 E28.8300
G1 X79.183 Y106.231 E29.0597
G1 X78.321 Y106.231 E29.1513
G1 X78.321 Y120.931 E30.7117
G1 X77.041 Y120.931 E30.8475
G1 X77.041 Y106.231 E32.4080
G1 X75.761 Y106.231 E32.5438
G1 X75.761 Y120.931 E34.1042
G1 X74.481 Y120.931 E34.2401
G1 X74.481 Y106.231 E35.8005
G1 X73.201 Y106.231 E35.9364
G1 X73.201 Y120.931 E37.4968
G1 X71.921 Y120.931 E37.6327
G1 X71.921 Y106.231 E39.1931
G1 X70.641 Y106.231 E39.3289
G1 X70.641 Y120.931 E40.8893
G1 X69.361 Y120.931 E41.0252
G1 X69.361 Y106.231 E42.5856
G1 X68.081 Y106.231 E42.7215
G1 X68.081 Y120.931 E44.2819
G1 X66.801 Y120.931 E44.4178
G1 X66.801 Y106.231 E45.9782
G1 X65.521 Y106.231 E46.1140
G1 X65.521 Y120.931 E47.6744
G1 X64.241 Y120.931 E47.8103
G1 X64.241 Y106.231 E49.3707
G1 X62.961 Y106.231 E49.5066
G1 X62.961 Y120.931 E51.0670
G1 X61.681 Y120.931 E51.2029
G1 X61.681 Y106.231 E52.7633
G1 X60.401 Y106.231 E52.8992
G1 X60.401 Y120.931 E54.4596
G1 X59.121 Y120.931 E54.5954
G1 X59.121 Y106.231 E56.1558
G1 X57.841 Y106.231 E56.2917
G1 X57.841 Y120.931 E57.8521
G1 X56.561 Y120.931 E57.9880
G1 X56.561 Y106.231 E59.5484
G1 X55.281 Y106.231 E59.6843
G1 X55.281 Y120.931 E61.2447
G1 X54.001 Y120.931 E61.3805
G1 X54.001 Y106.231 E62.9409
G1 X52.721 Y106.231 E63.0768
G1 X52.721 Y120.931 E64.6372
G1 X51.441 Y120.931 E64.7731
G1 X51.441 Y106.231 E66.3335
G1 X50.161 Y106.231 E66.4694
G1 X50.161 Y120.931 E68.0298
G1 X48.881 Y120.931 E68.1656
G1 X48.881 Y106.231 E69.7260
G1 X47.601 Y106.231 E69.8619
G1 X47.601 Y120.931 E71.4223
G1 X46.321 Y120.931 E71.5582
G1 X46.321 Y106.231 E73.1186
G1 X45.041 Y106.231 E73.2545
G1 X45.041 Y120.931 E74.8149
G1 X43.761 Y120.931 E74.9508
G1 X43.761 Y106.231 E76.5112
G1 X42.481 Y106.231 E76.6470
G1 X42.481 Y120.931 E78.2074
G1 X41.201 Y120.931 E78.3433
G1 X41.201 Y106.231 E79.9037
G1 X39.921 Y106.231 E80.0396
G1 X39.921 Y120.931 E81.6000
G1 X38.641 Y120.931 E81.7359
G1 X38.641 Y106.231 E83.2963
G1 X37.361 Y106.231 E83.4321
G1 X37.361 Y120.931 E84.9925
G1 X36.081 Y120.931 E85.1284
G1 X36.081 Y106.179 E86.6944
G1 X34.801 Y106.179 E86.8303
G1 X34.801 Y120.931 E88.3963
G1 X33.521 Y120.931 E88.5321
G1 X33.521 Y106.179 E90.0981
G1 X32.241 Y106.179 E90.2340
G1 X32.241 Y120.931 E91.8000
G1 X30.961 Y120.931 E91.9359
G1 X30.961 Y106.179 E93.5018
G1 X29.681 Y106.179 E93.6377
G1 X29.681 Y120.931 E95.2037
G1 X28.401 Y120.931 E95.3396
G1 X28.401 Y106.179 E96.9056
G1 X27.121 Y106.179 E97.0414
G1 X27.121 Y120.931 E98.6074
G1 X25.841 Y120.931 E98.7433
G1 X25.841 Y106.179 E100.3093
G1 X24.561 Y106.179 E100.4452
G1 X24.561 Y120.931 E102.0111
G1 X23.281 Y120.931 E102.1470
G1 X23.281 Y107.226 E103.6018
G1 X22.992 Y107.514 E103.6451
G1 X22.992 Y115.371 E104.4791
G1 X22.001 Y115.371 E104.5844
G1 X22.001 Y120.931 E105.1746
G1 X20.721 Y120.931 E105.3105
G1 X20.721 Y115.371 E105.9007
G1 X19.441 Y115.371 E106.0365
G1 X19.441 Y120.931 E106.6267
G1 X18.161 Y120.931 E106.7626
G1 X18.161 Y115.371 E107.3528
G1 X16.881 Y115.371 E107.4887
G1 X16.881 Y120.931 E108.0789
G1 X15.601 Y120.931 E108.2147
G1 X15.601 Y115.371 E108.8049
G1 X15.556 Y115.371 E108.8097
G1 X14.321 Y116.607 E108.9951
G1 X14.321 Y119.696 E109.3230
; layer 4, Z = 1.59869
M105
; tool H0.222 W0.400
; raft
G1 X16.100 Y117.663 F4800
G1 Z1.599 F1002
G92 E0
G1 X17.637 Y117.251 E0.0623 F2100
G1 X19.698 Y117.251 E0.1430
G1 X16.100 Y118.215 E0.2888
G1 X16.100 Y118.767 E0.3105
G1 X21.758 Y117.251 E0.5399
G1 X23.819 Y117.251 E0.6206
G1 X17.101 Y119.051 E0.8929
G1 X19.162 Y119.051 E0.9736
G1 X59.990 Y108.111 E2.6289
G1 X57.930 Y108.111 E2.7096
G1 X24.872 Y116.969 E4.0498
G1 X24.872 Y116.417 E4.0715
G1 X55.869 Y108.111 E5.3282
G1 X53.808 Y108.111 E5.4089
G1 X24.872 Y115.865 E6.5820
G1 X24.872 Y115.313 E6.6036
G1 X51.748 Y108.111 E7.6932
G1 X49.687 Y108.111 E7.7739
G1 X24.872 Y114.760 E8.7800
G1 X24.872 Y114.208 E8.8016
G1 X47.626 Y108.111 E9.7241
G1 X45.566 Y108.111 E9.8048
G1 X24.872 Y113.656 E10.6438
G1 X24.872 Y113.104 E10.6654
G1 X43.505 Y108.111 E11.4209
G1 X41.444 Y108.111 E11.5016
G1 X24.872 Y112.552 E12.1735
G1 X24.872 Y112.000 E12.1951
G1 X39.384 Y108.111 E12.7834
G1 X37.323 Y108.111 E12.8641
G1 X24.872 Y111.447 E13.3689
G1 X24.872 Y110.895 E13.3905
G1 X35.442 Y108.063 E13.8191
G1 X35.438 Y108.059 E13.8193
G1 X33.398 Y108.059 E13.8992
G1 X24.872 Y110.343 E14.2449
G1 X24.872 Y109.791 E14.2665
G1 X31.337 Y108.059 E14.5286
G1 X29.277 Y108.059 E14.6093
G1 X24.872 Y109.239 E14.7879
G1 X24.872 Y108.687 E14.8095
G1 X27.216 Y108.059 E14.9045
G1 X25.156 Y108.059 E14.9852
G1 X25.089 Y108.077 E14.9879
G1 X21.223 Y119.051 F4800
G92 E0
G1 X62.051 Y108.111 E1.6553 F2100
G1 X64.111 Y108.111 E1.7360
G1 X23.283 Y119.051 E3.3913
G1 X25.344 Y119.051 E3.4720
G1 X66.172 Y108.111 E5.1273
G1 X68.233 Y108.111 E5.2080
G1 X27.405 Y119.051 E6.8633
G1 X29.465 Y119.051 E6.9440
G1 X70.293 Y108.111 E8.5993
G1 X72.354 Y108.111 E8.6800
G1 X31.526 Y119.051 E10.3353
G1 X33.587 Y119.051 E10.4160
G1 X74.415 Y108.111 E12.0713
G1 X76.475 Y108.111 E12.1520
G1 X35.647 Y119.051 E13.8073
G1 X37.708 Y119.051 E13.8880
G1 X78.536 Y108.111 E15.5433
G1 X80.597 Y108.111 E15.6240
G1 X39.768 Y119.051 E17.2793
G1 X41.829 Y119.051 E17.3600
G1 X91.863 Y105.645 E19.3885
G1 X91.863 Y106.197 E19.4101
G1 X43.890 Y119.051 E21.3551
G1 X45.950 Y119.051 E21.4358
