; G-Code generated by Simplify3D(R) Version 3.1.1
; Apr 15, 2017 at 1:54:17 PM
; Settings Summary
;   processName,normal (clear)
;   applyToModels,extruder arm,Extruder base
;   profileName,Default (modified)
;   profileVersion,2015-07-02 16:19:25
;   baseProfile,normal (modified)
;   printMaterial,PLA
;   printQuality,Fast
;   printExtruders,
;   extruderName,Extruder 1
;   extruderToolheadNumber,0
;   extruderDiameter,0.4
;   extruderAutoWidth,1
;   extruderWidth,0.48
;   extrusionMultiplier,1
;   extruderUseRetract,1
;   extruderRetractionDistance,3.1
;   extruderExtraRestartDistance,0
;   extruderRetractionZLift,0
;   extruderRetractionSpeed,1800
;   extruderUseCoasting,0
;   extruderCoastingDistance,0.2
;   extruderUseWipe,0
;   extruderWipeDistance,5
;   primaryExtruder,0
;   layerHeight,0.25
;   topSolidLayers,2
;   bottomSolidLayers,2
;   perimeterOutlines,3
;   printPerimetersInsideOut,1
;   startPointOption,2
;   startPointOriginX,0
;   startPointOriginY,0
;   startPointOriginZ,300
;   sequentialIslands,0
;   spiralVaseMode,0
;   firstLayerHeightPercentage,100
;   firstLayerWidthPercentage,105
;   firstLayerUnderspeed,0.4
;   useRaft,1
;   raftExtruder,0
;   raftLayers,1
;   raftOffset,0.6
;   raftSeparationDistance,0.24
;   raftInfill,75
;   disableRaftBaseLayers,0
;   useSkirt,1
;   skirtExtruder,0
;   skirtLayers,1
;   skirtOutlines,1
;   skirtOffset,5
;   usePrimePillar,0
;   primePillarExtruder,999
;   primePillarWidth,12
;   primePillarLocation,7
;   primePillarSpeedMultiplier,1
;   useOozeShield,0
;   oozeShieldExtruder,999
;   oozeShieldOffset,2
;   oozeShieldOutlines,1
;   oozeShieldSidewallShape,1
;   oozeShieldSidewallAngle,30
;   oozeShieldSpeedMultiplier,1
;   infillExtruder,0
;   internalInfillPattern,Grid
;   externalInfillPattern,Rectilinear
;   infillPercentage,50
;   outlineOverlapPercentage,15
;   infillExtrusionWidthPercentage,100
;   minInfillLength,5
;   infillLayerInterval,1
;   infillAngles,45,-45
;   overlapInfillAngles,1
;   generateSupport,1
;   supportExtruder,0
;   supportInfillPercentage,30
;   supportExtraInflation,0.2
;   denseSupportLayers,2
;   denseSupportInfillPercentage,80
;   supportLayerInterval,1
;   supportHorizontalPartOffset,0.3
;   supportUpperSeparationLayers,1
;   supportLowerSeparationLayers,1
;   supportType,0
;   supportGridSpacing,1.5
;   maxOverhangAngle,40
;   supportAngles,0
;   temperatureName,Extruder 1 Temperature
;   temperatureNumber,0
;   temperatureSetpointCount,1
;   temperatureSetpointLayers,1
;   temperatureSetpointTemperatures,205
;   temperatureStabilizeAtStartup,1
;   temperatureHeatedBed,0
;   temperatureRelayBetweenLayers,1
;   temperatureRelayBetweenLoops,0
;   fanLayers,1
;   fanSpeeds,0
;   blipFanToFullPower,0
;   adjustSpeedForCooling,1
;   minSpeedLayerTime,20
;   minCoolingSpeedSlowdown,20
;   increaseFanForCooling,0
;   minFanLayerTime,45
;   maxCoolingFanSpeed,100
;   increaseFanForBridging,0
;   bridgingFanSpeed,100
;   use5D,1
;   relativeEdistances,0
;   allowEaxisZeroing,1
;   independentExtruderAxes,0
;   includeM10123,0
;   stickySupport,1
;   applyToolheadOffsets,0
;   gcodeXoffset,0
;   gcodeYoffset,0
;   gcodeZoffset,0
;   overrideMachineDefinition,0
;   machineTypeOverride,0
;   strokeXoverride,113
;   strokeYoverride,187
;   strokeZoverride,100
;   originOffsetXoverride,0
;   originOffsetYoverride,0
;   originOffsetZoverride,0
;   homeXdirOverride,-1
;   homeYdirOverride,-1
;   homeZdirOverride,-1
;   flipXoverride,1
;   flipYoverride,-1
;   flipZoverride,1
;   toolheadOffsets,0,0|0,0|0,0|0,0|0,0|0,0
;   overrideFirmwareConfiguration,1
;   firmwareTypeOverride,RepRap (Marlin/Repetier/Sprinter)
;   GPXconfigOverride,r2
;   baudRateOverride,115200
;   overridePrinterModels,0
;   printerModelsOverride
;   startingGcode,G92 X0 Y0 ; zero X and Y axes,G28 Z; GO TO HOME ON Z
;   layerChangeGcode,
;   retractionGcode,
;   toolChangeGcode,
;   endingGcode,M104 S0 ; turn off extruder,M140 S0 ; turn off bed,G91 ; set to incrimental,G1 Z10 F5000 ; lift nozzle,G90 ; Absolute Positioning,G1 X0 ; move X to left,M84 ; disable motors
;   exportFileFormat,gcode
;   celebration,0
;   celebrationSong,Random Song
;   postProcessing,
;   defaultSpeed,4200
;   outlineUnderspeed,1
;   solidInfillUnderspeed,0.9
;   supportUnderspeed,0.75
;   rapidXYspeed,4800
;   rapidZspeed,1002
;   minBridgingArea,50
;   bridgingExtraInflation,0
;   bridgingExtrusionMultiplier,1
;   bridgingSpeedMultiplier,1
;   filamentDiameter,1.7
;   filamentPricePerKg,27
;   filamentDensity,1.25
;   useMinPrintHeight,0
;   minPrintHeight,0
;   useMaxPrintHeight,0
;   maxPrintHeight,10
;   useDiaphragm,0
;   diaphragmLayerInterval,20
;   robustSlicing,1
;   mergeAllIntoSolid,0
;   onlyRetractWhenCrossingOutline,1
;   retractBetweenLayers,0
;   useRetractionMinTravel,0
;   retractionMinTravel,3
;   retractWhileWiping,0
;   onlyWipeOutlines,1
;   avoidCrossingOutline,0
;   maxMovementDetourFactor,3
;   toolChangeRetractionDistance,12
;   toolChangeExtraRestartDistance,-0.5
;   toolChangeRetractionSpeed,600
;   allowThinWallGapFill,1
;   thinWallAllowedOverlapPercentage,15
;   horizontalSizeCompensation,0
G90
M82
M106 S0
M104 S205 T0
M109 S205 T0
G92 X0 Y0 ; zero X and Y axes
G28 Z; GO TO HOME ON Z
G92 E0
G1 E-3.1000 F1800
G1 Z0.500 F1002
; layer 1, Z = 0.5
M105
T0
; tool H0.500 W0.504
; skirt
G1 X27.035 Y42.909 F4800
G1 E0.0000 F540
G92 E0
G1 X27.056 Y42.898 E0.0026 F1680
G1 X28.943 Y42.116 E0.2294
G1 X28.966 Y42.109 E0.2320
G1 X29.955 Y41.912 E0.3440
G1 X29.979 Y41.910 E0.3466
G1 X56.160 Y41.910 E3.2534
G1 X56.160 Y40.729 E3.3845
G1 X56.162 Y40.705 E3.3871
G1 X56.359 Y39.716 E3.4991
G1 X56.366 Y39.693 E3.5017
G1 X57.148 Y37.806 E3.7285
G1 X57.159 Y37.785 E3.7312
G1 X57.719 Y36.947 E3.8431
G1 X57.734 Y36.929 E3.8457
G1 X61.179 Y33.484 E4.3866
G1 X61.197 Y33.469 E4.3892
G1 X62.035 Y32.909 E4.5011
G1 X62.056 Y32.898 E4.5038
G1 X63.943 Y32.116 E4.7306
G1 X63.966 Y32.109 E4.7332
G1 X64.955 Y31.912 E4.8451
G1 X64.979 Y31.910 E4.8478
G1 X70.021 Y31.910 E5.4076
G1 X70.045 Y31.912 E5.4103
G1 X71.034 Y32.109 E5.5222
G1 X71.057 Y32.116 E5.5248
G1 X72.944 Y32.898 E5.7516
G1 X72.965 Y32.909 E5.7543
G1 X73.803 Y33.469 E5.8662
G1 X73.821 Y33.484 E5.8688
G1 X77.266 Y36.929 E6.4097
G1 X77.281 Y36.947 E6.4123
G1 X77.841 Y37.785 E6.5242
G1 X77.852 Y37.806 E6.5269
G1 X78.634 Y39.693 E6.7537
G1 X78.641 Y39.716 E6.7563
G1 X78.838 Y40.705 E6.8682
G1 X78.840 Y40.729 E6.8709
G1 X78.840 Y57.838 E8.7704
G1 X78.838 Y57.862 E8.7731
G1 X78.625 Y58.888 E8.8894
G1 X78.618 Y58.912 E8.8921
G1 X77.775 Y60.861 E9.1279
G1 X77.764 Y60.882 E9.1306
G1 X77.162 Y61.740 E9.2470
G1 X77.146 Y61.758 E9.2497
G1 X73.512 Y65.177 E9.8036
G1 X73.494 Y65.191 E9.8061
G1 X72.646 Y65.723 E9.9173
G1 X72.625 Y65.733 E9.9199
G1 X70.731 Y66.457 E10.1450
G1 X70.708 Y66.464 E10.1476
G1 X69.722 Y66.633 E10.2587
G1 X69.698 Y66.635 E10.2613
G1 X68.106 Y66.596 E10.4382
G1 X67.868 Y66.606 E10.4646
G1 X67.527 Y66.649 E10.5028
G1 X66.992 Y66.766 E10.5636
G1 X66.831 Y66.816 E10.5822
G1 X66.322 Y67.025 E10.6434
G1 X66.129 Y67.124 E10.6674
G1 X65.875 Y67.278 E10.7004
G1 X65.639 Y67.445 E10.7325
G1 X65.417 Y67.625 E10.7642
G1 X65.208 Y67.822 E10.7961
G1 X65.028 Y68.014 E10.8253
G1 X64.834 Y68.257 E10.8599
G1 X64.644 Y68.530 E10.8968
G1 X64.516 Y68.744 E10.9244
G1 X63.862 Y69.992 E11.0810
G1 X63.857 Y70.000 E11.0820
G1 X63.650 Y70.332 E11.1254
G1 X63.645 Y70.340 E11.1264
G1 X63.342 Y70.751 E11.1831
G1 X63.626 Y71.130 E11.2358
G1 X63.632 Y71.138 E11.2369
G1 X63.853 Y71.490 E11.2830
G1 X63.858 Y71.499 E11.2841
G1 X64.512 Y72.753 E11.4412
G1 X64.670 Y73.015 E11.4751
G1 X64.806 Y73.207 E11.5012
G1 X65.160 Y73.628 E11.5624
G1 X65.318 Y73.786 E11.5871
G1 X65.555 Y73.992 E11.6220
G1 X65.729 Y74.128 E11.6465
G1 X65.940 Y74.270 E11.6748
G1 X66.189 Y74.414 E11.7067
G1 X66.402 Y74.519 E11.7331
G1 X66.774 Y74.665 E11.7774
G1 X67.129 Y74.774 E11.8186
G1 X67.484 Y74.846 E11.8588
G1 X67.740 Y74.879 E11.8875
G1 X68.174 Y74.904 E11.9357
G1 X69.687 Y74.864 E12.1038
G1 X69.710 Y74.865 E12.1064
G1 X70.699 Y75.034 E12.2178
G1 X70.722 Y75.040 E12.2204
G1 X72.621 Y75.764 E12.4460
G1 X72.642 Y75.775 E12.4486
G1 X73.492 Y76.307 E12.5600
G1 X73.510 Y76.321 E12.5626
G1 X77.146 Y79.742 E13.1167
G1 X77.162 Y79.760 E13.1194
G1 X77.764 Y80.618 E13.2358
G1 X77.775 Y80.639 E13.2385
G1 X78.618 Y82.588 E13.4742
G1 X78.625 Y82.612 E13.4770
G1 X78.838 Y83.638 E13.5933
G1 X78.840 Y83.662 E13.5960
G1 X78.840 Y85.517 E13.8019
G1 X85.735 Y85.517 E14.5674
G1 X85.781 Y85.526 E14.5727
G1 X87.663 Y86.305 E14.7988
G1 X87.702 Y86.331 E14.8040
G1 X90.665 Y89.294 E15.2692
G1 X90.691 Y89.334 E15.2745
G1 X91.471 Y91.215 E15.5006
G1 X91.480 Y91.262 E15.5058
G1 X91.480 Y113.952 E18.0250
G1 X91.471 Y113.998 E18.0302
G1 X90.691 Y115.880 E18.2563
G1 X90.665 Y115.919 E18.2615
G1 X87.702 Y118.882 E18.7268
G1 X87.663 Y118.908 E18.7320
G1 X85.781 Y119.687 E18.9581
G1 X85.735 Y119.697 E18.9633
G1 X26.545 Y119.697 E25.5348
G1 X26.498 Y119.687 E25.5401
G1 X24.617 Y118.908 E25.7662
G1 X24.578 Y118.882 E25.7714
G1 X21.615 Y115.919 E26.2366
G1 X21.588 Y115.880 E26.2419
G1 X20.809 Y113.998 E26.4680
G1 X20.800 Y113.952 E26.4732
G1 X20.800 Y92.262 E28.8813
G1 X20.809 Y92.215 E28.8866
G1 X21.239 Y91.178 E29.0112
G1 X21.162 Y90.795 E29.0546
G1 X21.160 Y90.771 E29.0572
G1 X21.160 Y50.729 E33.5029
G1 X21.162 Y50.705 E33.5055
G1 X21.359 Y49.716 E33.6175
G1 X21.366 Y49.693 E33.6201
G1 X22.148 Y47.806 E33.8469
G1 X22.159 Y47.785 E33.8495
G1 X22.719 Y46.947 E33.9615
G1 X22.734 Y46.929 E33.9641
G1 X26.179 Y43.484 E34.5049
G1 X26.197 Y43.469 E34.5075
G1 X27.035 Y42.909 E34.6195
; tool H0.500 W0.840
; raft
G1 X29.754 Y47.885 F4800
G92 E0
G1 X30.562 Y47.550 E0.1619 F420
G1 X61.089 Y47.550 E5.8105
G1 X61.800 Y46.839 E5.9966
G1 X61.800 Y41.312 E7.0192
G1 X62.135 Y40.504 E7.1811
G1 X64.754 Y37.885 E7.8665
G1 X65.562 Y37.550 E8.0284
G1 X69.438 Y37.550 E8.7455
G1 X70.246 Y37.885 E8.9074
G1 X72.865 Y40.504 E9.5927
G1 X73.200 Y41.312 E9.7547
G1 X73.200 Y57.231 E12.7002
G1 X72.839 Y58.066 E12.8686
G1 X70.069 Y60.672 E13.5723
G1 X69.258 Y60.982 E13.7330
G1 X68.050 Y60.953 E13.9566
G1 X67.387 Y60.982 E14.0793
G1 X66.568 Y61.086 E14.2321
G1 X65.545 Y61.309 E14.4259
G1 X64.919 Y61.505 E14.5474
G1 X63.961 Y61.897 E14.7389
G1 X63.376 Y62.197 E14.8604
G1 X62.784 Y62.556 E14.9886
G1 X62.228 Y62.949 E15.1145
G1 X61.704 Y63.376 E15.2396
G1 X61.210 Y63.838 E15.3648
G1 X60.757 Y64.326 E15.4880
G1 X60.311 Y64.882 E15.6198
G1 X59.905 Y65.466 E15.7515
G1 X59.596 Y65.981 E15.8626
G1 X58.971 Y67.175 E16.1120
G1 X58.771 Y67.446 E16.1743
G1 X58.307 Y67.908 E16.2954
G1 X58.024 Y68.111 E16.3599
G1 X57.456 Y68.398 E16.4776
G1 X57.185 Y68.492 E16.5307
G1 X56.732 Y68.587 E16.6164
G1 X56.496 Y68.610 E16.6602
G1 X56.026 Y68.606 E16.7473
G1 X55.779 Y68.576 E16.7933
G1 X55.326 Y68.467 E16.8795
G1 X55.102 Y68.388 E16.9235
G1 X54.704 Y68.195 E17.0052
G1 X54.509 Y68.074 E17.0477
G1 X54.190 Y67.826 E17.1225
G1 X54.070 Y67.719 E17.1523
G1 X53.499 Y67.124 E17.3050
G1 X53.078 Y66.761 E17.4077
G1 X52.715 Y66.502 E17.4903
G1 X52.265 Y66.248 E17.5859
G1 X51.659 Y65.992 E17.7076
G1 X51.307 Y65.878 E17.7761
G1 X50.956 Y65.799 E17.8426
G1 X50.506 Y65.736 E17.9268
G1 X50.099 Y65.709 E18.0022
G1 X49.506 Y65.732 E18.1121
G1 X49.309 Y65.757 E18.1488
G1 X48.823 Y65.847 E18.2402
G1 X48.516 Y65.931 E18.2991
G1 X48.001 Y66.121 E18.4006
G1 X47.682 Y66.270 E18.4658
G1 X47.252 Y66.521 E18.5580
G1 X46.940 Y66.740 E18.6284
G1 X46.573 Y67.051 E18.7175
G1 X46.055 Y67.612 E18.8589
G1 X45.684 Y68.142 E18.9785
G1 X45.429 Y68.619 E19.0786
G1 X45.298 Y68.929 E19.1408
G1 X45.128 Y69.452 E19.2426
G1 X44.996 Y70.155 E19.3749
G1 X44.961 Y70.776 E19.4900
G1 X44.980 Y71.240 E19.5759
G1 X45.016 Y71.524 E19.6289
G1 X45.171 Y72.195 E19.7564
G1 X45.442 Y72.903 E19.8967
G1 X45.767 Y73.489 E20.0207
G1 X46.065 Y73.906 E20.1155
G1 X46.316 Y74.195 E20.1864
G1 X46.689 Y74.553 E20.2820
G1 X47.372 Y75.058 E20.4392
G1 X47.616 Y75.199 E20.4913
G1 X47.982 Y75.370 E20.5660
G1 X48.714 Y75.623 E20.7093
G1 X49.223 Y75.732 E20.8057
G1 X49.550 Y75.772 E20.8666
G1 X50.054 Y75.794 E20.9599
G1 X50.419 Y75.776 E21.0275
G1 X50.875 Y75.720 E21.1125
G1 X51.298 Y75.624 E21.1928
G1 X51.896 Y75.426 E21.3094
G1 X52.252 Y75.262 E21.3820
G1 X52.744 Y74.980 E21.4870
G1 X53.286 Y74.576 E21.6119
G1 X53.560 Y74.321 E21.6811
G1 X54.066 Y73.784 E21.8177
G1 X54.208 Y73.657 E21.8529
G1 X54.617 Y73.352 E21.9474
G1 X54.922 Y73.191 E22.0113
G1 X55.645 Y72.944 E22.1526
G1 X56.063 Y72.886 E22.2306
G1 X56.853 Y72.929 E22.3771
G1 X57.244 Y73.023 E22.4515
G1 X57.919 Y73.323 E22.5881
G1 X58.237 Y73.536 E22.6590
G1 X58.754 Y74.033 E22.7916
G1 X58.968 Y74.319 E22.8578
G1 X59.593 Y75.519 E23.1081
G1 X59.946 Y76.102 E23.2342
G1 X60.335 Y76.654 E23.3593
G1 X61.002 Y77.446 E23.5507
G1 X61.467 Y77.911 E23.6725
G1 X61.970 Y78.350 E23.7960
G1 X62.417 Y78.697 E23.9007
G1 X62.943 Y79.052 E24.0181
G1 X63.529 Y79.391 E24.1434
G1 X64.126 Y79.684 E24.2664
G1 X64.915 Y79.994 E24.4234
G1 X65.736 Y80.246 E24.5821
G1 X66.556 Y80.413 E24.7371
G1 X67.219 Y80.499 E24.8608
G1 X68.091 Y80.548 E25.0223
G1 X69.255 Y80.517 E25.2379
G1 X70.069 Y80.827 E25.3990
G1 X72.839 Y83.434 E26.1028
G1 X73.200 Y84.269 E26.2712
G1 X73.200 Y90.188 E27.3664
G1 X72.865 Y90.996 E27.5283
G1 X71.705 Y92.157 E27.8320
G1 X75.732 Y92.157 E28.5771
G1 X76.732 Y91.157 E28.8388
G1 X84.551 Y91.157 E30.2858
G1 X85.840 Y92.445 E30.6230
G1 X85.840 Y112.768 E34.3834
G1 X84.551 Y114.057 E34.7207
G1 X27.729 Y114.057 E45.2350
G1 X26.440 Y112.768 E45.5723
G1 X26.440 Y93.445 E49.1477
G1 X28.012 Y91.873 E49.5591
G1 X27.135 Y90.996 E49.7886
G1 X26.800 Y90.188 E49.9505
G1 X26.800 Y51.312 E57.1439
G1 X27.135 Y50.504 E57.3059
G1 X29.754 Y47.885 E57.9912
G1 X64.538 Y39.232 F4800
G92 E0
G1 X70.462 Y39.232 E1.0961 F420
G1 X72.187 Y40.957 E1.5475
G1 X72.400 Y41.472 E1.6506
G1 X72.400 Y41.518 E1.6591
G1 X62.600 Y41.518 E3.4725
G1 X62.600 Y43.803 E3.8954
G1 X72.400 Y43.803 E5.7088
G1 X72.400 Y46.089 E6.1317
G1 X62.600 Y46.089 E7.9451
G1 X62.600 Y47.170 E8.1451
G1 X61.420 Y48.350 E8.4539
G1 X30.722 Y48.350 E14.1343
G1 X30.662 Y48.375 E14.1463
G1 X72.400 Y48.375 E21.8695
G1 X72.400 Y50.660 E22.2924
G1 X28.110 Y50.660 E30.4878
G1 X27.813 Y50.957 E30.5654
G1 X27.600 Y51.472 E30.6685
G1 X27.600 Y52.946 E30.9414
G1 X72.400 Y52.946 E39.2311
G1 X72.400 Y55.232 E39.6540
G1 X27.600 Y55.232 E47.9437
G1 X27.600 Y57.518 E48.3667
G1 X72.205 Y57.518 E56.6202
G1 X72.170 Y57.597 E56.6363
G1 X69.825 Y59.803 E57.2320
G1 X27.600 Y59.803 E65.0453
G1 X27.600 Y62.089 E65.4683
G1 X62.059 Y62.089 E71.8444
G1 X61.744 Y62.311 E71.9157
G1 X61.177 Y62.773 E72.0510
G1 X60.643 Y63.273 E72.1864
G1 X60.151 Y63.803 E72.3202
G1 X59.692 Y64.375 E72.4558
G1 X27.600 Y64.375 E78.3942
G1 X27.600 Y66.660 E78.8171
G1 X45.844 Y66.660 E82.1930
G1 X45.430 Y67.109 E82.3061
G1 X45.001 Y67.723 E82.4446
G1 X44.706 Y68.274 E82.5601
G1 X44.548 Y68.649 E82.6355
G1 X44.451 Y68.946 E82.6934
G1 X27.600 Y68.946 E85.8115
G1 X27.600 Y71.232 E86.2344
G1 X44.179 Y71.232 E89.3021
G1 X44.182 Y71.306 E89.3159
G1 X44.227 Y71.665 E89.3828
G1 X44.404 Y72.429 E89.5279
G1 X44.715 Y73.241 E89.6889
G1 X44.868 Y73.518 E89.7473
G1 X27.600 Y73.518 E92.9426
G1 X27.600 Y75.803 E93.3655
G1 X47.063 Y75.803 E96.9669
G1 X47.246 Y75.909 E97.0060
G1 X47.680 Y76.113 E97.0948
G1 X48.499 Y76.395 E97.2551
G1 X49.091 Y76.522 E97.3670
G1 X49.484 Y76.570 E97.4403
G1 X50.056 Y76.594 E97.5463
G1 X50.487 Y76.573 E97.6261
G1 X51.012 Y76.509 E97.7240
G1 X51.512 Y76.395 E97.8189
G1 X52.190 Y76.171 E97.9510
G1 X52.619 Y75.973 E98.0385
G1 X52.916 Y75.803 E98.1017
G1 X58.840 Y75.803 E99.1978
G1 X58.896 Y75.911 E99.2203
G1 X59.276 Y76.540 E99.3563
G1 X59.701 Y77.143 E99.4929
G1 X60.412 Y77.987 E99.6970
G1 X60.514 Y78.089 E99.7237
G1 X27.600 Y78.089 E105.8139
G1 X27.600 Y80.375 E106.2369
G1 X63.716 Y80.375 E112.9198
G1 X63.803 Y80.417 E112.9376
G1 X64.652 Y80.750 E113.1063
G1 X65.538 Y81.022 E113.2779
G1 X66.425 Y81.203 E113.4454
G1 X67.145 Y81.296 E113.5798
G1 X68.079 Y81.348 E113.7528
G1 X69.118 Y81.321 E113.9452
G1 X69.636 Y81.518 E114.0477
G1 X70.850 Y82.660 E114.3561
